;FLAVOR:Marlin
;TIME:3533
;Filament used: 1.42968m
;Layer height: 0.16
;MINX:138.325
;MINY:150.585
;MINZ:0.3
;MAXX:171.675
;MAXY:159.415
;MAXZ:42.86
;POSTPROCESSED
;Generated with Cura_SteamEngine 4.8.0
M140 S60
M105
M190 S60
M104 S250
M105
M109 S250
M82 ;absolute extrusion mode
G28 ;Home
G1 Z15.0 F6000 ;Move the platform down 15mm
;Prime the extruder
G92 E0
G1 F200 E3
G92 E0
G92 E0
G92 E0
G1 F3000 E-5
;LAYER_COUNT:267
;LAYER:0
M107
M204 S500
M205 X5 Y5
;MESH:0747edfa-247f-4a96-b100-ff4a40e0ee10.stl
G0 F2100 X171.675 Y157.8 Z0.3
;TYPE:WALL-OUTER
G1 F3000 E0
G1 F2250 X166.825 Y157.8 E0.24197
G1 X161.925 Y157.8 E0.48643
G1 X144.325 Y157.8 E1.3645
G1 X139.425 Y157.8 E1.60896
G1 X139.075 Y157.8 E1.62642
G1 X139.075 Y157.45 E1.64388
G1 X139.075 Y152.55 E1.88834
G1 X139.075 Y152.2 E1.90581
G1 X139.425 Y152.2 E1.92327
G1 X144.325 Y152.2 E2.16773
G1 X161.925 Y152.2 E3.0458
G1 X166.825 Y152.2 E3.29026
G1 X171.675 Y152.2 E3.53223
G1 X171.675 Y157.8 E3.81161
G0 F2100 X171.475 Y157.8
G0 X171.235 Y157.36
G0 X167.053 Y157.478
G0 X161.697 Y157.478
G0 X144.553 Y152.522
G0 X139.355 Y152.48
G0 X139.425 Y152.55
G1 F2250 X139.425 Y157.45 E4.02552
G1 X144.325 Y157.45 E4.23942
G1 X144.325 Y152.55 E4.48388
G1 X139.425 Y152.55 E4.69779
G0 F2100 X139.425 Y152.75
G0 X139.325 Y152.75
G0 X161.925 Y152.45
G0 X161.925 Y152.55
G1 F2250 X161.925 Y157.45 E4.94225
G1 X166.825 Y157.45 E5.15615
G1 X166.825 Y152.55 E5.40061
G1 X161.925 Y152.55 E5.61452
G0 F2100 X161.925 Y152.75
G0 X161.485 Y152.75
G0 X167.053 Y152.522
G0 X171.275 Y157.4
;TYPE:WALL-INNER
G1 F2250 X167.225 Y157.4 E5.81657
G1 X167.225 Y152.6 E6.05605
G1 X171.275 Y152.6 E6.2581
G1 X171.275 Y157.4 E6.49758
G0 F2100 X170.875 Y157
G1 F2250 X167.625 Y157 E6.65972
G1 X167.625 Y153 E6.85928
G1 X170.875 Y153 E7.02142
G1 X170.875 Y157 E7.22098
G0 F2100 X167.053 Y157.478
G0 X161.697 Y157.478
G0 X161.525 Y157.4
G1 F2250 X144.725 Y157.4 E8.05914
G1 X144.725 Y152.6 E8.29861
G1 X161.525 Y152.6 E9.13677
G1 X161.525 Y157.4 E9.37624
G0 F2100 X161.125 Y157
G1 F2250 X145.125 Y157 E10.17448
G1 X145.125 Y153 E10.37404
G1 X161.125 Y153 E11.17229
G1 X161.125 Y157 E11.37185
G0 F2100 X160.735 Y156.61
;TYPE:SKIN
G1 F2250 X145.515 Y156.61 E12.13118
G1 X145.515 Y153.39 E12.29182
G1 X160.735 Y153.39 E13.05115
G1 X160.735 Y156.61 E13.2118
G0 F2100 X160.554 Y153.766
G1 F2250 X160.357 Y153.569 E13.2257
G0 F2100 X159.791 Y153.569
G1 F2250 X160.554 Y154.331 E13.2795
G0 F2100 X160.554 Y154.897
G1 F2250 X159.226 Y153.569 E13.37319
G0 F2100 X158.66 Y153.569
G1 F2250 X160.554 Y155.463 E13.50683
G0 F2100 X160.554 Y156.028
G1 F2250 X158.094 Y153.569 E13.68036
G0 F2100 X157.529 Y153.569
G1 F2250 X160.389 Y156.429 E13.88215
G0 F2100 X159.823 Y156.429
G1 F2250 X156.963 Y153.569 E14.08393
G0 F2100 X156.397 Y153.569
G1 F2250 X159.258 Y156.429 E14.28576
G0 F2100 X158.692 Y156.429
G1 F2250 X155.832 Y153.569 E14.48755
G0 F2100 X155.266 Y153.569
G1 F2250 X158.126 Y156.429 E14.68933
G0 F2100 X157.561 Y156.429
G1 F2250 X154.7 Y153.569 E14.89116
G0 F2100 X154.135 Y153.569
G1 F2250 X156.995 Y156.429 E15.09295
G0 F2100 X156.429 Y156.429
G1 F2250 X153.569 Y153.569 E15.29474
G0 F2100 X153.003 Y153.569
G1 F2250 X155.864 Y156.429 E15.49656
G0 F2100 X155.298 Y156.429
G1 F2250 X152.438 Y153.569 E15.69835
G0 F2100 X151.872 Y153.569
G1 F2250 X154.732 Y156.429 E15.90014
G0 F2100 X154.166 Y156.429
G1 F2250 X151.306 Y153.569 E16.10192
G0 F2100 X150.741 Y153.569
G1 F2250 X153.601 Y156.429 E16.30371
G0 F2100 X153.034 Y156.428
G1 F2250 X150.175 Y153.569 E16.50543
G0 F2100 X149.609 Y153.569
G1 F2250 X152.469 Y156.428 E16.70718
G0 F2100 X151.903 Y156.428
G1 F2250 X149.043 Y153.569 E16.90894
G0 F2100 X148.478 Y153.569
G1 F2250 X151.337 Y156.428 E17.11065
G0 F2100 X150.772 Y156.428
G1 F2250 X147.912 Y153.569 E17.31241
G0 F2100 X147.346 Y153.569
G1 F2250 X150.206 Y156.428 E17.51416
G0 F2100 X149.64 Y156.428
G1 F2250 X146.781 Y153.569 E17.71588
G0 F2100 X146.215 Y153.569
G1 F2250 X149.075 Y156.428 E17.91763
G0 F2100 X148.509 Y156.428
G1 F2250 X145.695 Y153.614 E18.11618
G0 F2100 X145.695 Y154.18
G1 F2250 X147.943 Y156.428 E18.27478
G0 F2100 X147.378 Y156.428
G1 F2250 X145.695 Y154.746 E18.39349
G0 F2100 X145.695 Y155.311
G1 F2250 X146.812 Y156.428 E18.4723
G0 F2100 X146.246 Y156.428
G1 F2250 X145.695 Y155.877 E18.51118
G0 F2100 X161.697 Y157.478
G0 X167.053 Y157.478
G0 X168.015 Y156.61
G1 F2250 X168.015 Y153.39 E18.67183
G1 X170.485 Y153.39 E18.79505
G1 X170.485 Y156.61 E18.9557
G1 X168.015 Y156.61 E19.07893
G0 F2100 X168.309 Y156.429
G1 F2250 X168.194 Y156.315 E19.08701
G0 F2100 X168.194 Y155.749
G1 F2250 X168.874 Y156.429 E19.13499
G0 F2100 X169.44 Y156.429
G1 F2250 X168.194 Y155.183 E19.2229
G0 F2100 X168.194 Y154.618
G1 F2250 X170.006 Y156.429 E19.35071
G0 F2100 X170.304 Y156.162
G1 F2250 X168.194 Y154.052 E19.49958
G0 F2100 X168.277 Y153.57
G1 F2250 X170.304 Y155.596 E19.64256
G0 F2100 X170.304 Y155.031
G1 F2250 X168.843 Y153.57 E19.74564
G0 F2100 X169.409 Y153.57
G1 F2250 X170.304 Y154.465 E19.80879
G0 F2100 X170.304 Y153.899
G1 F2250 X169.975 Y153.57 E19.832
;MESH:NONMESH
G0 F600 X169.975 Y153.57 Z0.46
G0 F2100 X171.405 Y157.53
G0 X171.675 Y157.8
;TIME_ELAPSED:28.879805
;LAYER:1
M106 S255
;TYPE:WALL-OUTER
;MESH:0747edfa-247f-4a96-b100-ff4a40e0ee10.stl
G1 F2250 X166.825 Y157.8 E19.96105
G1 X161.925 Y157.8 E20.09143
G1 X144.325 Y157.8 E20.55974
G1 X139.425 Y157.8 E20.69011
G1 X139.075 Y157.8 E20.69943
G1 X139.075 Y157.45 E20.70874
G1 X139.075 Y152.55 E20.83912
G1 X139.075 Y152.2 E20.84843
G1 X139.425 Y152.2 E20.85775
G1 X144.325 Y152.2 E20.98813
G1 X161.925 Y152.2 E21.45643
G1 X166.825 Y152.2 E21.58681
G1 X171.675 Y152.2 E21.71586
G1 X171.675 Y157.8 E21.86486
G0 F4050 X171.475 Y157.8
G0 X171.235 Y157.36
G0 X167.053 Y157.478
G0 X161.697 Y157.478
G0 X144.553 Y152.522
G0 X139.355 Y152.48
G0 X139.425 Y152.55
G1 F2250 X139.425 Y157.45 E21.97895
G1 X144.325 Y157.45 E22.09303
G1 X144.325 Y152.55 E22.22341
G1 X139.425 Y152.55 E22.33749
G0 F4050 X139.425 Y152.75
G0 X139.325 Y152.75
G0 X161.925 Y152.45
G0 X161.925 Y152.55
G1 F2250 X161.925 Y157.45 E22.46787
G1 X166.825 Y157.45 E22.58195
G1 X166.825 Y152.55 E22.71233
G1 X161.925 Y152.55 E22.82641
G0 F4050 X161.925 Y152.75
G0 X161.485 Y152.75
G0 X167.053 Y152.522
G0 X171.275 Y157.4
;TYPE:WALL-INNER
G1 F2250 X167.225 Y157.4 E22.93418
G1 X167.225 Y152.6 E23.0619
G1 X171.275 Y152.6 E23.16966
G1 X171.275 Y157.4 E23.29738
G0 F4050 X170.875 Y157
G1 F2250 X167.625 Y157 E23.38385
G1 X167.625 Y153 E23.49029
G1 X170.875 Y153 E23.57676
G1 X170.875 Y157 E23.68319
G0 F4050 X167.053 Y157.478
G0 X161.697 Y157.478
G0 X161.525 Y157.4
G1 F2250 X144.725 Y157.4 E24.13021
G1 X144.725 Y152.6 E24.25793
G1 X161.525 Y152.6 E24.70495
G1 X161.525 Y157.4 E24.83266
G0 F4050 X161.125 Y157
G1 F2250 X145.125 Y157 E25.25839
G1 X145.125 Y153 E25.36483
G1 X161.125 Y153 E25.79056
G1 X161.125 Y157 E25.89699
G0 F4050 X160.735 Y156.61
;TYPE:SKIN
G1 F2250 X145.515 Y156.61 E26.30196
G1 X145.515 Y153.39 E26.38764
G1 X160.735 Y153.39 E26.79262
G1 X160.735 Y156.61 E26.8783
G0 F4050 X160.554 Y156.229
G1 F2250 X160.353 Y156.43 E26.88586
G0 F4050 X159.787 Y156.43
G1 F2250 X160.554 Y155.663 E26.91472
G0 F4050 X160.554 Y155.098
G1 F2250 X159.222 Y156.43 E26.96484
G0 F4050 X158.656 Y156.43
G1 F2250 X160.554 Y154.532 E27.03626
G0 F4050 X160.554 Y153.966
G1 F2250 X158.09 Y156.43 E27.12898
G0 F4050 X157.525 Y156.43
G1 F2250 X160.385 Y153.569 E27.23662
G0 F4050 X159.82 Y153.569
G1 F2250 X156.959 Y156.43 E27.34428
G0 F4050 X156.393 Y156.43
G1 F2250 X159.254 Y153.569 E27.45194
G0 F4050 X158.688 Y153.569
G1 F2250 X155.827 Y156.43 E27.5596
G0 F4050 X155.262 Y156.43
G1 F2250 X158.123 Y153.569 E27.66726
G0 F4050 X157.557 Y153.569
G1 F2250 X154.696 Y156.43 E27.77491
G0 F4050 X154.13 Y156.43
G1 F2250 X156.991 Y153.569 E27.88257
G0 F4050 X156.426 Y153.569
G1 F2250 X153.565 Y156.43 E27.99023
G0 F4050 X153 Y156.429
G1 F2250 X155.86 Y153.569 E28.09785
G0 F4050 X155.294 Y153.569
G1 F2250 X152.434 Y156.429 E28.20547
G0 F4050 X151.868 Y156.429
G1 F2250 X154.729 Y153.569 E28.31311
G0 F4050 X154.163 Y153.569
G1 F2250 X151.303 Y156.429 E28.42073
G0 F4050 X150.737 Y156.429
G1 F2250 X153.597 Y153.569 E28.52835
G0 F4050 X153.032 Y153.569
G1 F2250 X150.171 Y156.429 E28.63599
G0 F4050 X149.606 Y156.429
G1 F2250 X152.466 Y153.569 E28.74361
G0 F4050 X151.9 Y153.569
G1 F2250 X149.04 Y156.429 E28.85123
G0 F4050 X148.474 Y156.429
G1 F2250 X151.334 Y153.569 E28.95885
G0 F4050 X150.769 Y153.569
G1 F2250 X147.909 Y156.429 E29.06647
G0 F4050 X147.343 Y156.429
G1 F2250 X150.203 Y153.569 E29.17409
G0 F4050 X149.637 Y153.569
G1 F2250 X146.777 Y156.429 E29.28171
G0 F4050 X146.212 Y156.429
G1 F2250 X149.072 Y153.569 E29.38933
G0 F4050 X148.506 Y153.569
G1 F2250 X145.695 Y156.38 E29.49511
G0 F4050 X145.695 Y155.815
G1 F2250 X147.94 Y153.569 E29.57961
G0 F4050 X147.375 Y153.569
G1 F2250 X145.695 Y155.249 E29.64283
G0 F4050 X145.695 Y154.683
G1 F2250 X146.809 Y153.569 E29.68475
G0 F4050 X146.243 Y153.569
G1 F2250 X145.695 Y154.118 E29.70539
G0 F4050 X161.697 Y152.522
G0 X167.053 Y152.522
G0 X168.015 Y153.39
G1 F2250 X170.485 Y153.39 E29.77111
G1 X170.485 Y156.61 E29.85679
G1 X168.015 Y156.61 E29.92251
G1 X168.015 Y153.39 E30.00819
G0 F4050 X168.304 Y153.57
G1 F2250 X168.194 Y153.68 E30.01232
G0 F4050 X168.194 Y154.246
G1 F2250 X168.87 Y153.57 E30.03776
G0 F4050 X169.436 Y153.57
G1 F2250 X168.194 Y154.811 E30.08448
G0 F4050 X168.194 Y155.377
G1 F2250 X170.001 Y153.57 E30.15248
G0 F4050 X170.304 Y153.833
G1 F2250 X168.194 Y155.943 E30.23187
G0 F4050 X168.273 Y156.429
G1 F2250 X170.304 Y154.398 E30.3083
G0 F4050 X170.304 Y154.964
G1 F2250 X168.839 Y156.429 E30.36343
G0 F4050 X169.405 Y156.429
G1 F2250 X170.304 Y155.53 E30.39726
G0 F4050 X170.304 Y156.095
G1 F2250 X169.97 Y156.429 E30.40982
;MESH:NONMESH
G0 F600 X169.97 Y156.429 Z0.62
G0 F4050 X167.053 Y157.478
G0 X161.697 Y157.478
G0 X144.675 Y152.55
;TIME_ELAPSED:49.629295
;LAYER:2
;TYPE:WALL-OUTER
;MESH:0747edfa-247f-4a96-b100-ff4a40e0ee10.stl
G1 F1146.4 X144.675 Y157.45 E30.5402
G1 X144.675 Y157.8 E30.54952
G1 X144.325 Y157.8 E30.55883
G1 X139.425 Y157.8 E30.68921
G1 X139.075 Y157.8 E30.69852
G1 X139.075 Y157.45 E30.70784
G1 X139.075 Y152.55 E30.83821
G1 X139.075 Y152.2 E30.84753
G1 X139.425 Y152.2 E30.85684
G1 X144.325 Y152.2 E30.98722
G1 X144.675 Y152.2 E30.99653
G1 X144.675 Y152.55 E31.00585
G0 F6000 X144.675 Y152.75
G0 X144.325 Y152.55
G1 F1146.4 X139.425 Y152.55 E31.11993
G1 X139.425 Y157.45 E31.23401
G1 X144.325 Y157.45 E31.34809
G1 X144.325 Y152.55 E31.46217
G0 F6000 X144.125 Y152.55
G1 F3000 E26.46217
G0 F6000 X144.125 Y152.45
G0 X145.54 Y152.55
G0 X160.71 Y152.55
G0 X161.595 Y152.55
G0 X167.075 Y152.55
G0 X167.175 Y152.55
G1 F3000 E31.46217
G1 F1146.4 X167.175 Y157.45 E31.59255
G1 X167.175 Y157.8 E31.60187
G1 X166.825 Y157.8 E31.61118
G1 X161.925 Y157.8 E31.74156
G1 X161.575 Y157.8 E31.75087
G1 X161.575 Y157.45 E31.76019
G1 X161.575 Y152.55 E31.89057
G1 X161.575 Y152.2 E31.89988
G1 X161.925 Y152.2 E31.90919
G1 X166.825 Y152.2 E32.03957
G1 X167.175 Y152.2 E32.04888
G1 X167.175 Y152.55 E32.0582
G0 F6000 X167.175 Y152.75
G0 X166.825 Y152.55
G1 F1146.4 X161.925 Y152.55 E32.17228
G1 X161.925 Y157.45 E32.28636
G1 X166.825 Y157.45 E32.40044
G1 X166.825 Y152.55 E32.51453
G0 F6000 X166.625 Y152.55
G1 F3000 E27.51453
;MESH:NONMESH
G0 F600 X166.625 Y152.55 Z0.78
G0 F6000 X166.625 Y152.45
G0 X161.595 Y152.55
G0 X160.71 Y152.55
G0 X145.54 Y152.55
G0 X144.655 Y152.55
G0 X144.675 Y152.55
;TIME_ELAPSED:56.180639
;LAYER:3
;TYPE:WALL-OUTER
;MESH:0747edfa-247f-4a96-b100-ff4a40e0ee10.stl
G1 F3000 E32.51453
G1 F1137 X144.675 Y157.45 E32.64491
G1 X144.675 Y157.8 E32.65422
G1 X144.325 Y157.8 E32.66353
G1 X139.425 Y157.8 E32.79391
G1 X139.075 Y157.8 E32.80322
G1 X139.075 Y157.45 E32.81254
G1 X139.075 Y152.55 E32.94292
G1 X139.075 Y152.2 E32.95223
G1 X139.425 Y152.2 E32.96154
G1 X144.325 Y152.2 E33.09192
G1 X144.675 Y152.2 E33.10123
G1 X144.675 Y152.55 E33.11055
G0 F6000 X144.675 Y152.75
G0 X144.325 Y152.55
G1 F1137 X139.425 Y152.55 E33.22463
G1 X139.425 Y157.45 E33.33871
G1 X144.325 Y157.45 E33.45279
G1 X144.325 Y152.55 E33.56688
G0 F6000 X144.125 Y152.55
G1 F3000 E28.56688
G0 F6000 X144.125 Y152.45
G0 X145.54 Y152.55
G0 X160.71 Y152.55
G0 X161.595 Y152.55
G0 X167.075 Y152.55
G0 X167.175 Y152.55
G1 F3000 E33.56688
G1 F1137 X167.175 Y157.45 E33.69726
G1 X167.175 Y157.8 E33.70657
G1 X166.825 Y157.8 E33.71588
G1 X161.925 Y157.8 E33.84626
G1 X161.575 Y157.8 E33.85557
G1 X161.575 Y157.45 E33.86489
G1 X161.575 Y152.55 E33.99527
G1 X161.575 Y152.2 E34.00458
G1 X161.925 Y152.2 E34.01389
G1 X166.825 Y152.2 E34.14427
G1 X167.175 Y152.2 E34.15359
G1 X167.175 Y152.55 E34.1629
G0 F6000 X167.175 Y152.75
G0 X166.825 Y152.55
G1 F1137 X161.925 Y152.55 E34.27698
G1 X161.925 Y157.45 E34.39106
G1 X166.825 Y157.45 E34.50514
G1 X166.825 Y152.55 E34.61923
G0 F6000 X166.625 Y152.55
G1 F3000 E29.61923
;MESH:NONMESH
G0 F600 X166.625 Y152.55 Z0.94
G0 F6000 X166.625 Y152.45
G0 X161.595 Y152.55
G0 X160.71 Y152.55
G0 X145.54 Y152.55
G0 X144.655 Y152.55
G0 X144.675 Y152.55
;TIME_ELAPSED:62.955821
;LAYER:4
;TYPE:WALL-OUTER
;MESH:0747edfa-247f-4a96-b100-ff4a40e0ee10.stl
G1 F3000 E34.61923
G1 F1137 X144.675 Y157.45 E34.74961
G1 X144.675 Y157.8 E34.75892
G1 X144.325 Y157.8 E34.76823
G1 X139.425 Y157.8 E34.89861
G1 X139.075 Y157.8 E34.90792
G1 X139.075 Y157.45 E34.91724
G1 X139.075 Y152.55 E35.04762
G1 X139.075 Y152.2 E35.05693
G1 X139.425 Y152.2 E35.06624
G1 X144.325 Y152.2 E35.19662
G1 X144.675 Y152.2 E35.20594
G1 X144.675 Y152.55 E35.21525
G0 F6000 X144.675 Y152.75
G0 X144.325 Y152.55
G1 F1137 X139.425 Y152.55 E35.32933
G1 X139.425 Y157.45 E35.44341
G1 X144.325 Y157.45 E35.5575
G1 X144.325 Y152.55 E35.67158
G0 F6000 X144.125 Y152.55
G1 F3000 E30.67158
G0 F6000 X144.125 Y152.45
G0 X145.54 Y152.55
G0 X160.71 Y152.55
G0 X161.595 Y152.55
G0 X167.075 Y152.55
G0 X167.175 Y152.55
G1 F3000 E35.67158
G1 F1137 X167.175 Y157.45 E35.80196
G1 X167.175 Y157.8 E35.81127
G1 X166.825 Y157.8 E35.82058
G1 X161.925 Y157.8 E35.95096
G1 X161.575 Y157.8 E35.96028
G1 X161.575 Y157.45 E35.96959
G1 X161.575 Y152.55 E36.09997
G1 X161.575 Y152.2 E36.10928
G1 X161.925 Y152.2 E36.11859
G1 X166.825 Y152.2 E36.24897
G1 X167.175 Y152.2 E36.25829
G1 X167.175 Y152.55 E36.2676
G0 F6000 X167.175 Y152.75
G0 X166.825 Y152.55
G1 F1137 X161.925 Y152.55 E36.38168
G1 X161.925 Y157.45 E36.49576
G1 X166.825 Y157.45 E36.60985
G1 X166.825 Y152.55 E36.72393
G0 F6000 X166.625 Y152.55
G1 F3000 E31.72393
;MESH:NONMESH
G0 F600 X166.625 Y152.55 Z1.1
G0 F6000 X166.625 Y152.45
G0 X161.595 Y152.55
G0 X160.71 Y152.55
G0 X145.54 Y152.55
G0 X144.655 Y152.55
G0 X144.675 Y152.55
;TIME_ELAPSED:69.731002
;LAYER:5
;TYPE:WALL-OUTER
;MESH:0747edfa-247f-4a96-b100-ff4a40e0ee10.stl
G1 F3000 E36.72393
G1 F1137 X144.675 Y157.45 E36.85431
G1 X144.675 Y157.8 E36.86362
G1 X144.325 Y157.8 E36.87293
G1 X139.425 Y157.8 E37.00331
G1 X139.075 Y157.8 E37.01263
G1 X139.075 Y157.45 E37.02194
G1 X139.075 Y152.55 E37.15232
G1 X139.075 Y152.2 E37.16163
G1 X139.425 Y152.2 E37.17094
G1 X144.325 Y152.2 E37.30132
G1 X144.675 Y152.2 E37.31064
G1 X144.675 Y152.55 E37.31995
G0 F6000 X144.675 Y152.75
G0 X144.325 Y152.55
G1 F1137 X139.425 Y152.55 E37.43403
G1 X139.425 Y157.45 E37.54811
G1 X144.325 Y157.45 E37.6622
G1 X144.325 Y152.55 E37.77628
G0 F6000 X144.125 Y152.55
G1 F3000 E32.77628
G0 F6000 X144.125 Y152.45
G0 X145.54 Y152.55
G0 X160.71 Y152.55
G0 X161.595 Y152.55
G0 X167.075 Y152.55
G0 X167.175 Y152.55
G1 F3000 E37.77628
G1 F1137 X167.175 Y157.45 E37.90666
G1 X167.175 Y157.8 E37.91597
G1 X166.825 Y157.8 E37.92528
G1 X161.925 Y157.8 E38.05566
G1 X161.575 Y157.8 E38.06498
G1 X161.575 Y157.45 E38.07429
G1 X161.575 Y152.55 E38.20467
G1 X161.575 Y152.2 E38.21398
G1 X161.925 Y152.2 E38.2233
G1 X166.825 Y152.2 E38.35367
G1 X167.175 Y152.2 E38.36299
G1 X167.175 Y152.55 E38.3723
G0 F6000 X167.175 Y152.75
G0 X166.825 Y152.55
G1 F1137 X161.925 Y152.55 E38.48638
G1 X161.925 Y157.45 E38.60047
G1 X166.825 Y157.45 E38.71455
G1 X166.825 Y152.55 E38.82863
G0 F6000 X166.625 Y152.55
G1 F3000 E33.82863
;MESH:NONMESH
G0 F600 X166.625 Y152.55 Z1.26
G0 F6000 X166.625 Y152.45
