;FLAVOR:Marlin
;TIME:5367
;Filament used: 2.21408m
;Layer height: 0.16
;MINX:138.325
;MINY:150.585
;MINZ:0.3
;MAXX:171.675
;MAXY:159.415
;MAXZ:65.9
;POSTPROCESSED
;Generated with Cura_SteamEngine 4.8.0
M140 S60
M105
M190 S60
M104 S260
M105
M109 S260
M82 ;absolute extrusion mode
G28 ;Home
G1 Z15.0 F6000 ;Move the platform down 15mm
;Prime the extruder
G92 E0
G1 F200 E3
G92 E0
G92 E0
G92 E0
G1 F3000 E-5
;LAYER_COUNT:411
;LAYER:0
M107
M204 S500
M205 X5 Y5
;MESH:PETG_TEMP_TEST_v2.stl
G0 F2100 X167.175 Y152.55 Z0.3
;TYPE:WALL-OUTER
G1 F3000 E0
G1 F2250 X167.175 Y157.45 E0.24446
G1 X167.175 Y157.8 E0.26192
G1 X166.825 Y157.8 E0.27939
G1 X161.925 Y157.8 E0.52385
G1 X144.325 Y157.8 E1.40191
G1 X139.425 Y157.8 E1.64638
G1 X139.075 Y157.8 E1.66384
G1 X139.075 Y157.45 E1.6813
G1 X139.075 Y152.55 E1.92576
G1 X139.075 Y152.2 E1.94322
G1 X139.425 Y152.2 E1.96068
G1 X144.325 Y152.2 E2.20515
G1 X161.925 Y152.2 E3.08321
G1 X166.825 Y152.2 E3.32768
G1 X167.175 Y152.2 E3.34514
G1 X167.175 Y152.55 E3.3626
G0 F2100 X167.175 Y152.75
G0 X167.075 Y152.75
G0 X139.355 Y152.48
G0 X139.425 Y152.55
G1 F2250 X139.425 Y157.45 E3.5765
G1 X144.325 Y157.45 E3.79041
G1 X144.325 Y152.55 E4.03487
G1 X139.425 Y152.55 E4.24877
G0 F2100 X139.425 Y152.75
G0 X139.325 Y152.75
G0 X161.925 Y152.45
G0 X161.925 Y152.55
G1 F2250 X161.925 Y157.45 E4.49324
G1 X166.825 Y157.45 E4.70714
G1 X166.825 Y152.55 E4.92104
G1 X161.925 Y152.55 E5.13495
G0 F2100 X161.925 Y152.75
G0 X161.485 Y152.75
G0 X161.525 Y152.6
;TYPE:WALL-INNER
G1 F2250 X161.525 Y157.4 E5.37442
G1 X144.725 Y157.4 E6.21258
G1 X144.725 Y152.6 E6.45205
G1 X161.525 Y152.6 E7.29021
G0 F2100 X161.125 Y153
G1 F2250 X161.125 Y157 E7.48977
G1 X145.125 Y157 E8.28801
G1 X145.125 Y153 E8.48757
G1 X161.125 Y153 E9.28581
G0 F2100 X160.735 Y153.39
;TYPE:SKIN
G1 F2250 X160.735 Y156.61 E9.44646
G1 X145.515 Y156.61 E10.20579
G1 X145.515 Y153.39 E10.36644
G1 X160.735 Y153.39 E11.12576
G0 F2100 X160.554 Y153.766
G1 F2250 X160.357 Y153.569 E11.13966
G0 F2100 X159.791 Y153.569
G1 F2250 X160.554 Y154.331 E11.19346
G0 F2100 X160.554 Y154.897
G1 F2250 X159.226 Y153.569 E11.28716
G0 F2100 X158.66 Y153.569
G1 F2250 X160.554 Y155.463 E11.42079
G0 F2100 X160.554 Y156.028
G1 F2250 X158.094 Y153.569 E11.59432
G0 F2100 X157.529 Y153.569
G1 F2250 X160.389 Y156.429 E11.79611
G0 F2100 X159.823 Y156.429
G1 F2250 X156.963 Y153.569 E11.9979
G0 F2100 X156.397 Y153.569
G1 F2250 X159.258 Y156.429 E12.19972
G0 F2100 X158.692 Y156.429
G1 F2250 X155.832 Y153.569 E12.40151
G0 F2100 X155.266 Y153.569
G1 F2250 X158.126 Y156.429 E12.6033
G0 F2100 X157.561 Y156.429
G1 F2250 X154.7 Y153.569 E12.80512
G0 F2100 X154.135 Y153.569
G1 F2250 X156.995 Y156.429 E13.00691
G0 F2100 X156.429 Y156.429
G1 F2250 X153.569 Y153.569 E13.2087
G0 F2100 X153.003 Y153.569
G1 F2250 X155.864 Y156.429 E13.41052
G0 F2100 X155.298 Y156.429
G1 F2250 X152.438 Y153.569 E13.61231
G0 F2100 X151.872 Y153.569
G1 F2250 X154.732 Y156.429 E13.8141
G0 F2100 X154.166 Y156.429
G1 F2250 X151.306 Y153.569 E14.01589
G0 F2100 X150.741 Y153.569
G1 F2250 X153.601 Y156.429 E14.21768
G0 F2100 X153.034 Y156.428
G1 F2250 X150.175 Y153.569 E14.4194
G0 F2100 X149.609 Y153.569
G1 F2250 X152.469 Y156.428 E14.62115
G0 F2100 X151.903 Y156.428
G1 F2250 X149.043 Y153.569 E14.8229
G0 F2100 X148.478 Y153.569
G1 F2250 X151.337 Y156.428 E15.02462
G0 F2100 X150.772 Y156.428
G1 F2250 X147.912 Y153.569 E15.22637
G0 F2100 X147.346 Y153.569
G1 F2250 X150.206 Y156.428 E15.42813
G0 F2100 X149.64 Y156.428
G1 F2250 X146.781 Y153.569 E15.62985
G0 F2100 X146.215 Y153.569
G1 F2250 X149.075 Y156.428 E15.8316
G0 F2100 X148.509 Y156.428
G1 F2250 X145.695 Y153.614 E16.03014
G0 F2100 X145.695 Y154.18
G1 F2250 X147.943 Y156.428 E16.18875
G0 F2100 X147.378 Y156.428
G1 F2250 X145.695 Y154.746 E16.30746
G0 F2100 X145.695 Y155.311
G1 F2250 X146.812 Y156.428 E16.38627
G0 F2100 X146.246 Y156.428
G1 F2250 X145.695 Y155.877 E16.42515
;MESH:NONMESH
G0 F600 X145.695 Y155.877 Z0.46
G0 F2100 X161.697 Y152.522
G0 X167.075 Y152.55
G0 X167.175 Y152.55
;TIME_ELAPSED:23.940133
;LAYER:1
M106 S255
;TYPE:WALL-OUTER
;MESH:PETG_TEMP_TEST_v2.stl
G1 F2250 X167.175 Y157.45 E16.55553
G1 X167.175 Y157.8 E16.56484
G1 X166.825 Y157.8 E16.57415
G1 X161.925 Y157.8 E16.70453
G1 X144.325 Y157.8 E17.17283
G1 X139.425 Y157.8 E17.30321
G1 X139.075 Y157.8 E17.31253
G1 X139.075 Y157.45 E17.32184
G1 X139.075 Y152.55 E17.45222
G1 X139.075 Y152.2 E17.46153
G1 X139.425 Y152.2 E17.47084
G1 X144.325 Y152.2 E17.60122
G1 X161.925 Y152.2 E18.06953
G1 X166.825 Y152.2 E18.19991
G1 X167.175 Y152.2 E18.20922
G1 X167.175 Y152.55 E18.21853
G0 F4050 X167.175 Y152.75
G0 X167.075 Y152.75
G0 X139.355 Y152.48
G0 X139.425 Y152.55
G1 F2250 X139.425 Y157.45 E18.33261
G1 X144.325 Y157.45 E18.4467
G1 X144.325 Y152.55 E18.57708
G1 X139.425 Y152.55 E18.69116
G0 F4050 X139.425 Y152.75
G0 X139.325 Y152.75
G0 X161.925 Y152.45
G0 X161.925 Y152.55
G1 F2250 X161.925 Y157.45 E18.82154
G1 X166.825 Y157.45 E18.93562
G1 X166.825 Y152.55 E19.0497
G1 X161.925 Y152.55 E19.16379
G0 F4050 X161.925 Y152.75
G0 X161.485 Y152.75
G0 X161.525 Y152.6
;TYPE:WALL-INNER
G1 F3375 X161.525 Y157.4 E19.2915
G1 X144.725 Y157.4 E19.73852
G1 X144.725 Y152.6 E19.86624
G1 X161.525 Y152.6 E20.31326
G0 F4050 X161.125 Y153
G1 F3375 X161.125 Y157 E20.41969
G1 X145.125 Y157 E20.84542
G1 X145.125 Y153 E20.95185
G1 X161.125 Y153 E21.37758
G0 F4050 X160.735 Y153.39
;TYPE:SKIN
G1 F2250 X160.735 Y156.61 E21.46326
G1 X145.515 Y156.61 E21.86823
G1 X145.515 Y153.39 E21.95391
G1 X160.735 Y153.39 E22.35889
G0 F4050 X160.554 Y156.229
G1 F2250 X160.353 Y156.43 E22.36645
G0 F4050 X159.787 Y156.43
G1 F2250 X160.554 Y155.663 E22.39531
G0 F4050 X160.554 Y155.098
G1 F2250 X159.222 Y156.43 E22.44543
G0 F4050 X158.656 Y156.43
G1 F2250 X160.554 Y154.532 E22.51686
G0 F4050 X160.554 Y153.966
G1 F2250 X158.09 Y156.43 E22.60957
G0 F4050 X157.525 Y156.43
G1 F2250 X160.385 Y153.569 E22.71721
G0 F4050 X159.82 Y153.569
G1 F2250 X156.959 Y156.43 E22.82487
G0 F4050 X156.393 Y156.43
G1 F2250 X159.254 Y153.569 E22.93253
G0 F4050 X158.688 Y153.569
G1 F2250 X155.827 Y156.43 E23.04019
G0 F4050 X155.262 Y156.43
G1 F2250 X158.123 Y153.569 E23.14785
G0 F4050 X157.557 Y153.569
G1 F2250 X154.696 Y156.43 E23.2555
G0 F4050 X154.13 Y156.43
G1 F2250 X156.991 Y153.569 E23.36316
G0 F4050 X156.426 Y153.569
G1 F2250 X153.565 Y156.43 E23.47082
G0 F4050 X153 Y156.429
G1 F2250 X155.86 Y153.569 E23.57844
G0 F4050 X155.294 Y153.569
G1 F2250 X152.434 Y156.429 E23.68606
G0 F4050 X151.868 Y156.429
G1 F2250 X154.729 Y153.569 E23.7937
G0 F4050 X154.163 Y153.569
G1 F2250 X151.303 Y156.429 E23.90132
G0 F4050 X150.737 Y156.429
G1 F2250 X153.597 Y153.569 E24.00894
G0 F4050 X153.032 Y153.569
G1 F2250 X150.171 Y156.429 E24.11658
G0 F4050 X149.606 Y156.429
G1 F2250 X152.466 Y153.569 E24.2242
G0 F4050 X151.9 Y153.569
G1 F2250 X149.04 Y156.429 E24.33182
G0 F4050 X148.474 Y156.429
G1 F2250 X151.334 Y153.569 E24.43944
G0 F4050 X150.769 Y153.569
G1 F2250 X147.909 Y156.429 E24.54706
G0 F4050 X147.343 Y156.429
G1 F2250 X150.203 Y153.569 E24.65468
G0 F4050 X149.637 Y153.569
G1 F2250 X146.777 Y156.429 E24.7623
G0 F4050 X146.212 Y156.429
G1 F2250 X149.072 Y153.569 E24.86993
G0 F4050 X148.506 Y153.569
G1 F2250 X145.695 Y156.38 E24.9757
G0 F4050 X145.695 Y155.815
G1 F2250 X147.94 Y153.569 E25.0602
G0 F4050 X147.375 Y153.569
G1 F2250 X145.695 Y155.249 E25.12342
G0 F4050 X145.695 Y154.683
G1 F2250 X146.809 Y153.569 E25.16534
G0 F4050 X146.243 Y153.569
G1 F2250 X145.695 Y154.118 E25.18598
;MESH:NONMESH
G0 F600 X145.695 Y154.118 Z0.62
G0 F4050 X161.697 Y152.522
G0 X167.075 Y152.55
G0 X167.175 Y152.55
;TIME_ELAPSED:39.212781
;LAYER:2
;TYPE:WALL-OUTER
;MESH:PETG_TEMP_TEST_v2.stl
G1 F2250 X167.175 Y157.45 E25.31636
G1 X167.175 Y157.8 E25.32567
G1 X166.825 Y157.8 E25.33498
G1 X161.925 Y157.8 E25.46536
G1 X144.325 Y157.8 E25.93366
G1 X139.425 Y157.8 E26.06404
G1 X139.075 Y157.8 E26.07336
G1 X139.075 Y157.45 E26.08267
G1 X139.075 Y152.55 E26.21305
G1 X139.075 Y152.2 E26.22236
G1 X139.425 Y152.2 E26.23167
G1 X144.325 Y152.2 E26.36205
G1 X161.925 Y152.2 E26.83036
G1 X166.825 Y152.2 E26.96074
G1 X167.175 Y152.2 E26.97005
G1 X167.175 Y152.55 E26.97936
G0 F6000 X167.175 Y152.75
G0 X167.075 Y152.75
G0 X139.355 Y152.48
G0 X139.425 Y152.55
G1 F2250 X139.425 Y157.45 E27.09344
G1 X144.325 Y157.45 E27.20753
G1 X144.325 Y152.55 E27.33791
G1 X139.425 Y152.55 E27.45199
G0 F6000 X139.425 Y152.75
G0 X139.325 Y152.75
G0 X161.925 Y152.45
G0 X161.925 Y152.55
G1 F2250 X161.925 Y157.45 E27.58237
G1 X166.825 Y157.45 E27.69645
G1 X166.825 Y152.55 E27.81053
G1 X161.925 Y152.55 E27.92462
G0 F6000 X161.925 Y152.75
G0 X161.485 Y152.75
G0 X161.525 Y152.6
;TYPE:WALL-INNER
G1 F4500 X161.525 Y157.4 E28.05233
G1 X144.725 Y157.4 E28.49935
G1 X144.725 Y152.6 E28.62707
G1 X161.525 Y152.6 E29.07409
G0 F6000 X161.125 Y153
G1 F4500 X161.125 Y157 E29.18052
G1 X145.125 Y157 E29.60625
G1 X145.125 Y153 E29.71268
G1 X161.125 Y153 E30.13841
G0 F6000 X160.735 Y153.39
;TYPE:SKIN
G1 F2250 X160.735 Y156.61 E30.22409
G1 X145.515 Y156.61 E30.62906
G1 X145.515 Y153.39 E30.71474
G1 X160.735 Y153.39 E31.11972
G0 F6000 X160.554 Y153.766
G1 F2250 X160.357 Y153.569 E31.12713
G0 F6000 X159.791 Y153.569
G1 F2250 X160.554 Y154.331 E31.15582
G0 F6000 X160.554 Y154.897
G1 F2250 X159.226 Y153.569 E31.20579
G0 F6000 X158.66 Y153.569
G1 F2250 X160.554 Y155.463 E31.27706
G0 F6000 X160.554 Y156.028
G1 F2250 X158.094 Y153.569 E31.36961
G0 F6000 X157.529 Y153.569
G1 F2250 X160.389 Y156.429 E31.47724
G0 F6000 X159.823 Y156.429
G1 F2250 X156.963 Y153.569 E31.58486
G0 F6000 X156.397 Y153.569
G1 F2250 X159.258 Y156.429 E31.6925
G0 F6000 X158.692 Y156.429
G1 F2250 X155.832 Y153.569 E31.80012
G0 F6000 X155.266 Y153.569
G1 F2250 X158.126 Y156.429 E31.90774
G0 F6000 X157.561 Y156.429
G1 F2250 X154.7 Y153.569 E32.01538
G0 F6000 X154.135 Y153.569
G1 F2250 X156.995 Y156.429 E32.123
G0 F6000 X156.429 Y156.429
G1 F2250 X153.569 Y153.569 E32.23062
G0 F6000 X153.003 Y153.569
G1 F2250 X155.864 Y156.429 E32.33826
G0 F6000 X155.298 Y156.429
G1 F2250 X152.438 Y153.569 E32.44588
G0 F6000 X151.872 Y153.569
G1 F2250 X154.732 Y156.429 E32.5535
G0 F6000 X154.166 Y156.429
G1 F2250 X151.306 Y153.569 E32.66112
G0 F6000 X150.741 Y153.569
G1 F2250 X153.601 Y156.429 E32.76874
G0 F6000 X153.034 Y156.428
G1 F2250 X150.175 Y153.569 E32.87632
G0 F6000 X149.609 Y153.569
G1 F2250 X152.469 Y156.428 E32.98392
G0 F6000 X151.903 Y156.428
G1 F2250 X149.043 Y153.569 E33.09152
G0 F6000 X148.478 Y153.569
G1 F2250 X151.337 Y156.428 E33.19911
G0 F6000 X150.772 Y156.428
G1 F2250 X147.912 Y153.569 E33.30671
G0 F6000 X147.346 Y153.569
G1 F2250 X150.206 Y156.428 E33.41431
G0 F6000 X149.64 Y156.428
G1 F2250 X146.781 Y153.569 E33.52189
G0 F6000 X146.215 Y153.569
G1 F2250 X149.075 Y156.428 E33.62949
G0 F6000 X148.509 Y156.428
G1 F2250 X145.695 Y153.614 E33.73538
G0 F6000 X145.695 Y154.18
G1 F2250 X147.943 Y156.428 E33.81998
G0 F6000 X147.378 Y156.428
G1 F2250 X145.695 Y154.746 E33.88329
G0 F6000 X145.695 Y155.311
G1 F2250 X146.812 Y156.428 E33.92532
G0 F6000 X146.246 Y156.428
G1 F2250 X145.695 Y155.877 E33.94605
;MESH:NONMESH
G0 F600 X145.695 Y155.877 Z0.78
G0 F6000 X161.697 Y152.522
G0 X167.075 Y152.55
G0 X167.175 Y152.55
;TIME_ELAPSED:54.290472
;LAYER:3
;TYPE:WALL-OUTER
;MESH:PETG_TEMP_TEST_v2.stl
G1 F2250 X167.175 Y157.45 E34.07643
G1 X167.175 Y157.8 E34.08575
G1 X166.825 Y157.8 E34.09506
G1 X161.925 Y157.8 E34.22544
G1 X144.325 Y157.8 E34.69374
G1 X139.425 Y157.8 E34.82412
G1 X139.075 Y157.8 E34.83343
G1 X139.075 Y157.45 E34.84275
G1 X139.075 Y152.55 E34.97313
G1 X139.075 Y152.2 E34.98244
G1 X139.425 Y152.2 E34.99175
G1 X144.325 Y152.2 E35.12213
G1 X161.925 Y152.2 E35.59043
G1 X166.825 Y152.2 E35.72081
G1 X167.175 Y152.2 E35.73013
G1 X167.175 Y152.55 E35.73944
G0 F6000 X167.175 Y152.75
G0 X167.075 Y152.75
G0 X139.355 Y152.48
G0 X139.425 Y152.55
G1 F2250 X139.425 Y157.45 E35.85352
G1 X144.325 Y157.45 E35.9676
G1 X144.325 Y152.55 E36.09798
G1 X139.425 Y152.55 E36.21207
G0 F6000 X139.425 Y152.75
G0 X139.325 Y152.75
G0 X161.925 Y152.45
G0 X161.925 Y152.55
G1 F2250 X161.925 Y157.45 E36.34245
G1 X166.825 Y157.45 E36.45653
G1 X166.825 Y152.55 E36.57061
G1 X161.925 Y152.55 E36.68469
G0 F6000 X161.925 Y152.75
G0 X161.485 Y152.75
G0 X161.525 Y152.6
;TYPE:WALL-INNER
G1 F4500 X161.525 Y157.4 E36.81241
G1 X144.725 Y157.4 E37.25943
G1 X144.725 Y152.6 E37.38715
G1 X161.525 Y152.6 E37.83416
G0 F6000 X161.125 Y153
G1 F4500 X161.125 Y157 E37.9406
G1 X145.125 Y157 E38.36633
G1 X145.125 Y153 E38.47276
G1 X161.125 Y153 E38.89849
G0 F6000 X160.735 Y153.39
;TYPE:SKIN
G1 F2250 X160.735 Y156.61 E38.98417
G1 X145.515 Y156.61 E39.38914
G1 X145.515 Y153.39 E39.47482
G1 X160.735 Y153.39 E39.87979
G0 F6000 X160.554 Y156.229
G1 F2250 X160.353 Y156.43 E39.88736
G0 F6000 X159.787 Y156.43
G1 F2250 X160.554 Y155.663 E39.91622
G0 F6000 X160.554 Y155.098
G1 F2250 X159.222 Y156.43 E39.96634
G0 F6000 X158.656 Y156.43
G1 F2250 X160.554 Y154.532 E40.03776
G0 F6000 X160.554 Y153.966
G1 F2250 X158.09 Y156.43 E40.13048
G0 F6000 X157.525 Y156.43
G1 F2250 X160.385 Y153.569 E40.23812
G0 F6000 X159.82 Y153.569
G1 F2250 X156.959 Y156.43 E40.34578
G0 F6000 X156.393 Y156.43
G1 F2250 X159.254 Y153.569 E40.45344
G0 F6000 X158.688 Y153.569
G1 F2250 X155.827 Y156.43 E40.5611
G0 F6000 X155.262 Y156.43
G1 F2250 X158.123 Y153.569 E40.66875
G0 F6000 X157.557 Y153.569
G1 F2250 X154.696 Y156.43 E40.77641
G0 F6000 X154.13 Y156.43
G1 F2250 X156.991 Y153.569 E40.88407
G0 F6000 X156.426 Y153.569
G1 F2250 X153.565 Y156.43 E40.99173
G0 F6000 X153 Y156.429
G1 F2250 X155.86 Y153.569 E41.09935
G0 F6000 X155.294 Y153.569
G1 F2250 X152.434 Y156.429 E41.20697
G0 F6000 X151.868 Y156.429
G1 F2250 X154.729 Y153.569 E41.31461
G0 F6000 X154.163 Y153.569
G1 F2250 X151.303 Y156.429 E41.42223
G0 F6000 X150.737 Y156.429
G1 F2250 X153.597 Y153.569 E41.52985
G0 F6000 X153.032 Y153.569
G1 F2250 X150.171 Y156.429 E41.63749
G0 F6000 X149.606 Y156.429
G1 F2250 X152.466 Y153.569 E41.74511
G0 F6000 X151.9 Y153.569
G1 F2250 X149.04 Y156.429 E41.85273
G0 F6000 X148.474 Y156.429
G1 F2250 X151.334 Y153.569 E41.96035
G0 F6000 X150.769 Y153.569
G1 F2250 X147.909 Y156.429 E42.06797
G0 F6000 X147.343 Y156.429
G1 F2250 X150.203 Y153.569 E42.17559
G0 F6000 X149.637 Y153.569
G1 F2250 X146.777 Y156.429 E42.28321
G0 F6000 X146.212 Y156.429
G1 F2250 X149.072 Y153.569 E42.39083
G0 F6000 X148.506 Y153.569
G1 F2250 X145.695 Y156.38 E42.49661
G0 F6000 X145.695 Y155.815
G1 F2250 X147.94 Y153.569 E42.58111
G0 F6000 X147.375 Y153.569
G1 F2250 X145.695 Y155.249 E42.64432
G0 F6000 X145.695 Y154.683
G1 F2250 X146.809 Y153.569 E42.68624
G0 F6000 X146.243 Y153.569
G1 F2250 X145.695 Y154.118 E42.70688
;MESH:NONMESH
G0 F600 X145.695 Y154.118 Z0.94
G0 F6000 X145.425 Y157.5
G0 X145.425 Y157.8
;TIME_ELAPSED:69.135598
;LAYER:4
;TYPE:WALL-OUTER
;MESH:PETG_TEMP_TEST_v2.stl
G1 F1870.8 X144.325 Y157.8 E42.73615
G1 X139.425 Y157.8 E42.86653
G1 X138.325 Y157.8 E42.8958
G1 X138.325 Y151.45 E43.06476
G1 X145.425 Y151.45 E43.25368
G1 X145.425 Y157.8 E43.42264
G0 F6000 X145.225 Y157.8
G0 X144.985 Y157.36
G0 X144.325 Y157.45
G1 F1870.8 X144.325 Y152.55 E43.55302
G1 X139.425 Y152.55 E43.6834
G1 X139.425 Y157.45 E43.81378
G1 X144.325 Y157.45 E43.92786
G0 F6000 X144.325 Y157.25
G0 X144.765 Y157.25
G0 X145.025 Y157.4
;TYPE:WALL-INNER
G1 F3741.5 X144.725 Y157.4 E43.93585
G1 X144.725 Y152.15 E44.07554
G1 X139.025 Y152.15 E44.2272
G1 X139.025 Y157.4 E44.3669
G1 X138.725 Y157.4 E44.37488
G1 X138.725 Y152.15 E44.47991
G1 X138.725 Y151.85 E44.48789
G1 X139.025 Y151.85 E44.49588
G1 X144.725 Y151.85 E44.60991
G1 X145.025 Y151.85 E44.61789
G1 X145.025 Y152.15 E44.62588
G1 X145.025 Y157.4 E44.73091
G0 F6000 X144.825 Y157.2
G1 F3000 E39.73091
G0 F6000 X146.29 Y157.586
G0 X159.96 Y157.582
G0 X161.225 Y157.581
G0 X167.455 Y158.08
G0 X167.925 Y158.55
;TYPE:WALL-OUTER
G1 F3000 E44.73091
G1 F1870.8 X160.825 Y158.55 E44.91983
G1 X160.823 Y152 E45.09411
G1 X160.824 Y151.462 E45.10842
G1 X161.139 Y151.45 E45.11681
G1 X167.925 Y151.45 E45.29737
G1 X167.925 Y158.55 E45.48629
G0 F6000 X167.725 Y158.55
G0 X167.485 Y158.11
G0 X167.425 Y158.11
G0 X167.253 Y152.122
