;FLAVOR:Marlin
;TIME:4011
;Filament used: 2.58851m
;Layer height: 0.16
;MINX:141.7
;MINY:144.128
;MINZ:0.3
;MAXX:178.281
;MAXY:165.007
;MAXZ:54.86
;POSTPROCESSED
;Generated with Cura_SteamEngine 4.8.0
M140 S60
M105
M190 S60
M104 S240
M105
M109 S240
M82 ;absolute extrusion mode
G28 ;Home
G1 Z15.0 F6000 ;Move the platform down 15mm
;Prime the extruder
G92 E0
G1 F200 E3
G92 E0
G92 E0
G92 E0
G1 F3000 E-5
;LAYER_COUNT:342
;LAYER:0
M107
M204 S500
M205 X5 Y5
;MESH:Heat_tower_190-240_Bridge.stl
G0 F2100 X143.3 Y155.093 Z0.3
;TYPE:WALL-OUTER
G1 F3000 E0
G1 F2250 X141.7 Y155.093 E0.07982
G1 X141.7 Y145.493 E0.55877
G1 X143.3 Y145.493 E0.63859
G1 X143.3 Y155.093 E1.11754
G0 F2100 X143.1 Y155.093
G0 X142.86 Y154.653
G0 X142.9 Y154.693
;TYPE:WALL-INNER
G1 F2250 X142.1 Y154.693 E1.15745
G1 X142.1 Y145.893 E1.59649
G1 X142.9 Y145.893 E1.6364
G1 X142.9 Y154.693 E2.07543
G0 F2100 X142.5 Y154.411
G1 F3000 E-2.92457
G0 F2100 X142.88 Y145.963
G0 X144.165 Y145.963
G0 X157.835 Y145.963
G0 X159.12 Y145.963
G0 X172.981 Y145.963
G0 X173.451 Y145.693
;TYPE:WALL-OUTER
G1 F3000 E2.07543
G1 F2250 X173.45 Y157.677 E2.67332
G1 X167.255 Y165.003 E3.15197
G1 X167.179 Y165.001 E3.15577
G1 X165.962 Y164.758 E3.21768
G1 X164.752 Y164.348 E3.28142
G1 X163.599 Y163.779 E3.34557
G1 X162.535 Y163.068 E3.40941
G1 X161.571 Y162.222 E3.4734
G1 X160.724 Y161.257 E3.53746
G1 X160.014 Y160.194 E3.60123
G1 X159.445 Y159.041 E3.66538
G1 X159.035 Y157.831 E3.72912
G1 X158.785 Y156.576 E3.79296
G1 X158.7 Y155.28 E3.85776
G1 X158.7 Y145.493 E4.34603
G1 X173.251 Y145.493 E5.07198
G1 X173.451 Y145.493 E5.08196
G1 X173.451 Y145.693 E5.08842
G0 F2100 X173.451 Y145.893
G0 X173.011 Y145.933
G0 X173.051 Y145.893
;TYPE:WALL-INNER
G1 F2250 X173.051 Y146.092 E5.09835
G1 X173.05 Y157.531 E5.66904
G1 X167.093 Y164.576 E6.12933
G1 X166.068 Y164.372 E6.18147
G1 X164.907 Y163.978 E6.24264
G1 X163.799 Y163.431 E6.30428
G1 X162.78 Y162.751 E6.3654
G1 X161.855 Y161.938 E6.42684
G1 X161.042 Y161.012 E6.48832
G1 X160.362 Y159.994 E6.5494
G1 X159.815 Y158.886 E6.61104
G1 X159.421 Y157.725 E6.67221
G1 X159.188 Y156.552 E6.73187
G1 X159.182 Y156.525 E6.73325
G1 X159.181 Y156.501 E6.73445
G1 X159.102 Y155.285 E6.79525
G1 X159.1 Y155.269 E6.79605
G1 X159.1 Y145.893 E7.26382
G1 X172.852 Y145.893 E7.94991
G1 X173.051 Y145.893 E7.95634
G0 F2100 X172.651 Y146.293
G1 F2250 X172.651 Y146.492 E7.96626
G1 X172.65 Y157.385 E8.50972
G1 X166.94 Y164.138 E8.95092
G1 X166.177 Y163.986 E8.98973
G1 X165.06 Y163.607 E9.04858
G1 X163.999 Y163.083 E9.10762
G1 X163.021 Y162.43 E9.16629
G1 X162.143 Y161.659 E9.22458
G1 X161.359 Y160.767 E9.28383
G1 X160.71 Y159.794 E9.34218
G1 X160.186 Y158.733 E9.40122
G1 X159.807 Y157.616 E9.46007
G1 X159.579 Y156.474 E9.51817
G1 X159.5 Y155.258 E9.57896
G1 X159.5 Y146.293 E10.02623
G1 X172.452 Y146.293 E10.67241
G1 X172.651 Y146.293 E10.67883
G0 F2100 X172.261 Y146.683
;TYPE:SKIN
G1 F2250 X172.26 Y157.242 E11.20562
G1 X166.79 Y163.711 E11.62827
G1 X166.279 Y163.609 E11.65427
G1 X165.209 Y163.246 E11.71064
G1 X164.197 Y162.747 E11.76693
G1 X163.258 Y162.119 E11.82329
G1 X162.42 Y161.382 E11.87897
G1 X161.667 Y160.527 E11.93581
G1 X161.048 Y159.599 E11.99146
G1 X160.547 Y158.584 E12.04793
G1 X160.184 Y157.514 E12.1043
G1 X159.968 Y156.433 E12.1593
G1 X159.89 Y155.233 E12.21929
G1 X159.89 Y146.683 E12.64586
G1 X172.261 Y146.683 E13.26305
G0 F2100 X172.08 Y147.189
G1 F2250 X171.753 Y146.863 E13.28608
G0 F2100 X171.187 Y146.863
G1 F2250 X172.08 Y147.755 E13.34905
G0 F2100 X172.08 Y148.321
G1 F2250 X170.622 Y146.863 E13.45192
G0 F2100 X170.056 Y146.863
G1 F2250 X172.08 Y148.886 E13.59469
G0 F2100 X172.08 Y149.452
G1 F2250 X169.49 Y146.863 E13.7774
G0 F2100 X168.924 Y146.863
G1 F2250 X172.08 Y150.018 E14.00003
G0 F2100 X172.08 Y150.584
G1 F2250 X168.359 Y146.863 E14.26257
G0 F2100 X167.793 Y146.863
G1 F2250 X172.08 Y151.149 E14.56501
G0 F2100 X172.08 Y151.715
G1 F2250 X167.227 Y146.863 E14.90738
G0 F2100 X166.662 Y146.863
G1 F2250 X172.08 Y152.281 E15.28965
G0 F2100 X172.08 Y152.846
G1 F2250 X166.096 Y146.863 E15.71181
G0 F2100 X165.53 Y146.863
G1 F2250 X172.08 Y153.412 E16.17392
G0 F2100 X172.08 Y153.978
G1 F2250 X164.965 Y146.863 E16.67592
G0 F2100 X164.399 Y146.863
G1 F2250 X172.08 Y154.543 E17.21782
G0 F2100 X172.08 Y155.109
G1 F2250 X163.833 Y146.863 E17.79965
G0 F2100 X163.268 Y146.863
G1 F2250 X172.08 Y155.675 E18.42139
G0 F2100 X172.08 Y156.24
G1 F2250 X162.702 Y146.863 E19.08302
G0 F2100 X162.136 Y146.863
G1 F2250 X172.08 Y156.806 E19.78459
G0 F2100 X171.99 Y157.282
G1 F2250 X161.571 Y146.863 E20.51971
G0 F2100 X161.005 Y146.863
G1 F2250 X171.731 Y157.589 E21.27648
G0 F2100 X171.471 Y157.895
G1 F2250 X160.439 Y146.863 E22.05485
G0 F2100 X160.069 Y147.058
G1 F2250 X171.212 Y158.201 E22.84105
G0 F2100 X170.953 Y158.508
G1 F2250 X160.069 Y147.624 E23.60897
G0 F2100 X160.069 Y148.189
G1 F2250 X170.694 Y158.814 E24.35863
G0 F2100 X170.435 Y159.121
G1 F2250 X160.069 Y148.755 E25.09
G0 F2100 X160.069 Y149.321
G1 F2250 X170.175 Y159.427 E25.80304
G0 F2100 X169.917 Y159.734
G1 F2250 X160.069 Y149.886 E26.49786
G0 F2100 X160.069 Y150.452
G1 F2250 X169.657 Y160.04 E27.17435
G0 F2100 X169.398 Y160.347
G1 F2250 X160.069 Y151.018 E27.83256
G0 F2100 X160.069 Y151.583
G1 F2250 X169.139 Y160.653 E28.4725
G0 F2100 X168.88 Y160.96
G1 F2250 X160.069 Y152.149 E29.09416
G0 F2100 X160.069 Y152.715
G1 F2250 X168.62 Y161.267 E29.69752
G0 F2100 X168.362 Y161.573
G1 F2250 X160.069 Y153.28 E30.28263
G0 F2100 X160.069 Y153.846
G1 F2250 X168.102 Y161.88 E30.84944
G0 F2100 X167.843 Y162.186
G1 F2250 X160.069 Y154.412 E31.39794
G0 F2100 X160.069 Y154.978
G1 F2250 X167.584 Y162.493 E31.92816
G0 F2100 X167.324 Y162.799
G1 F2250 X160.091 Y155.565 E32.43852
G0 F2100 X160.129 Y156.17
G1 F2250 X167.065 Y163.106 E32.9279
G0 F2100 X166.806 Y163.412
G1 F2250 X160.231 Y156.836 E33.39183
G0 F2100 X160.388 Y157.56
G1 F2250 X166.231 Y163.403 E33.80409
G1 X166.301 Y163.473
G0 F2100 X165.376 Y163.113
G1 F2250 X160.677 Y158.415 E34.13559
G1 X160.607 Y158.345
G0 F2100 X161.201 Y159.504
G1 F2250 X164.289 Y162.592 E34.35347
G1 X164.359 Y162.662
G1 F3000 E29.35347
;MESH:NONMESH
G0 F600 X164.359 Y162.662 Z0.46
G0 F2100 X160.379 Y159.984
G0 X159.229 Y160.553
G0 X144.165 Y154.679
G0 X142.886 Y154.679
G0 X143.3 Y155.093
;TIME_ELAPSED:34.612017
;LAYER:1
M106 S255
;TYPE:WALL-OUTER
;MESH:Heat_tower_190-240_Bridge.stl
G1 F3000 E34.35347
G1 F2250 X141.7 Y155.093 E34.39604
G1 X141.7 Y145.493 E34.65148
G1 X143.3 Y145.493 E34.69405
G1 X143.3 Y155.093 E34.94949
G0 F4050 X143.1 Y155.093
G0 X142.86 Y154.653
G0 X142.9 Y154.693
;TYPE:WALL-INNER
G1 F3375 X142.1 Y154.693 E34.97078
G1 X142.1 Y145.893 E35.20493
G1 X142.9 Y145.893 E35.22621
G1 X142.9 Y154.693 E35.46037
G0 F4050 X142.5 Y154.411
G1 F3000 E30.46037
G0 F4050 X142.88 Y145.963
G0 X144.165 Y145.963
G0 X157.835 Y145.963
G0 X159.12 Y145.963
G0 X173.211 Y145.963
G0 X173.681 Y145.693
;TYPE:WALL-OUTER
G1 F3000 E35.46037
G1 F2250 X173.68 Y157.677 E35.77924
G1 X167.485 Y165.003 E36.03452
G1 X167.12 Y164.989 E36.04424
G1 X165.962 Y164.758 E36.07566
G1 X164.752 Y164.348 E36.10965
G1 X163.599 Y163.779 E36.14386
G1 X162.535 Y163.068 E36.17791
G1 X161.571 Y162.222 E36.21204
G1 X160.724 Y161.257 E36.24621
G1 X160.014 Y160.194 E36.28022
G1 X159.445 Y159.041 E36.31443
G1 X159.035 Y157.831 E36.34842
G1 X158.785 Y156.576 E36.38247
G1 X158.7 Y155.28 E36.41703
G1 X158.7 Y145.493 E36.67745
G1 X173.481 Y145.493 E37.07074
G1 X173.681 Y145.493 E37.07606
G1 X173.681 Y145.693 E37.07951
G0 F4050 X173.681 Y145.893
G0 X173.241 Y145.933
G0 X173.281 Y145.893
;TYPE:WALL-INNER
G1 F3375 X173.281 Y146.092 E37.0848
G1 X173.28 Y157.531 E37.38917
G1 X167.306 Y164.596 E37.63536
G1 X167.163 Y164.59 E37.63916
G1 X166.068 Y164.372 E37.66887
G1 X164.907 Y163.978 E37.70149
G1 X163.799 Y163.431 E37.73437
G1 X162.78 Y162.751 E37.76697
G1 X161.855 Y161.938 E37.79974
G1 X161.042 Y161.012 E37.83252
G1 X160.362 Y159.994 E37.8651
G1 X159.815 Y158.886 E37.89798
G1 X159.421 Y157.725 E37.9306
G1 X159.188 Y156.552 E37.96242
G1 X159.182 Y156.525 E37.96316
G1 X159.181 Y156.501 E37.9638
G1 X159.102 Y155.285 E37.99622
G1 X159.1 Y155.269 E37.99665
G1 X159.1 Y145.893 E38.24613
G1 X173.082 Y145.893 E38.61816
G1 X173.281 Y145.893 E38.62159
G0 F4050 X172.881 Y146.293
G1 F3375 X172.881 Y146.492 E38.62688
G1 X172.88 Y157.385 E38.91672
G1 X167.137 Y164.177 E39.15339
G1 X166.177 Y163.986 E39.17944
G1 X165.06 Y163.607 E39.21082
G1 X163.999 Y163.083 E39.24231
G1 X163.021 Y162.43 E39.2736
G1 X162.143 Y161.659 E39.30469
G1 X161.359 Y160.767 E39.33629
G1 X160.71 Y159.794 E39.36741
G1 X160.186 Y158.733 E39.3989
G1 X159.807 Y157.616 E39.43028
G1 X159.579 Y156.474 E39.46127
G1 X159.5 Y155.258 E39.49369
G1 X159.5 Y146.293 E39.73223
G1 X172.682 Y146.293 E40.08298
G1 X172.881 Y146.293 E40.08641
G0 F4050 X172.491 Y146.683
;TYPE:SKIN
G1 F2250 X172.49 Y157.242 E40.36736
G1 X166.987 Y163.75 E40.59414
G1 X166.279 Y163.609 E40.61334
G1 X165.209 Y163.246 E40.64341
G1 X164.197 Y162.747 E40.67343
G1 X163.258 Y162.119 E40.70349
G1 X162.42 Y161.382 E40.73318
G1 X161.667 Y160.527 E40.7635
G1 X161.048 Y159.599 E40.79318
G1 X160.547 Y158.584 E40.8233
G1 X160.184 Y157.514 E40.85336
G1 X159.968 Y156.433 E40.88269
G1 X159.89 Y155.233 E40.91469
G1 X159.89 Y146.683 E41.14219
G1 X172.491 Y146.683 E41.47748
G0 F4050 X160.303 Y146.863
G1 F2250 X160.069 Y147.098 E41.4863
G0 F4050 X160.069 Y147.663
G1 F2250 X160.869 Y146.863 E41.51641
G0 F4050 X161.435 Y146.863
G1 F2250 X160.069 Y148.229 E41.56781
G0 F4050 X160.069 Y148.795
G1 F2250 X162 Y146.863 E41.64049
G0 F4050 X162.566 Y146.863
G1 F2250 X160.069 Y149.36 E41.73445
G0 F4050 X160.069 Y149.926
G1 F2250 X163.132 Y146.863 E41.84971
G0 F4050 X163.698 Y146.863
G1 F2250 X160.069 Y150.492 E41.98627
G0 F4050 X160.069 Y151.057
G1 F2250 X164.263 Y146.863 E42.14409
G0 F4050 X164.829 Y146.863
G1 F2250 X160.069 Y151.623 E42.3232
G0 F4050 X160.069 Y152.189
G1 F2250 X165.395 Y146.863 E42.52362
G0 F4050 X165.96 Y146.863
G1 F2250 X160.069 Y152.754 E42.74529
G0 F4050 X160.069 Y153.32
G1 F2250 X166.526 Y146.863 E42.98827
G0 F4050 X167.092 Y146.863
G1 F2250 X160.069 Y153.886 E43.25254
G0 F4050 X160.069 Y154.451
G1 F2250 X167.657 Y146.863 E43.53807
G0 F4050 X168.223 Y146.863
G1 F2250 X160.069 Y155.017 E43.8449
G0 F4050 X160.091 Y155.56
G1 F2250 X168.789 Y146.863 E44.17219
G0 F4050 X169.354 Y146.863
G1 F2250 X160.125 Y156.092 E44.51947
G0 F4050 X160.183 Y156.6
G1 F2250 X169.92 Y146.863 E44.88587
G0 F4050 X170.486 Y146.863
G1 F2250 X160.278 Y157.071 E45.26999
G0 F4050 X160.381 Y157.534
G1 F2250 X171.051 Y146.863 E45.67152
G0 F4050 X171.617 Y146.863
G1 F2250 X160.523 Y157.957 E46.08898
G0 F4050 X160.666 Y158.379
G1 F2250 X172.183 Y146.863 E46.52234
G0 F4050 X172.309 Y147.302
G1 F2250 X160.839 Y158.772 E46.95395
G0 F4050 X161.027 Y159.15
G1 F2250 X172.309 Y147.868 E47.37849
G0 F4050 X172.309 Y148.433
G1 F2250 X161.216 Y159.527 E47.79593
G0 F4050 X161.442 Y159.866
G1 F2250 X172.309 Y148.999 E48.20485
G0 F4050 X172.309 Y149.565
G1 F2250 X161.668 Y160.206 E48.60527
G0 F4050 X161.909 Y160.53
G1 F2250 X172.309 Y150.13 E48.99661
G0 F4050 X172.309 Y150.696
G1 F2250 X162.174 Y160.831 E49.37799
G0 F4050 X162.44 Y161.131
G1 F2250 X172.309 Y151.262 E49.74936
G0 F4050 X172.309 Y151.827
G1 F2250 X162.725 Y161.411 E50.11
G0 F4050 X163.026 Y161.677
G1 F2250 X172.309 Y152.394 E50.45931
G0 F4050 X172.309 Y152.959
G1 F2250 X163.327 Y161.941 E50.7973
G0 F4050 X163.661 Y162.173
G1 F2250 X172.309 Y153.525 E51.12272
G0 F4050 X172.309 Y154.091
G1 F2250 X163.999 Y162.4 E51.4354
G0 F4050 X164.345 Y162.621
G1 F2250 X172.309 Y154.656 E51.73511
G0 F4050 X172.309 Y155.222
G1 F2250 X164.724 Y162.807 E52.02053
G0 F4050 X165.102 Y162.995
G1 F2250 X172.309 Y155.788 E52.29172
G0 F4050 X172.309 Y156.354
G1 F2250 X165.505 Y163.157 E52.54773
G0 F4050 X165.928 Y163.3
G1 F2250 X172.309 Y156.919 E52.78785
G1 X172.379 Y156.849
G0 F4050 X170.614 Y159.179
G1 F2250 X166.353 Y163.44 E52.94819
G0 F4050 X166.825 Y163.534
G1 F2250 X167.52 Y162.839 E52.97434
G1 X167.59 Y162.769
G1 F3000 E47.97434
;MESH:NONMESH
G0 F600 X167.59 Y162.769 Z0.62
G0 F4050 X160.379 Y159.984
G0 X159.229 Y160.553
G0 X144.165 Y154.679
G0 X142.886 Y154.679
G0 X143.3 Y155.093
;TIME_ELAPSED:61.730485
;LAYER:2
;TYPE:WALL-OUTER
;MESH:Heat_tower_190-240_Bridge.stl
G1 F3000 E52.97434
G1 F2250 X141.7 Y155.093 E53.01691
G1 X141.7 Y145.493 E53.27235
G1 X143.3 Y145.493 E53.31492
G1 X143.3 Y155.093 E53.57036
G0 F6000 X143.1 Y155.093
G0 X142.86 Y154.653
G0 X142.9 Y154.693
;TYPE:WALL-INNER
G1 F4500 X142.1 Y154.693 E53.59165
G1 X142.1 Y145.893 E53.8258
G1 X142.9 Y145.893 E53.84709
G1 X142.9 Y154.693 E54.08124
G0 F6000 X142.5 Y154.411
G1 F3000 E49.08124
G0 F6000 X142.88 Y145.963
G0 X144.165 Y145.963
G0 X157.835 Y145.963
G0 X159.12 Y145.963
G0 X173.371 Y145.963
G0 X173.841 Y145.693
;TYPE:WALL-OUTER
G1 F3000 E54.08124
G1 F2250 X173.84 Y157.677 E54.40011
G1 X167.642 Y165.007 E54.65553
G1 X167.214 Y165.007 E54.66691
G1 X165.962 Y164.758 E54.70088
G1 X164.752 Y164.348 E54.73487
G1 X163.599 Y163.779 E54.76908
G1 X162.535 Y163.068 E54.80313
G1 X161.571 Y162.222 E54.83726
G1 X160.724 Y161.257 E54.87143
G1 X160.014 Y160.194 E54.90544
G1 X159.445 Y159.041 E54.93965
G1 X159.035 Y157.831 E54.97365
G1 X158.785 Y156.576 E55.00769
G1 X158.7 Y155.28 E55.04225
G1 X158.7 Y145.493 E55.30267
G1 X173.641 Y145.493 E55.70022
G1 X173.841 Y145.493 E55.70554
G1 X173.841 Y145.693 E55.70899
G0 F6000 X173.841 Y145.893
G0 X173.401 Y145.933
G0 X173.441 Y145.893
;TYPE:WALL-INNER
G1 F4500 X173.441 Y146.092 E55.71428
G1 X173.44 Y157.531 E56.01865
G1 X167.58 Y164.461 E56.26013
G1 X167.457 Y164.607 E56.26521
G1 X167.252 Y164.607 E56.27067
G1 X166.068 Y164.372 E56.30278
G1 X164.907 Y163.978 E56.33541
G1 X163.799 Y163.431 E56.36829
G1 X162.78 Y162.751 E56.40088
G1 X161.855 Y161.938 E56.43365
G1 X161.042 Y161.012 E56.46644
G1 X160.362 Y159.994 E56.49901
G1 X159.815 Y158.886 E56.53189
G1 X159.421 Y157.725 E56.56451
G1 X159.188 Y156.552 E56.59633
G1 X159.182 Y156.525 E56.59707
G1 X159.181 Y156.501 E56.59771
G1 X159.102 Y155.285 E56.63013
G1 X159.1 Y155.269 E56.63056
G1 X159.1 Y145.893 E56.88004
G1 X173.242 Y145.893 E57.25633
G1 X173.441 Y145.893 E57.25976
G0 F6000 X173.041 Y146.293
G1 F4500 X173.041 Y146.492 E57.26505
G1 X173.04 Y157.385 E57.5549
G1 X167.275 Y164.204 E57.79249
G1 X166.177 Y163.986 E57.82228
G1 X165.06 Y163.607 E57.85366
G1 X163.999 Y163.083 E57.88515
G1 X163.021 Y162.43 E57.91644
G1 X162.143 Y161.659 E57.94753
G1 X161.359 Y160.767 E57.97913
G1 X160.71 Y159.794 E58.01025
G1 X160.186 Y158.733 E58.04173
G1 X159.807 Y157.616 E58.07312
G1 X159.579 Y156.474 E58.10411
G1 X159.5 Y155.258 E58.13653
G1 X159.5 Y146.293 E58.37507
G1 X172.842 Y146.293 E58.73008
G1 X173.041 Y146.293 E58.7335
G0 F6000 X172.651 Y146.683
;TYPE:SKIN
G1 F2250 X172.65 Y157.242 E59.01446
G1 X167.125 Y163.777 E59.24216
G1 X166.279 Y163.609 E59.26511
G1 X165.209 Y163.246 E59.29517
G1 X164.197 Y162.747 E59.3252
G1 X163.258 Y162.119 E59.35525
G1 X162.42 Y161.382 E59.38495
G1 X161.667 Y160.527 E59.41526
G1 X161.048 Y159.599 E59.44494
G1 X160.547 Y158.584 E59.47506
G1 X160.184 Y157.514 E59.50513
G1 X159.968 Y156.433 E59.53446
G1 X159.89 Y155.233 E59.56646
G1 X159.89 Y146.683 E59.79395
G1 X172.651 Y146.683 E60.1335
G0 F6000 X172.47 Y147.014
G1 F2250 X172.319 Y146.863 E60.13918
G0 F6000 X171.753 Y146.863
G1 F2250 X172.47 Y147.58 E60.16616
G0 F6000 X172.47 Y148.145
G1 F2250 X171.187 Y146.863 E60.21442
G0 F6000 X170.622 Y146.863
G1 F2250 X172.47 Y148.711 E60.28396
G0 F6000 X172.47 Y149.277
G1 F2250 X170.056 Y146.863 E60.3748
G0 F6000 X169.49 Y146.863
G1 F2250 X172.47 Y149.842 E60.48692
G0 F6000 X172.47 Y150.408
G1 F2250 X168.924 Y146.863 E60.62033
G0 F6000 X168.359 Y146.863
G1 F2250 X172.47 Y150.974 E60.77503
G0 F6000 X172.47 Y151.54
G1 F2250 X167.793 Y146.863 E60.95102
G0 F6000 X167.227 Y146.863
G1 F2250 X172.469 Y152.105 E61.14828
G0 F6000 X172.469 Y152.67
G1 F2250 X166.662 Y146.863 E61.36679
G0 F6000 X166.096 Y146.863
G1 F2250 X172.469 Y153.236 E61.6066
G0 F6000 X172.469 Y153.802
G1 F2250 X165.53 Y146.863 E61.86771
G0 F6000 X164.965 Y146.863
G1 F2250 X172.469 Y154.367 E62.15009
