;FLAVOR:Marlin
;TIME:14253
;Filament used: 11.5828m
;Layer height: 0.2
;MINX:62.042
;MINY:57.751
;MINZ:0.3
;MAXX:257.302
;MAXY:246.511
;MAXZ:2.9
;Generated with Cura_SteamEngine 4.9.1
M140 S85
M105
M190 S85
M104 S235
M105
M109 S235
M82 ;absolute extrusion mode
G28 ;Home
G1 Z15.0 F6000 ;Move the platform down 15mm
;Prime the extruder
G92 E0
G1 F200 E3
G92 E0
G92 E0
G92 E0
G1 F2100 E-1.5
;LAYER_COUNT:14
;LAYER:0
M107
M204 S5000
M205 X5 Y5
G1 F600 Z0.8
G0 F3600 X66.003 Y59.264 Z0.8
M204 S500
;TYPE:SKIRT
G1 F600 Z0.3
G1 F2100 E0
G1 F1500 X66.402 Y58.846 E0.03425
G1 X66.854 Y58.486 E0.0685
G1 X67.352 Y58.193 E0.10274
G1 X67.885 Y57.97 E0.13699
G1 X68.445 Y57.824 E0.17129
G1 X69.222 Y57.751 E0.21754
G1 X253.121 Y57.751 E11.11716
G1 X253.698 Y57.791 E11.15144
G1 X254.263 Y57.91 E11.18566
G1 X254.807 Y58.106 E11.21993
G1 X255.318 Y58.375 E11.25416
G1 X255.788 Y58.712 E11.28844
G1 X256.206 Y59.111 E11.32269
G1 X256.566 Y59.563 E11.35693
G1 X256.859 Y60.061 E11.39118
G1 X257.082 Y60.594 E11.42542
G1 X257.228 Y61.154 E11.45972
G1 X257.301 Y61.931 E11.50598
G1 X257.301 Y97.421 E13.60946
G1 X257.294 Y97.666 E13.62398
G1 X257.108 Y100.836 E13.81219
G1 X257.063 Y101.247 E13.8367
G1 X256.564 Y104.389 E14.02526
G1 X256.479 Y104.794 E14.04978
G1 X255.672 Y107.868 E14.23815
G1 X255.547 Y108.263 E14.26271
G1 X254.439 Y111.244 E14.4512
G1 X254.277 Y111.622 E14.47557
G1 X252.794 Y114.66 E14.67594
G1 X251.788 Y116.752 E14.81353
G1 X251.03 Y118.922 E14.94976
G1 X250.507 Y121.201 E15.08835
G1 X250.255 Y123.473 E15.22383
G1 X250.255 Y125.783 E15.36075
G1 X250.512 Y128.063 E15.49674
G1 X251.031 Y130.35 E15.63573
G1 X251.788 Y132.513 E15.77156
G1 X252.992 Y135.011 E15.93591
G1 X254.3 Y137.693 E16.11277
G1 X254.465 Y138.08 E16.13771
G1 X255.585 Y141.119 E16.32967
G1 X255.711 Y141.52 E16.35458
G1 X256.519 Y144.653 E16.54635
G1 X256.603 Y145.067 E16.57139
G1 X257.091 Y148.267 E16.76324
G1 X257.134 Y148.687 E16.78827
G1 X257.297 Y151.92 E16.98013
G1 X257.297 Y152.34 E17.00502
G1 X257.134 Y155.573 E17.19688
G1 X257.091 Y155.993 E17.22191
G1 X256.603 Y159.195 E17.41388
G1 X256.519 Y159.609 E17.43892
G1 X255.711 Y162.742 E17.63068
G1 X255.585 Y163.143 E17.6556
G1 X254.466 Y166.181 E17.84748
G1 X254.301 Y166.567 E17.87236
G1 X252.805 Y169.638 E18.07483
G1 X251.788 Y171.752 E18.21387
G1 X251.03 Y173.922 E18.35011
G1 X250.507 Y176.201 E18.48869
G1 X250.255 Y178.473 E18.62418
G1 X250.255 Y180.783 E18.76109
G1 X250.512 Y183.063 E18.89708
G1 X251.031 Y185.35 E19.03608
G1 X251.788 Y187.514 E19.17196
G1 X252.87 Y189.762 E19.31983
G1 X254.082 Y192.197 E19.48104
G1 X254.226 Y192.521 E19.50205
G1 X255.231 Y195.059 E19.66384
G1 X255.349 Y195.397 E19.68506
G1 X256.134 Y198.013 E19.84694
G1 X256.221 Y198.356 E19.86791
G1 X256.781 Y201.027 E20.02966
G1 X256.839 Y201.377 E20.05069
G1 X257.171 Y204.087 E20.21251
G1 X257.199 Y204.442 E20.23362
G1 X257.299 Y207.167 E20.39524
G1 X257.302 Y207.345 E20.40579
G1 X257.092 Y242.356 E22.48091
G1 X257.049 Y242.932 E22.51515
G1 X256.926 Y243.497 E22.54942
G1 X256.727 Y244.04 E22.5837
G1 X256.455 Y244.55 E22.61795
G1 X256.115 Y245.017 E22.65219
G1 X255.714 Y245.433 E22.68644
G1 X255.259 Y245.79 E22.72071
G1 X254.76 Y246.081 E22.75495
G1 X254.225 Y246.3 E22.78921
G1 X253.665 Y246.443 E22.82347
G1 X252.912 Y246.511 E22.86828
G1 X69.222 Y246.511 E33.75551
G1 X68.645 Y246.471 E33.78979
G1 X68.08 Y246.352 E33.82401
G1 X67.536 Y246.156 E33.85828
G1 X67.025 Y245.887 E33.89251
G1 X66.555 Y245.55 E33.92679
G1 X66.137 Y245.151 E33.96104
G1 X65.777 Y244.699 E33.99528
G1 X65.484 Y244.201 E34.02953
G1 X65.261 Y243.668 E34.06377
G1 X65.115 Y243.108 E34.09808
G1 X65.042 Y242.331 E34.14433
G1 X65.042 Y216.238 E35.69085
G1 X64.536 Y216.056 E35.72272
G1 X64.025 Y215.787 E35.75695
G1 X63.555 Y215.45 E35.79123
G1 X63.137 Y215.051 E35.82548
G1 X62.777 Y214.599 E35.85973
G1 X62.484 Y214.101 E35.89397
G1 X62.261 Y213.568 E35.92822
G1 X62.115 Y213.008 E35.96252
G1 X62.042 Y212.231 E36.00877
G1 X62.042 Y202.031 E36.61332
G1 X62.082 Y201.454 E36.6476
G1 X62.201 Y200.889 E36.68182
G1 X62.397 Y200.345 E36.71609
G1 X62.666 Y199.834 E36.75032
G1 X63.003 Y199.364 E36.7846
G1 X63.402 Y198.946 E36.81885
G1 X63.854 Y198.586 E36.8531
G1 X64.352 Y198.293 E36.88734
G1 X64.885 Y198.07 E36.92159
G1 X65.042 Y198.029 E36.9312
G1 X65.042 Y161.238 E39.11179
G1 X64.536 Y161.056 E39.14366
G1 X64.025 Y160.787 E39.17789
G1 X63.555 Y160.45 E39.21217
G1 X63.137 Y160.051 E39.24642
G1 X62.777 Y159.599 E39.28067
G1 X62.484 Y159.101 E39.31491
G1 X62.261 Y158.568 E39.34916
G1 X62.115 Y158.008 E39.38346
G1 X62.042 Y157.231 E39.42971
G1 X62.042 Y147.031 E40.03426
G1 X62.082 Y146.454 E40.06854
G1 X62.201 Y145.889 E40.10276
G1 X62.397 Y145.345 E40.13703
G1 X62.666 Y144.834 E40.17126
G1 X63.003 Y144.364 E40.20554
G1 X63.402 Y143.946 E40.23979
G1 X63.854 Y143.586 E40.27404
G1 X64.352 Y143.293 E40.30828
G1 X64.885 Y143.07 E40.34253
G1 X65.042 Y143.029 E40.35215
G1 X65.042 Y106.238 E42.53273
G1 X64.536 Y106.056 E42.5646
G1 X64.025 Y105.787 E42.59883
G1 X63.555 Y105.45 E42.63311
G1 X63.137 Y105.051 E42.66736
G1 X62.777 Y104.599 E42.70161
G1 X62.484 Y104.101 E42.73585
G1 X62.261 Y103.568 E42.7701
G1 X62.115 Y103.008 E42.8044
G1 X62.042 Y102.231 E42.85065
G1 X62.042 Y92.031 E43.4552
G1 X62.082 Y91.454 E43.48948
G1 X62.201 Y90.889 E43.5237
G1 X62.397 Y90.345 E43.55798
G1 X62.666 Y89.834 E43.5922
G1 X63.003 Y89.364 E43.62648
G1 X63.402 Y88.946 E43.66073
G1 X63.854 Y88.586 E43.69498
G1 X64.352 Y88.293 E43.72922
G1 X64.885 Y88.07 E43.76347
G1 X65.042 Y88.029 E43.77309
G1 X65.042 Y61.931 E45.3199
G1 X65.082 Y61.354 E45.35418
G1 X65.201 Y60.789 E45.3884
G1 X65.397 Y60.245 E45.42268
G1 X65.666 Y59.734 E45.4569
G1 X66.003 Y59.264 E45.49118
M204 S5000
G0 F3600 X66.439 Y59.433
M204 S500
G1 F1500 X66.832 Y59.054 E45.52354
G1 X67.277 Y58.736 E45.55596
G1 X67.764 Y58.487 E45.58838
G1 X68.281 Y58.311 E45.62075
G1 X68.819 Y58.213 E45.65316
G1 X69.222 Y58.191 E45.67708
G1 X253.121 Y58.191 E56.57669
G1 X253.666 Y58.231 E56.60908
G1 X254.2 Y58.35 E56.64151
G1 X254.71 Y58.545 E56.67387
G1 X255.187 Y58.813 E56.7063
G1 X255.619 Y59.148 E56.7387
G1 X255.998 Y59.541 E56.77106
G1 X256.316 Y59.986 E56.80347
G1 X256.565 Y60.473 E56.83589
G1 X256.741 Y60.99 E56.86826
G1 X256.839 Y61.528 E56.90067
G1 X256.861 Y61.931 E56.92459
G1 X256.861 Y97.421 E59.02807
G1 X256.855 Y97.64 E59.04106
G1 X256.669 Y100.81 E59.22926
G1 X256.629 Y101.178 E59.2512
G1 X256.13 Y104.32 E59.43976
G1 X256.053 Y104.683 E59.46176
G1 X255.246 Y107.757 E59.65012
G1 X255.135 Y108.11 E59.67206
G1 X254.027 Y111.091 E59.86055
G1 X253.882 Y111.429 E59.88235
G1 X252.398 Y114.467 E60.08274
G1 X251.384 Y116.576 E60.22144
G1 X250.606 Y118.804 E60.36131
G1 X250.073 Y121.125 E60.50246
G1 X249.815 Y123.451 E60.64116
G1 X249.815 Y125.814 E60.78122
G1 X250.077 Y128.137 E60.91977
G1 X250.604 Y130.462 E61.06107
G1 X251.381 Y132.682 E61.20048
G1 X252.597 Y135.204 E61.36642
G1 X253.905 Y137.886 E61.54328
G1 X254.052 Y138.232 E61.56556
G1 X255.172 Y141.271 E61.75752
G1 X255.285 Y141.63 E61.77983
G1 X256.093 Y144.763 E61.9716
G1 X256.168 Y145.133 E61.99397
G1 X256.656 Y148.333 E62.18583
G1 X256.694 Y148.709 E62.20823
G1 X256.857 Y151.942 E62.40009
G1 X256.857 Y152.318 E62.42238
G1 X256.694 Y155.551 E62.61424
G1 X256.656 Y155.926 E62.63658
G1 X256.168 Y159.128 E62.82855
G1 X256.093 Y159.499 E62.85098
G1 X255.285 Y162.632 E63.04275
G1 X255.173 Y162.991 E63.06504
G1 X254.054 Y166.029 E63.25693
G1 X253.906 Y166.375 E63.27923
G1 X252.399 Y169.465 E63.48299
G1 X251.384 Y171.576 E63.62182
G1 X250.606 Y173.804 E63.7617
G1 X250.073 Y176.125 E63.90284
G1 X249.815 Y178.451 E64.04155
G1 X249.815 Y180.814 E64.1816
G1 X250.077 Y183.137 E64.32016
G1 X250.604 Y185.462 E64.46145
G1 X251.381 Y187.683 E64.60092
G1 X252.476 Y189.958 E64.75056
G1 X253.688 Y192.393 E64.91177
G1 X253.817 Y192.683 E64.93058
G1 X254.822 Y195.221 E65.09237
G1 X254.927 Y195.523 E65.11132
G1 X255.712 Y198.139 E65.2732
G1 X255.79 Y198.447 E65.29203
G1 X256.35 Y201.118 E65.45379
G1 X256.402 Y201.43 E65.47253
G1 X256.734 Y204.14 E65.63435
G1 X256.759 Y204.458 E65.65326
G1 X256.859 Y207.183 E65.81488
G1 X256.862 Y207.342 E65.8243
G1 X256.652 Y242.353 E67.89943
G1 X256.609 Y242.898 E67.93183
G1 X256.487 Y243.431 E67.96424
G1 X256.288 Y243.94 E67.99663
G1 X256.017 Y244.415 E68.02904
G1 X255.68 Y244.846 E68.06147
G1 X255.284 Y245.222 E68.09383
G1 X254.837 Y245.537 E68.12625
G1 X254.349 Y245.784 E68.15866
G1 X253.831 Y245.956 E68.19101
G1 X253.293 Y246.052 E68.2234
G1 X252.912 Y246.071 E68.24601
G1 X69.222 Y246.071 E79.13324
G1 X68.677 Y246.031 E79.16563
G1 X68.143 Y245.912 E79.19805
G1 X67.633 Y245.717 E79.23042
G1 X67.156 Y245.449 E79.26284
G1 X66.724 Y245.114 E79.29524
G1 X66.345 Y244.721 E79.3276
G1 X66.027 Y244.276 E79.36002
G1 X65.778 Y243.789 E79.39244
G1 X65.602 Y243.272 E79.42481
G1 X65.504 Y242.734 E79.45722
G1 X65.482 Y242.331 E79.48114
G1 X65.482 Y215.888 E81.04841
G1 X65.143 Y215.812 E81.069
G1 X64.633 Y215.617 E81.10136
G1 X64.156 Y215.349 E81.13379
G1 X63.724 Y215.014 E81.16619
G1 X63.345 Y214.621 E81.19855
G1 X63.027 Y214.176 E81.23097
G1 X62.778 Y213.689 E81.26338
G1 X62.602 Y213.172 E81.29575
G1 X62.504 Y212.634 E81.32817
G1 X62.482 Y212.231 E81.35209
G1 X62.482 Y202.031 E81.95664
G1 X62.522 Y201.486 E81.98902
G1 X62.641 Y200.952 E82.02145
G1 X62.836 Y200.442 E82.05381
G1 X63.104 Y199.965 E82.08624
G1 X63.439 Y199.533 E82.11864
G1 X63.832 Y199.154 E82.151
G1 X64.277 Y198.836 E82.18342
G1 X64.764 Y198.587 E82.21584
G1 X65.281 Y198.411 E82.24821
G1 X65.482 Y198.374 E82.26032
G1 X65.482 Y160.888 E84.4821
G1 X65.143 Y160.812 E84.50269
G1 X64.633 Y160.617 E84.53505
G1 X64.156 Y160.349 E84.56748
G1 X63.724 Y160.014 E84.59988
G1 X63.345 Y159.621 E84.63224
G1 X63.027 Y159.176 E84.66466
G1 X62.778 Y158.689 E84.69708
G1 X62.602 Y158.172 E84.72945
G1 X62.504 Y157.634 E84.76186
G1 X62.482 Y157.231 E84.78578
G1 X62.482 Y147.031 E85.39033
G1 X62.522 Y146.486 E85.42272
G1 X62.641 Y145.952 E85.45514
G1 X62.836 Y145.442 E85.4875
G1 X63.104 Y144.965 E85.51993
G1 X63.439 Y144.533 E85.55233
G1 X63.832 Y144.154 E85.58469
G1 X64.277 Y143.836 E85.61711
G1 X64.764 Y143.587 E85.64953
G1 X65.281 Y143.411 E85.6819
G1 X65.482 Y143.374 E85.69401
G1 X65.482 Y105.888 E87.91579
G1 X65.143 Y105.812 E87.93638
G1 X64.633 Y105.617 E87.96874
G1 X64.156 Y105.349 E88.00117
G1 X63.724 Y105.014 E88.03357
G1 X63.345 Y104.621 E88.06593
G1 X63.027 Y104.176 E88.09835
G1 X62.778 Y103.689 E88.13077
G1 X62.602 Y103.172 E88.16314
G1 X62.504 Y102.634 E88.19555
G1 X62.482 Y102.231 E88.21947
G1 X62.482 Y92.031 E88.82402
G1 X62.522 Y91.486 E88.85641
G1 X62.641 Y90.952 E88.88883
G1 X62.836 Y90.442 E88.9212
G1 X63.104 Y89.965 E88.95362
G1 X63.439 Y89.533 E88.98603
G1 X63.832 Y89.154 E89.01838
G1 X64.277 Y88.836 E89.0508
G1 X64.764 Y88.587 E89.08322
G1 X65.281 Y88.411 E89.11559
G1 X65.482 Y88.374 E89.1277
G1 X65.482 Y61.931 E90.69497
G1 X65.522 Y61.386 E90.72736
G1 X65.641 Y60.852 E90.75978
G1 X65.836 Y60.342 E90.79214
G1 X66.104 Y59.865 E90.82457
G1 X66.439 Y59.433 E90.85697
M204 S5000
G0 F3600 X66.542 Y60.006
M204 S500
G1 F1500 X66.873 Y59.613 E90.88743
G1 X67.261 Y59.277 E90.91785
G1 X67.696 Y59.005 E90.94826
G1 X68.169 Y58.804 E90.97872
G1 X68.666 Y58.678 E91.00911
G1 X69.222 Y58.631 E91.04218
G1 X253.121 Y58.631 E101.94179
G1 X253.633 Y58.671 E101.97223
G1 X254.132 Y58.79 E102.00263
G1 X254.607 Y58.985 E102.03307
G1 X255.046 Y59.251 E102.06349
G1 X255.439 Y59.582 E102.09394
G1 X255.775 Y59.97 E102.12436
G1 X256.047 Y60.405 E102.15477
G1 X256.248 Y60.878 E102.18523
G1 X256.374 Y61.375 E102.21562
G1 X256.421 Y61.931 E102.24869
G1 X256.421 Y97.421 E104.35217
G1 X256.415 Y97.614 E104.36361
G1 X256.229 Y100.784 E104.55182
G1 X256.194 Y101.109 E104.5712
G1 X255.695 Y104.251 E104.75975
G1 X255.628 Y104.571 E104.77913
G1 X254.821 Y107.645 E104.9675
G1 X254.722 Y107.957 E104.9869
G1 X253.614 Y110.938 E105.17539
G1 X253.487 Y111.236 E105.19459
G1 X252.004 Y114.274 E105.39496
G1 X250.972 Y116.418 E105.53599
G1 X250.183 Y118.677 E105.67781
G1 X249.64 Y121.048 E105.82198
G1 X249.375 Y123.429 E105.96397
G1 X249.375 Y125.836 E106.10663
G1 X249.643 Y128.211 E106.24829
G1 X250.181 Y130.584 E106.39251
G1 X250.973 Y132.848 E106.53467
G1 X252.201 Y135.396 E106.70231
G1 X253.509 Y138.078 E106.87917
G1 X253.639 Y138.384 E106.89887
G1 X254.759 Y141.423 E107.09084
G1 X254.858 Y141.74 E107.11052
G1 X255.666 Y144.873 E107.30229
G1 X255.733 Y145.2 E107.32207
G1 X256.221 Y148.4 E107.51393
G1 X256.255 Y148.731 E107.53365
G1 X256.418 Y151.964 E107.72551
G1 X256.418 Y152.296 E107.74519
G1 X256.255 Y155.529 E107.93705
G1 X256.221 Y155.86 E107.95677
G1 X255.733 Y159.062 E108.14874
G1 X255.666 Y159.389 E108.16853
G1 X254.858 Y162.522 E108.36029
G1 X254.76 Y162.839 E108.37996
G1 X253.641 Y165.877 E108.57185
G1 X253.51 Y166.182 E108.59152
G1 X252.012 Y169.257 E108.79425
G1 X250.972 Y171.418 E108.93639
G1 X250.183 Y173.677 E109.07821
G1 X249.64 Y176.048 E109.22238
G1 X249.375 Y178.429 E109.36437
G1 X249.375 Y180.836 E109.50704
G1 X249.643 Y183.211 E109.64869
G1 X250.181 Y185.584 E109.79291
G1 X250.973 Y187.849 E109.93513
G1 X252.102 Y190.194 E110.08938
G1 X253.294 Y192.59 E110.248
G1 X253.408 Y192.845 E110.26455
G1 X254.413 Y195.383 E110.42634
G1 X254.506 Y195.65 E110.4431
G1 X255.291 Y198.266 E110.60498
G1 X255.36 Y198.537 E110.62155
G1 X255.92 Y201.208 E110.7833
G1 X255.966 Y201.484 E110.79989
G1 X256.298 Y204.194 E110.96171
G1 X256.32 Y204.474 E110.97836
G1 X256.42 Y207.199 E111.13997
G1 X256.422 Y207.34 E111.14833
G1 X256.212 Y242.351 E113.22346
G1 X256.169 Y242.862 E113.25385
G1 X256.047 Y243.361 E113.2843
G1 X255.849 Y243.835 E113.31474
G1 X255.581 Y244.272 E113.34513
G1 X255.247 Y244.663 E113.3756
G1 X254.857 Y244.997 E113.40604
G1 X254.42 Y245.266 E113.43645
G1 X253.947 Y245.465 E113.46687
G1 X253.448 Y245.587 E113.49731
G1 X252.912 Y245.631 E113.52919
G1 X69.222 Y245.631 E124.41641
G1 X68.71 Y245.591 E124.44685
G1 X68.211 Y245.472 E124.47726
G1 X67.736 Y245.277 E124.50769
G1 X67.297 Y245.011 E124.53811
G1 X66.904 Y244.68 E124.56857
G1 X66.568 Y244.292 E124.59899
G1 X66.296 Y243.857 E124.6294
G1 X66.095 Y243.384 E124.65986
G1 X65.969 Y242.887 E124.69025
G1 X65.922 Y242.331 E124.72332
G1 X65.922 Y215.508 E126.3131
G1 X65.71 Y215.491 E126.32571
G1 X65.211 Y215.372 E126.35612
G1 X64.736 Y215.177 E126.38655
G1 X64.297 Y214.911 E126.41697
G1 X63.904 Y214.58 E126.44743
G1 X63.568 Y214.192 E126.47785
G1 X63.296 Y213.757 E126.50825
G1 X63.095 Y213.284 E126.53871
G1 X62.969 Y212.787 E126.5691
G1 X62.922 Y212.231 E126.60217
G1 X62.922 Y202.031 E127.20672
G1 X62.962 Y201.519 E127.23716
G1 X63.081 Y201.02 E127.26757
G1 X63.276 Y200.545 E127.298
G1 X63.542 Y200.106 E127.32842
G1 X63.873 Y199.713 E127.35888
G1 X64.261 Y199.377 E127.3893
G1 X64.696 Y199.105 E127.41971
G1 X65.169 Y198.904 E127.45017
G1 X65.666 Y198.778 E127.48056
G1 X65.922 Y198.756 E127.49578
G1 X65.922 Y160.508 E129.76273
G1 X65.71 Y160.491 E129.77533
G1 X65.211 Y160.372 E129.80574
G1 X64.736 Y160.177 E129.83617
G1 X64.297 Y159.911 E129.86659
G1 X63.904 Y159.58 E129.89705
G1 X63.568 Y159.192 E129.92747
G1 X63.296 Y158.757 E129.95788
G1 X63.095 Y158.284 E129.98834
G1 X62.969 Y157.787 E130.01873
G1 X62.922 Y157.231 E130.0518
G1 X62.922 Y147.031 E130.65635
G1 X62.962 Y146.519 E130.68678
G1 X63.081 Y146.02 E130.71719
G1 X63.276 Y145.545 E130.74762
G1 X63.542 Y145.106 E130.77805
G1 X63.873 Y144.713 E130.8085
G1 X64.261 Y144.377 E130.83892
G1 X64.696 Y144.105 E130.86933
G1 X65.169 Y143.904 E130.89979
G1 X65.666 Y143.778 E130.93018
G1 X65.922 Y143.756 E130.94541
G1 X65.922 Y105.508 E133.21235
G1 X65.71 Y105.491 E133.22495
G1 X65.211 Y105.372 E133.25536
G1 X64.736 Y105.177 E133.28579
G1 X64.297 Y104.911 E133.31622
G1 X63.904 Y104.58 E133.34667
G1 X63.568 Y104.192 E133.37709
G1 X63.296 Y103.757 E133.4075
G1 X63.095 Y103.284 E133.43796
G1 X62.969 Y102.787 E133.46835
G1 X62.922 Y102.231 E133.50142
G1 X62.922 Y92.031 E134.10597
G1 X62.962 Y91.519 E134.13641
G1 X63.081 Y91.02 E134.16681
G1 X63.276 Y90.545 E134.19724
G1 X63.542 Y90.106 E134.22767
G1 X63.873 Y89.713 E134.25812
G1 X64.261 Y89.377 E134.28854
