;FLAVOR:Marlin
;TIME:6153
;Filament used: 5.3614m
;Layer height: 0.2
;MINX:121.97
;MINY:61.47
;MINZ:0.3
;MAXX:198.031
;MAXY:249.38
;MAXZ:2.9
;Generated with Cura_SteamEngine 4.9.1
M140 S85
M105
M190 S85
M104 S235
M105
M109 S235
M82 ;absolute extrusion mode
G28 ;Home
G1 Z15.0 F6000 ;Move the platform down 15mm
;Prime the extruder
G92 E0
G1 F200 E3
G92 E0
G92 E0
G92 E0
G1 F2100 E-1.5
;LAYER_COUNT:14
;LAYER:0
M107
M204 S5000
M205 X5 Y5
G1 F600 Z0.8
G0 F3600 X122.325 Y64.231 Z0.8
M204 S500
;TYPE:SKIRT
G1 F600 Z0.3
G1 F2100 E0
G1 F1500 X122.594 Y63.72 E0.03613
G1 X122.931 Y63.25 E0.07231
G1 X123.461 Y62.694 E0.12037
G1 X123.897 Y62.315 E0.15651
G1 X124.381 Y61.999 E0.19267
G1 X124.904 Y61.753 E0.22883
G1 X125.456 Y61.582 E0.26498
G1 X126.027 Y61.488 E0.30119
G1 X126.417 Y61.47 E0.32561
G1 X193.583 Y61.47 E4.52767
G1 X194.16 Y61.51 E4.56386
G1 X194.725 Y61.629 E4.59998
G1 X195.269 Y61.825 E4.63616
G1 X195.78 Y62.094 E4.67229
G1 X196.25 Y62.431 E4.70847
G1 X196.806 Y62.961 E4.75652
G1 X197.185 Y63.397 E4.79267
G1 X197.501 Y63.881 E4.82883
G1 X197.747 Y64.404 E4.86499
G1 X197.918 Y64.956 E4.90114
G1 X198.012 Y65.527 E4.93735
G1 X198.03 Y65.917 E4.96177
G1 X198.031 Y244.932 E16.16136
G1 X197.991 Y245.509 E16.19755
G1 X197.872 Y246.074 E16.23367
G1 X197.676 Y246.618 E16.26985
G1 X197.407 Y247.129 E16.30598
G1 X197.07 Y247.599 E16.34216
G1 X196.539 Y248.156 E16.3903
G1 X196.103 Y248.535 E16.42644
G1 X195.619 Y248.851 E16.46261
G1 X195.096 Y249.097 E16.49877
G1 X194.544 Y249.268 E16.53492
G1 X193.973 Y249.362 E16.57112
G1 X193.583 Y249.38 E16.59555
G1 X126.417 Y249.38 E20.79761
G1 X125.84 Y249.34 E20.83379
G1 X125.275 Y249.221 E20.86992
G1 X124.731 Y249.025 E20.90609
G1 X124.22 Y248.756 E20.94222
G1 X123.75 Y248.419 E20.9784
G1 X123.194 Y247.889 E21.02646
G1 X122.815 Y247.453 E21.0626
G1 X122.499 Y246.969 E21.09876
G1 X122.253 Y246.446 E21.13492
G1 X122.082 Y245.894 E21.17108
G1 X121.988 Y245.323 E21.20728
G1 X121.97 Y244.933 E21.23171
G1 X121.97 Y65.917 E32.43136
G1 X122.01 Y65.34 E32.46755
G1 X122.129 Y64.775 E32.50367
G1 X122.325 Y64.231 E32.53984
M204 S5000
G0 F3600 X122.764 Y64.328
M204 S500
G1 F1500 X123.032 Y63.851 E32.57407
G1 X123.505 Y63.272 E32.62085
G1 X123.772 Y63.005 E32.64447
G1 X124.186 Y62.648 E32.67867
G1 X124.648 Y62.355 E32.7129
G1 X125.147 Y62.132 E32.74709
G1 X125.673 Y61.985 E32.78126
G1 X126.417 Y61.91 E32.82804
G1 X193.583 Y61.91 E37.0301
G1 X194.128 Y61.95 E37.06429
G1 X194.662 Y62.069 E37.09852
G1 X195.172 Y62.264 E37.13268
G1 X195.649 Y62.532 E37.16691
G1 X196.228 Y63.005 E37.21368
G1 X196.495 Y63.272 E37.23731
G1 X196.852 Y63.686 E37.27151
G1 X197.145 Y64.148 E37.30573
G1 X197.368 Y64.647 E37.33993
G1 X197.515 Y65.173 E37.3741
G1 X197.59 Y65.917 E37.42088
G1 X197.591 Y244.932 E48.62047
G1 X197.551 Y245.477 E48.65466
G1 X197.432 Y246.011 E48.68889
G1 X197.237 Y246.521 E48.72305
G1 X196.969 Y246.998 E48.75728
G1 X196.496 Y247.577 E48.80405
G1 X196.228 Y247.845 E48.82776
G1 X195.814 Y248.202 E48.86196
G1 X195.352 Y248.495 E48.89619
G1 X194.853 Y248.718 E48.93039
G1 X194.327 Y248.865 E48.96455
G1 X193.583 Y248.94 E49.01134
G1 X126.417 Y248.94 E53.2134
G1 X125.872 Y248.9 E53.24758
G1 X125.338 Y248.781 E53.28181
G1 X124.828 Y248.586 E53.31597
G1 X124.351 Y248.318 E53.3502
G1 X123.772 Y247.845 E53.39698
G1 X123.505 Y247.578 E53.4206
G1 X123.148 Y247.164 E53.4548
G1 X122.855 Y246.702 E53.48903
G1 X122.632 Y246.203 E53.52322
G1 X122.485 Y245.677 E53.55739
G1 X122.41 Y244.933 E53.60417
G1 X122.41 Y65.917 E64.80383
G1 X122.45 Y65.372 E64.83802
G1 X122.569 Y64.838 E64.87224
G1 X122.764 Y64.328 E64.9064
M204 S5000
G0 F3600 X123.204 Y64.431
M204 S500
G1 F1500 X123.47 Y63.992 E64.93852
G1 X123.817 Y63.584 E64.97202
G1 X124.084 Y63.317 E64.99565
G1 X124.474 Y62.983 E65.02777
G1 X124.911 Y62.714 E65.05988
G1 X125.385 Y62.516 E65.09201
G1 X125.883 Y62.393 E65.12411
G1 X126.417 Y62.35 E65.15762
G1 X193.583 Y62.35 E69.35968
G1 X194.095 Y62.39 E69.39181
G1 X194.594 Y62.509 E69.42391
G1 X195.069 Y62.704 E69.45603
G1 X195.508 Y62.97 E69.48814
G1 X195.916 Y63.317 E69.52165
G1 X196.183 Y63.584 E69.54528
G1 X196.517 Y63.974 E69.5774
G1 X196.786 Y64.411 E69.6095
G1 X196.984 Y64.885 E69.64164
G1 X197.107 Y65.383 E69.67373
G1 X197.15 Y65.917 E69.70725
G1 X197.151 Y244.932 E80.90684
G1 X197.111 Y245.444 E80.93897
G1 X196.992 Y245.943 E80.97107
G1 X196.797 Y246.418 E81.00319
G1 X196.531 Y246.857 E81.0353
G1 X196.184 Y247.265 E81.06881
G1 X195.916 Y247.533 E81.09252
G1 X195.526 Y247.867 E81.12465
G1 X195.089 Y248.136 E81.15675
G1 X194.615 Y248.334 E81.18889
G1 X194.117 Y248.457 E81.22098
G1 X193.583 Y248.5 E81.2545
G1 X126.417 Y248.5 E85.45656
G1 X125.905 Y248.46 E85.48869
G1 X125.406 Y248.341 E85.52078
G1 X124.931 Y248.146 E85.55291
G1 X124.492 Y247.88 E85.58502
G1 X124.084 Y247.533 E85.61853
G1 X123.817 Y247.266 E85.64215
G1 X123.483 Y246.876 E85.67428
G1 X123.214 Y246.439 E85.70638
G1 X123.016 Y245.965 E85.73852
G1 X122.893 Y245.467 E85.77061
G1 X122.85 Y244.933 E85.80413
G1 X122.85 Y65.917 E97.00378
G1 X122.89 Y65.405 E97.03591
G1 X123.009 Y64.906 E97.06801
G1 X123.204 Y64.431 E97.10013
M204 S5000
G0 F3600 X123.449 Y64.978
M204 S500
G1 F1500 X123.643 Y64.541 E97.13004
G1 X123.907 Y64.143 E97.15992
G1 X124.395 Y63.628 E97.20431
G1 X124.76 Y63.319 E97.23423
G1 X125.171 Y63.076 E97.2641
G1 X125.617 Y62.904 E97.294
G1 X126.085 Y62.809 E97.32388
G1 X126.417 Y62.79 E97.34469
G1 X193.583 Y62.79 E101.54675
G1 X194.059 Y62.83 E101.57663
G1 X194.522 Y62.949 E101.60654
G1 X194.959 Y63.143 E101.63645
G1 X195.357 Y63.407 E101.66633
G1 X195.872 Y63.895 E101.71072
G1 X196.181 Y64.26 E101.74064
G1 X196.424 Y64.671 E101.77051
G1 X196.596 Y65.117 E101.80041
G1 X196.691 Y65.585 E101.83029
G1 X196.71 Y65.917 E101.8511
G1 X196.711 Y244.932 E113.05069
G1 X196.671 Y245.408 E113.08057
G1 X196.552 Y245.871 E113.11048
G1 X196.358 Y246.308 E113.14039
G1 X196.094 Y246.706 E113.17027
G1 X195.605 Y247.222 E113.21475
G1 X195.24 Y247.531 E113.24467
G1 X194.829 Y247.774 E113.27454
G1 X194.383 Y247.946 E113.30444
G1 X193.915 Y248.041 E113.33432
G1 X193.583 Y248.06 E113.35513
G1 X126.417 Y248.06 E117.55719
G1 X125.941 Y248.02 E117.58707
G1 X125.478 Y247.901 E117.61698
G1 X125.041 Y247.707 E117.64689
G1 X124.643 Y247.443 E117.67677
G1 X124.128 Y246.955 E117.72116
G1 X123.819 Y246.59 E117.75108
G1 X123.576 Y246.179 E117.78095
G1 X123.404 Y245.733 E117.81085
G1 X123.309 Y245.265 E117.84073
G1 X123.29 Y244.933 E117.86153
G1 X123.29 Y65.917 E129.06119
G1 X123.33 Y65.441 E129.09107
G1 X123.449 Y64.978 E129.12098
M204 S5000
G0 F3600 X123.888 Y65.056
M204 S500
G1 F1500 X124.081 Y64.661 E129.14849
G1 X124.439 Y64.206 E129.18471
G1 X125.044 Y63.658 E129.23578
G1 X125.427 Y63.442 E129.26329
G1 X125.842 Y63.299 E129.29075
G1 X126.417 Y63.23 E129.32698
G1 X193.583 Y63.23 E133.52904
G1 X194.021 Y63.27 E133.55656
G1 X194.444 Y63.388 E133.58403
G1 X194.839 Y63.581 E133.61153
G1 X195.294 Y63.939 E133.64775
G1 X195.842 Y64.544 E133.69882
G1 X196.058 Y64.927 E133.72633
G1 X196.201 Y65.342 E133.75379
G1 X196.27 Y65.917 E133.79003
G1 X196.271 Y244.932 E144.98962
G1 X196.231 Y245.37 E145.01713
G1 X196.113 Y245.793 E145.04461
G1 X195.92 Y246.188 E145.07211
G1 X195.562 Y246.643 E145.10833
G1 X194.956 Y247.192 E145.15949
G1 X194.573 Y247.408 E145.187
G1 X194.158 Y247.551 E145.21446
G1 X193.583 Y247.62 E145.25069
G1 X126.417 Y247.62 E149.45275
G1 X125.979 Y247.58 E149.48027
G1 X125.556 Y247.462 E149.50774
G1 X125.161 Y247.269 E149.53525
G1 X124.706 Y246.911 E149.57147
G1 X124.158 Y246.306 E149.62254
G1 X123.942 Y245.923 E149.65005
G1 X123.799 Y245.508 E149.67751
G1 X123.73 Y244.933 E149.71374
G1 X123.73 Y65.917 E160.9134
G1 X123.77 Y65.479 E160.94091
G1 X123.888 Y65.056 E160.96839
M204 S5000
G0 F3600 X124.328 Y65.142
M204 S500
G1 F1500 X124.52 Y64.794 E160.99325
G1 X125.017 Y64.25 E161.03935
G1 X125.325 Y63.998 E161.06425
G1 X125.677 Y63.814 E161.0891
G1 X126.058 Y63.703 E161.11392
G1 X126.417 Y63.67 E161.13648
G1 X193.583 Y63.67 E165.33854
G1 X193.978 Y63.71 E165.36338
G1 X194.358 Y63.828 E165.38827
G1 X194.706 Y64.02 E165.41314
G1 X195.25 Y64.517 E165.45924
G1 X195.502 Y64.825 E165.48413
G1 X195.686 Y65.177 E165.50898
G1 X195.797 Y65.558 E165.53381
G1 X195.83 Y65.917 E165.55636
G1 X195.831 Y244.932 E176.75596
G1 X195.791 Y245.327 E176.78079
G1 X195.673 Y245.707 E176.80569
G1 X195.481 Y246.055 E176.83055
G1 X194.983 Y246.6 E176.87674
G1 X194.675 Y246.852 E176.90164
G1 X194.323 Y247.036 E176.92649
G1 X193.942 Y247.147 E176.95131
G1 X193.583 Y247.18 E176.97387
G1 X126.417 Y247.18 E181.17593
G1 X126.022 Y247.14 E181.20077
G1 X125.642 Y247.022 E181.22566
G1 X125.294 Y246.83 E181.25053
G1 X124.75 Y246.333 E181.29663
G1 X124.498 Y246.025 E181.32152
G1 X124.314 Y245.673 E181.34637
G1 X124.203 Y245.292 E181.3712
G1 X124.17 Y244.933 E181.39375
G1 X124.17 Y65.917 E192.59341
G1 X124.21 Y65.522 E192.61825
G1 X124.328 Y65.142 E192.64314
M204 S5000
G0 F3600 X124.767 Y65.239
M204 S500
G1 F1500 X125.061 Y64.828 E192.67476
G1 X125.602 Y64.343 E192.72021
G1 X125.919 Y64.193 E192.74215
G1 X126.417 Y64.11 E192.77374
G1 X193.583 Y64.11 E196.9758
G1 X193.931 Y64.15 E196.99771
G1 X194.261 Y64.267 E197.01962
G1 X194.672 Y64.561 E197.05123
G1 X195.157 Y65.102 E197.09669
G1 X195.307 Y65.419 E197.11863
G1 X195.39 Y65.917 E197.15021
G1 X195.391 Y244.932 E208.34981
G1 X195.351 Y245.28 E208.37172
G1 X195.234 Y245.61 E208.39363
G1 X194.94 Y246.021 E208.42524
G1 X194.398 Y246.507 E208.47079
G1 X194.081 Y246.657 E208.49273
G1 X193.583 Y246.74 E208.52431
G1 X126.417 Y246.74 E212.72637
G1 X126.069 Y246.7 E212.74829
G1 X125.739 Y246.583 E212.77019
G1 X125.328 Y246.289 E212.80181
G1 X124.843 Y245.748 E212.84726
G1 X124.693 Y245.431 E212.8692
G1 X124.61 Y244.933 E212.90079
G1 X124.61 Y65.917 E224.10044
G1 X124.65 Y65.569 E224.12236
G1 X124.767 Y65.239 E224.14426
M204 S5000
G0 F3600 X125.206 Y65.352
M204 S500
G1 F1500 X125.639 Y64.872 E224.18471
G1 X125.875 Y64.693 E224.20324
G1 X126.15 Y64.583 E224.22177
G1 X126.417 Y64.55 E224.2386
G1 X193.583 Y64.55 E228.44066
G1 X193.876 Y64.59 E228.45916
G1 X194.148 Y64.706 E228.47766
G1 X194.628 Y65.139 E228.5181
G1 X194.807 Y65.375 E228.53663
G1 X194.917 Y65.65 E228.55516
G1 X194.95 Y65.917 E228.572
G1 X194.951 Y244.932 E239.77159
G1 X194.911 Y245.225 E239.79009
G1 X194.795 Y245.497 E239.80859
G1 X194.361 Y245.978 E239.84912
G1 X194.125 Y246.157 E239.86765
G1 X193.85 Y246.267 E239.88618
G1 X193.583 Y246.3 E239.90301
G1 X126.417 Y246.3 E244.10507
G1 X126.124 Y246.26 E244.12357
G1 X125.852 Y246.144 E244.14207
G1 X125.372 Y245.711 E244.18252
G1 X125.193 Y245.475 E244.20105
G1 X125.083 Y245.2 E244.21958
G1 X125.05 Y244.933 E244.23641
G1 X125.05 Y65.917 E255.43606
G1 X125.09 Y65.624 E255.45457
G1 X125.206 Y65.352 E255.47307
M204 S5000
G0 F3600 X125.53 Y65.692
M204 S500
G1 F1500 X125.683 Y65.45 E255.49098
G1 X125.95 Y65.183 E255.5146
G1 X126.138 Y65.052 E255.52894
G1 X126.417 Y64.99 E255.54682
G1 X193.583 Y64.99 E259.74888
G1 X193.808 Y65.03 E259.76317
G1 X194.05 Y65.183 E259.78109
G1 X194.317 Y65.45 E259.80471
G1 X194.448 Y65.638 E259.81905
G1 X194.51 Y65.917 E259.83693
G1 X194.511 Y244.932 E271.03652
G1 X194.471 Y245.157 E271.05082
G1 X194.318 Y245.399 E271.06873
G1 X194.05 Y245.667 E271.09244
G1 X193.862 Y245.798 E271.10678
G1 X193.583 Y245.86 E271.12466
G1 X126.417 Y245.86 E275.32672
G1 X126.192 Y245.82 E275.34101
G1 X125.95 Y245.667 E275.35893
G1 X125.683 Y245.4 E275.38255
G1 X125.552 Y245.212 E275.39688
G1 X125.49 Y244.933 E275.41476
G1 X125.49 Y65.917 E286.61442
G1 X125.53 Y65.692 E286.62872
M204 S5000
G0 F3600 X125.994 Y65.761
M204 S500
G1 F1500 X126.261 Y65.494 E286.65234
G1 X126.417 Y65.43 E286.66289
G1 X193.583 Y65.43 E290.86495
G1 X193.739 Y65.494 E290.8755
G1 X194.006 Y65.761 E290.89912
G1 X194.07 Y65.917 E290.90967
G1 X194.071 Y244.932 E302.10926
G1 X194.007 Y245.088 E302.11981
G1 X193.739 Y245.356 E302.14353
G1 X193.583 Y245.42 E302.15407
G1 X126.417 Y245.42 E306.35613
G1 X126.261 Y245.356 E306.36668
G1 X125.994 Y245.089 E306.39031
G1 X125.93 Y244.933 E306.40086
G1 X125.93 Y65.917 E317.60051
G1 X125.994 Y65.761 E317.61106
M204 S5000
G1 F2100 E316.11106
G1 F600 Z0.8
;MESH:c723f503-67ee-46c8-be5e-f77254269f02.stl
G0 F3600 X193.408 Y244.78 Z0.8
M204 S500
;TYPE:WALL-OUTER
G1 F600 Z0.3
G1 F2100 E317.61106
G1 F1200 X126.592 Y244.78 E321.79122
G1 X126.57 Y244.758 E321.79317
G1 X126.57 Y215.433 E323.62781
G1 X126.57 Y204.593 E324.30599
G1 X126.57 Y160.62 E327.05704
G1 X126.57 Y149.78 E327.73521
G1 X126.57 Y105.42 E330.51048
G1 X126.57 Y94.58 E331.18865
G1 X126.57 Y66.092 E332.97093
G1 X126.592 Y66.07 E332.97288
G1 X193.408 Y66.07 E337.15304
G1 X193.43 Y66.092 E337.15499
G1 X193.43 Y94.58 E338.93726
G1 X193.43 Y105.42 E339.61544
G1 X193.43 Y149.78 E342.3907
G1 X193.43 Y160.62 E343.06888
G1 X193.43 Y204.593 E345.81993
G1 X193.43 Y215.432 E346.49804
G1 X193.431 Y244.757 E348.33268
G1 X193.408 Y244.78 E348.33472
M204 S5000
G0 F3600 X193.208 Y244.78
G0 X192.946 Y244.295
G1 F2100 E346.83472
G0 F3600 X185.319 Y203.765
G0 X184.6 Y201.354
G0 X183.652 Y199.022
G0 X182.482 Y196.793
G0 X181.104 Y194.688
G0 X179.53 Y192.724
G0 X177.773 Y190.921
G0 X175.851 Y189.297
G0 X173.78 Y187.865
G0 X171.489 Y186.596
G0 X169.173 Y185.596
G0 X166.885 Y184.851
G0 X164.329 Y184.29
G0 X161.83 Y183.992
G0 X159.313 Y183.936
G0 X156.811 Y184.118
G0 X154.323 Y184.553
G0 X151.9 Y185.217
G0 X149.547 Y186.113
G0 X147.624 Y187.064
G0 X126.48 Y160.545
G0 X126.58 Y160.62
M204 S500
G1 F2100 E348.33472
G1 F1200 X130.22 Y160.62 E348.56244
G1 X130.22 Y149.78 E349.24062
G1 X126.58 Y149.78 E349.46835
G1 X126.58 Y160.62 E349.48376
M204 S5000
G0 F3600 X126.78 Y160.62
G0 X127.054 Y161.104
G1 F2100 E347.98376
G0 F3600 X126.48 Y105.345
G0 X126.58 Y105.42
M204 S500
G1 F2100 E349.48376
G1 F1200 X130.22 Y105.42 E349.71149
G1 X130.22 Y94.58 E350.38966
G1 X126.58 Y94.58 E350.61739
G1 X126.58 Y105.42 E350.6328
M204 S5000
G0 F3600 X126.78 Y105.42
G0 X127.054 Y105.904
G1 F2100 E349.1328
G0 F3600 X143.249 Y119.825
G0 X145.316 Y121.398
G0 X147.454 Y122.718
G0 X149.694 Y123.819
G0 X152.049 Y124.703
G0 X154.469 Y125.357
G0 X156.935 Y125.77
G0 X159.426 Y125.947
G0 X161.927 Y125.881
G0 X164.415 Y125.574
G0 X166.871 Y125.027
G0 X169.243 Y124.251
G0 X171.531 Y123.25
G0 X173.731 Y122.021
G0 X175.784 Y120.601
G0 X177.706 Y118.976
G0 X179.107 Y117.537
G0 X189.44 Y105.42
G0 X189.78 Y105.42
M204 S500
G1 F2100 E350.6328
G1 F1200 X193.42 Y105.42 E350.86053
G1 X193.42 Y94.58 E350.87594
G1 X189.78 Y94.58 E351.10367
G1 X189.78 Y105.42 E351.78184
M204 S5000
G0 F3600 X189.98 Y105.42
G0 X189.98 Y105.904
G1 F2100 E350.28184
G0 F3600 X179.367 Y117.273
G0 X177.622 Y119.053
G0 X175.691 Y120.67
G0 X173.629 Y122.083
G0 X171.453 Y123.289
G0 X169.136 Y124.291
G0 X166.757 Y125.057
G0 X164.317 Y125.593
G0 X162.309 Y125.832
G0 X159.423 Y126.006
G0 X159.427 Y125.667
M204 S500
G1 F2100 E351.78184
G1 F1200 X161.813 Y125.61 E351.93116
G1 X161.905 Y125.602 E351.93694
G1 X164.274 Y125.316 E352.08622
G1 X164.364 Y125.299 E352.09195
G1 X166.692 Y124.786 E352.24109
G1 X166.781 Y124.762 E352.24686
G1 X169.051 Y124.025 E352.39617
G1 X169.138 Y123.992 E352.40199
G1 X171.326 Y123.04 E352.55128
G1 X171.408 Y122.999 E352.55701
G1 X173.492 Y121.841 E352.70617
G1 X173.571 Y121.793 E352.71195
G1 X175.535 Y120.438 E352.86123
G1 X175.61 Y120.383 E352.86705
G1 X177.434 Y118.846 E353.01627
G1 X177.503 Y118.784 E353.02208
G1 X179.168 Y117.077 E353.17126
G1 X179.231 Y117.009 E353.17706
G1 X180.729 Y115.148 E353.32652
G1 X180.783 Y115.073 E353.3323
G1 X182.091 Y113.079 E353.4815
G1 X182.139 Y113 E353.48728
G1 X183.249 Y110.889 E353.63649
G1 X183.29 Y110.806 E353.64229
G1 X184.19 Y108.597 E353.79152
G1 X184.222 Y108.511 E353.79726
G1 X184.905 Y106.226 E353.94646
G1 X184.93 Y106.137 E353.95224
G1 X185.389 Y103.795 E354.10155
G1 X185.405 Y103.703 E354.10739
G1 X185.644 Y101.239 E354.26227
G1 X185.644 Y98.761 E354.4173
G1 X185.406 Y96.293 E354.57242
G1 X184.931 Y93.86 E354.72751
G1 X184.223 Y91.486 E354.8825
G1 X183.29 Y89.19 E355.03755
G1 X182.138 Y86.995 E355.19263
G1 X180.781 Y84.922 E355.34764
G1 X179.231 Y82.988 E355.5027
G1 X177.501 Y81.213 E355.65777
