;FLAVOR:Marlin
;TIME:14244
;Filament used: 11.5828m
;Layer height: 0.2
;MINX:62.043
;MINY:57.751
;MINZ:0.3
;MAXX:257.302
;MAXY:246.511
;MAXZ:2.9
;Generated with Cura_SteamEngine 4.9.1
M140 S85
M105
M190 S85
M104 S235
M105
M109 S235
M82 ;absolute extrusion mode
G28 ;Home
G1 Z15.0 F6000 ;Move the platform down 15mm
;Prime the extruder
G92 E0
G1 F200 E3
G92 E0
G92 E0
G92 E0
G1 F2100 E-1.5
;LAYER_COUNT:14
;LAYER:0
M107
M204 S5000
M205 X5 Y5
G1 F600 Z0.8
G0 F3600 X63.004 Y59.264 Z0.8
M204 S500
;TYPE:SKIRT
G1 F600 Z0.3
G1 F2100 E0
G1 F1500 X63.403 Y58.846 E0.03425
G1 X63.855 Y58.486 E0.0685
G1 X64.353 Y58.193 E0.10274
G1 X64.886 Y57.97 E0.13699
G1 X65.446 Y57.824 E0.17129
G1 X66.223 Y57.751 E0.21754
G1 X250.122 Y57.751 E11.11716
G1 X250.699 Y57.791 E11.15144
G1 X251.264 Y57.91 E11.18566
G1 X251.808 Y58.106 E11.21993
G1 X252.319 Y58.375 E11.25416
G1 X252.789 Y58.712 E11.28844
G1 X253.207 Y59.111 E11.32269
G1 X253.567 Y59.563 E11.35693
G1 X253.86 Y60.061 E11.39118
G1 X254.083 Y60.594 E11.42542
G1 X254.229 Y61.154 E11.45972
G1 X254.302 Y61.931 E11.50598
G1 X254.302 Y88.024 E13.0525
G1 X254.808 Y88.206 E13.08437
G1 X255.319 Y88.475 E13.1186
G1 X255.789 Y88.812 E13.15288
G1 X256.207 Y89.211 E13.18713
G1 X256.567 Y89.663 E13.22137
G1 X256.86 Y90.161 E13.25562
G1 X257.083 Y90.694 E13.28986
G1 X257.229 Y91.254 E13.32416
G1 X257.302 Y92.031 E13.37042
G1 X257.302 Y102.231 E13.97497
G1 X257.262 Y102.808 E14.00925
G1 X257.143 Y103.373 E14.04347
G1 X256.947 Y103.917 E14.07774
G1 X256.678 Y104.428 E14.11197
G1 X256.341 Y104.898 E14.14625
G1 X255.942 Y105.316 E14.1805
G1 X255.49 Y105.676 E14.21475
G1 X254.992 Y105.969 E14.24899
G1 X254.459 Y106.192 E14.28324
G1 X254.302 Y106.233 E14.29285
G1 X254.302 Y143.024 E16.47344
G1 X254.808 Y143.206 E16.50531
G1 X255.319 Y143.475 E16.53954
G1 X255.789 Y143.812 E16.57382
G1 X256.207 Y144.211 E16.60807
G1 X256.567 Y144.663 E16.64231
G1 X256.86 Y145.161 E16.67656
G1 X257.083 Y145.694 E16.7108
G1 X257.229 Y146.254 E16.74511
G1 X257.302 Y147.031 E16.79136
G1 X257.302 Y157.231 E17.39591
G1 X257.262 Y157.808 E17.43019
G1 X257.143 Y158.373 E17.46441
G1 X256.947 Y158.917 E17.49868
G1 X256.678 Y159.428 E17.53291
G1 X256.341 Y159.898 E17.56719
G1 X255.942 Y160.316 E17.60144
G1 X255.49 Y160.676 E17.63569
G1 X254.992 Y160.969 E17.66993
G1 X254.459 Y161.192 E17.70418
G1 X254.302 Y161.233 E17.71379
G1 X254.302 Y198.024 E19.89438
G1 X254.808 Y198.206 E19.92625
G1 X255.319 Y198.475 E19.96048
G1 X255.789 Y198.812 E19.99476
G1 X256.207 Y199.211 E20.02901
G1 X256.567 Y199.663 E20.06325
G1 X256.86 Y200.161 E20.0975
G1 X257.083 Y200.694 E20.13174
G1 X257.229 Y201.254 E20.16605
G1 X257.302 Y202.031 E20.2123
G1 X257.302 Y212.231 E20.81685
G1 X257.262 Y212.808 E20.85113
G1 X257.143 Y213.373 E20.88535
G1 X256.947 Y213.917 E20.91962
G1 X256.678 Y214.428 E20.95385
G1 X256.341 Y214.898 E20.98813
G1 X255.942 Y215.316 E21.02238
G1 X255.49 Y215.676 E21.05663
G1 X254.992 Y215.969 E21.09087
G1 X254.459 Y216.192 E21.12512
G1 X254.302 Y216.233 E21.13473
G1 X254.302 Y242.331 E22.68155
G1 X254.262 Y242.908 E22.71583
G1 X254.143 Y243.473 E22.75005
G1 X253.947 Y244.017 E22.78433
G1 X253.678 Y244.528 E22.81855
G1 X253.341 Y244.998 E22.85283
G1 X252.942 Y245.416 E22.88708
G1 X252.49 Y245.776 E22.92133
G1 X251.992 Y246.069 E22.95557
G1 X251.459 Y246.292 E22.98982
G1 X250.899 Y246.438 E23.02412
G1 X250.122 Y246.511 E23.07037
G1 X66.433 Y246.511 E33.95754
G1 X65.856 Y246.471 E33.99182
G1 X65.291 Y246.352 E34.02604
G1 X64.747 Y246.156 E34.06031
G1 X64.236 Y245.887 E34.09454
G1 X63.766 Y245.55 E34.12882
G1 X63.348 Y245.151 E34.16307
G1 X62.988 Y244.699 E34.19732
G1 X62.695 Y244.201 E34.23156
G1 X62.472 Y243.668 E34.26581
G1 X62.326 Y243.108 E34.30011
G1 X62.253 Y242.356 E34.34489
G1 X62.043 Y207.345 E36.42001
G1 X62.046 Y207.168 E36.4305
G1 X62.145 Y204.445 E36.592
G1 X62.173 Y204.089 E36.61317
G1 X62.505 Y201.379 E36.77499
G1 X62.563 Y201.028 E36.79607
G1 X63.124 Y198.355 E36.95795
G1 X63.211 Y198.014 E36.97881
G1 X63.995 Y195.399 E37.14062
G1 X64.112 Y195.061 E37.16182
G1 X65.116 Y192.524 E37.32353
G1 X65.261 Y192.199 E37.34462
G1 X66.474 Y189.762 E37.50597
G1 X67.552 Y187.52 E37.65341
G1 X68.318 Y185.329 E37.79098
G1 X68.83 Y183.083 E37.92751
G1 X69.09 Y180.779 E38.06494
G1 X69.09 Y178.482 E38.20108
G1 X68.83 Y176.173 E38.3388
G1 X68.319 Y173.933 E38.47497
G1 X67.554 Y171.744 E38.61241
G1 X66.458 Y169.469 E38.76208
G1 X65.043 Y166.569 E38.95333
G1 X64.878 Y166.181 E38.97832
G1 X63.759 Y163.143 E39.1702
G1 X63.633 Y162.742 E39.19512
G1 X62.825 Y159.609 E39.38688
G1 X62.741 Y159.195 E39.41192
G1 X62.253 Y155.993 E39.60389
G1 X62.21 Y155.574 E39.62886
G1 X62.047 Y152.343 E39.8206
G1 X62.047 Y151.922 E39.84556
G1 X62.21 Y148.689 E40.03742
G1 X62.253 Y148.269 E40.06244
G1 X62.741 Y145.067 E40.25441
G1 X62.825 Y144.653 E40.27945
G1 X63.633 Y141.52 E40.47122
G1 X63.759 Y141.119 E40.49613
G1 X64.878 Y138.082 E40.68796
G1 X65.043 Y137.695 E40.7129
G1 X66.458 Y134.794 E40.9042
G1 X67.554 Y132.516 E41.05403
G1 X68.318 Y130.329 E41.19134
G1 X68.83 Y128.083 E41.32787
G1 X69.09 Y125.779 E41.46529
G1 X69.09 Y123.482 E41.60144
G1 X68.83 Y121.173 E41.73915
G1 X68.319 Y118.933 E41.87533
G1 X67.554 Y116.744 E42.01276
G1 X66.449 Y114.449 E42.16373
G1 X65.068 Y111.624 E42.35011
G1 X64.905 Y111.244 E42.37461
G1 X63.797 Y108.263 E42.56311
G1 X63.672 Y107.868 E42.58766
G1 X62.865 Y104.794 E42.77603
G1 X62.78 Y104.389 E42.80056
G1 X62.281 Y101.247 E42.98912
G1 X62.236 Y100.836 E43.01362
G1 X62.05 Y97.667 E43.20177
G1 X62.043 Y97.422 E43.2163
G1 X62.043 Y61.931 E45.31983
G1 X62.083 Y61.354 E45.35411
G1 X62.202 Y60.789 E45.38834
G1 X62.398 Y60.245 E45.42261
G1 X62.667 Y59.734 E45.45683
G1 X63.004 Y59.264 E45.49111
M204 S5000
G0 F3600 X63.44 Y59.433
M204 S500
G1 F1500 X63.833 Y59.054 E45.52347
G1 X64.278 Y58.736 E45.55589
G1 X64.765 Y58.487 E45.58831
G1 X65.282 Y58.311 E45.62068
G1 X65.82 Y58.213 E45.65309
G1 X66.223 Y58.191 E45.67701
G1 X250.122 Y58.191 E56.57662
G1 X250.667 Y58.231 E56.60901
G1 X251.201 Y58.35 E56.64144
G1 X251.711 Y58.545 E56.6738
G1 X252.188 Y58.813 E56.70623
G1 X252.62 Y59.148 E56.73863
G1 X252.999 Y59.541 E56.77099
G1 X253.317 Y59.986 E56.8034
G1 X253.566 Y60.473 E56.83582
G1 X253.742 Y60.99 E56.86819
G1 X253.84 Y61.528 E56.9006
G1 X253.862 Y61.931 E56.92453
G1 X253.862 Y88.374 E58.49179
G1 X254.201 Y88.45 E58.51238
G1 X254.711 Y88.645 E58.54474
G1 X255.188 Y88.913 E58.57717
G1 X255.62 Y89.248 E58.60957
G1 X255.999 Y89.641 E58.64193
G1 X256.317 Y90.086 E58.67435
G1 X256.566 Y90.573 E58.70677
G1 X256.742 Y91.09 E58.73914
G1 X256.84 Y91.628 E58.77155
G1 X256.862 Y92.031 E58.79547
G1 X256.862 Y102.231 E59.40002
G1 X256.822 Y102.776 E59.43241
G1 X256.703 Y103.31 E59.46483
G1 X256.508 Y103.82 E59.4972
G1 X256.24 Y104.297 E59.52962
G1 X255.905 Y104.729 E59.56203
G1 X255.512 Y105.108 E59.59439
G1 X255.067 Y105.426 E59.6268
G1 X254.58 Y105.675 E59.65922
G1 X254.063 Y105.851 E59.69159
G1 X253.862 Y105.888 E59.7037
G1 X253.862 Y143.374 E61.92548
G1 X254.201 Y143.45 E61.94607
G1 X254.711 Y143.645 E61.97843
G1 X255.188 Y143.913 E62.01086
G1 X255.62 Y144.248 E62.04326
G1 X255.999 Y144.641 E62.07562
G1 X256.317 Y145.086 E62.10804
G1 X256.566 Y145.573 E62.14046
G1 X256.742 Y146.09 E62.17283
G1 X256.84 Y146.628 E62.20524
G1 X256.862 Y147.031 E62.22916
G1 X256.862 Y157.231 E62.83371
G1 X256.822 Y157.776 E62.8661
G1 X256.703 Y158.31 E62.89853
G1 X256.508 Y158.82 E62.93089
G1 X256.24 Y159.297 E62.96332
G1 X255.905 Y159.729 E62.99572
G1 X255.512 Y160.108 E63.02808
G1 X255.067 Y160.426 E63.06049
G1 X254.58 Y160.675 E63.09291
G1 X254.063 Y160.851 E63.12528
G1 X253.862 Y160.888 E63.13739
G1 X253.862 Y198.374 E65.35917
G1 X254.201 Y198.45 E65.37976
G1 X254.711 Y198.645 E65.41213
G1 X255.188 Y198.913 E65.44455
G1 X255.62 Y199.248 E65.47696
G1 X255.999 Y199.641 E65.50932
G1 X256.317 Y200.086 E65.54173
G1 X256.566 Y200.573 E65.57415
G1 X256.742 Y201.09 E65.60652
G1 X256.84 Y201.628 E65.63893
G1 X256.862 Y202.031 E65.66285
G1 X256.862 Y212.231 E66.2674
G1 X256.822 Y212.776 E66.29979
G1 X256.703 Y213.31 E66.33222
G1 X256.508 Y213.82 E66.36458
G1 X256.24 Y214.297 E66.39701
G1 X255.905 Y214.729 E66.42941
G1 X255.512 Y215.108 E66.46177
G1 X255.067 Y215.426 E66.49419
G1 X254.58 Y215.675 E66.5266
G1 X254.063 Y215.851 E66.55897
G1 X253.862 Y215.888 E66.57109
G1 X253.862 Y242.331 E68.13835
G1 X253.822 Y242.876 E68.17074
G1 X253.703 Y243.41 E68.20317
G1 X253.508 Y243.92 E68.23553
G1 X253.24 Y244.397 E68.26796
G1 X252.905 Y244.829 E68.30036
G1 X252.512 Y245.208 E68.33272
G1 X252.067 Y245.526 E68.36513
G1 X251.58 Y245.775 E68.39755
G1 X251.063 Y245.951 E68.42992
G1 X250.525 Y246.049 E68.46233
G1 X250.122 Y246.071 E68.48625
G1 X66.433 Y246.071 E79.37342
G1 X65.888 Y246.031 E79.40581
G1 X65.354 Y245.912 E79.43824
G1 X64.844 Y245.717 E79.4706
G1 X64.367 Y245.449 E79.50303
G1 X63.935 Y245.114 E79.53543
G1 X63.556 Y244.721 E79.56779
G1 X63.238 Y244.276 E79.6002
G1 X62.989 Y243.789 E79.63262
G1 X62.813 Y243.272 E79.66499
G1 X62.715 Y242.734 E79.6974
G1 X62.693 Y242.353 E79.72002
G1 X62.483 Y207.342 E81.79515
G1 X62.485 Y207.184 E81.80451
G1 X62.584 Y204.461 E81.96601
G1 X62.61 Y204.142 E81.98498
G1 X62.942 Y201.432 E82.1468
G1 X62.994 Y201.119 E82.16561
G1 X63.555 Y198.446 E82.32749
G1 X63.633 Y198.14 E82.3462
G1 X64.417 Y195.525 E82.50801
G1 X64.521 Y195.223 E82.52694
G1 X65.525 Y192.686 E82.68865
G1 X65.655 Y192.395 E82.70754
G1 X66.845 Y190.004 E82.86584
G1 X67.964 Y187.677 E83.01888
G1 X68.74 Y185.457 E83.15826
G1 X69.266 Y183.148 E83.29862
G1 X69.53 Y180.812 E83.43796
G1 X69.53 Y178.449 E83.57801
G1 X69.266 Y176.106 E83.71776
G1 X68.743 Y173.815 E83.85704
G1 X67.96 Y171.575 E83.99768
G1 X66.845 Y169.258 E84.15008
G1 X65.439 Y166.376 E84.34014
G1 X65.29 Y166.029 E84.36252
G1 X64.171 Y162.991 E84.55441
G1 X64.059 Y162.632 E84.5767
G1 X63.251 Y159.499 E84.76846
G1 X63.176 Y159.128 E84.7909
G1 X62.688 Y155.926 E84.98287
G1 X62.65 Y155.551 E85.00521
G1 X62.487 Y152.32 E85.19695
G1 X62.487 Y151.944 E85.21924
G1 X62.65 Y148.711 E85.4111
G1 X62.688 Y148.336 E85.43344
G1 X63.176 Y145.134 E85.62541
G1 X63.251 Y144.763 E85.64785
G1 X64.059 Y141.63 E85.83961
G1 X64.172 Y141.271 E85.86192
G1 X65.291 Y138.234 E86.05375
G1 X65.439 Y137.887 E86.07611
G1 X66.854 Y134.986 E86.26742
G1 X67.961 Y132.684 E86.41881
G1 X68.74 Y130.457 E86.55865
G1 X69.266 Y128.148 E86.69901
G1 X69.53 Y125.812 E86.83834
G1 X69.53 Y123.449 E86.97839
G1 X69.266 Y121.106 E87.11814
G1 X68.743 Y118.815 E87.25742
G1 X67.96 Y116.575 E87.39806
G1 X66.845 Y114.258 E87.55046
G1 X65.463 Y111.43 E87.73702
G1 X65.317 Y111.091 E87.7589
G1 X64.209 Y108.11 E87.94739
G1 X64.098 Y107.757 E87.96932
G1 X63.291 Y104.683 E88.15769
G1 X63.214 Y104.32 E88.17969
G1 X62.715 Y101.178 E88.36824
G1 X62.675 Y100.81 E88.39018
G1 X62.489 Y97.641 E88.57833
G1 X62.483 Y97.422 E88.59132
G1 X62.483 Y61.931 E90.69485
G1 X62.523 Y61.386 E90.72724
G1 X62.642 Y60.852 E90.75967
G1 X62.837 Y60.342 E90.79203
G1 X63.105 Y59.865 E90.82446
G1 X63.44 Y59.433 E90.85686
M204 S5000
G0 F3600 X63.543 Y60.006
M204 S500
G1 F1500 X63.874 Y59.613 E90.88731
G1 X64.262 Y59.277 E90.91773
G1 X64.697 Y59.005 E90.94814
G1 X65.17 Y58.804 E90.9786
G1 X65.667 Y58.678 E91.00899
G1 X66.223 Y58.631 E91.04206
G1 X250.122 Y58.631 E101.94168
G1 X250.634 Y58.671 E101.97211
G1 X251.133 Y58.79 E102.00252
G1 X251.608 Y58.985 E102.03295
G1 X252.047 Y59.251 E102.06337
G1 X252.44 Y59.582 E102.09383
G1 X252.776 Y59.97 E102.12425
G1 X253.048 Y60.405 E102.15466
G1 X253.249 Y60.878 E102.18512
G1 X253.375 Y61.375 E102.21551
G1 X253.422 Y61.931 E102.24858
G1 X253.422 Y88.754 E103.83837
G1 X253.634 Y88.771 E103.85097
G1 X254.133 Y88.89 E103.88138
G1 X254.608 Y89.085 E103.91181
G1 X255.047 Y89.351 E103.94223
G1 X255.44 Y89.682 E103.97269
G1 X255.776 Y90.07 E104.00311
G1 X256.048 Y90.505 E104.03351
G1 X256.249 Y90.978 E104.06398
G1 X256.375 Y91.475 E104.09436
G1 X256.422 Y92.031 E104.12744
G1 X256.422 Y102.231 E104.73198
G1 X256.382 Y102.743 E104.76242
G1 X256.263 Y103.242 E104.79283
G1 X256.068 Y103.717 E104.82326
G1 X255.802 Y104.156 E104.85368
G1 X255.471 Y104.549 E104.88414
G1 X255.083 Y104.885 E104.91456
G1 X254.648 Y105.157 E104.94497
G1 X254.175 Y105.358 E104.97543
G1 X253.678 Y105.484 E105.00582
G1 X253.422 Y105.506 E105.02105
G1 X253.422 Y143.754 E107.28799
G1 X253.634 Y143.771 E107.30059
G1 X254.133 Y143.89 E107.331
G1 X254.608 Y144.085 E107.36143
G1 X255.047 Y144.351 E107.39185
G1 X255.44 Y144.682 E107.42231
G1 X255.776 Y145.07 E107.45273
G1 X256.048 Y145.505 E107.48314
G1 X256.249 Y145.978 E107.5136
G1 X256.375 Y146.475 E107.54399
G1 X256.422 Y147.031 E107.57706
G1 X256.422 Y157.231 E108.18161
G1 X256.382 Y157.743 E108.21205
G1 X256.263 Y158.242 E108.24245
G1 X256.068 Y158.717 E108.27288
G1 X255.802 Y159.156 E108.30331
G1 X255.471 Y159.549 E108.33376
G1 X255.083 Y159.885 E108.36418
G1 X254.648 Y160.157 E108.39459
G1 X254.175 Y160.358 E108.42505
G1 X253.678 Y160.484 E108.45544
G1 X253.422 Y160.506 E108.47067
G1 X253.422 Y198.754 E110.73761
G1 X253.634 Y198.771 E110.75021
G1 X254.133 Y198.89 E110.78062
G1 X254.608 Y199.085 E110.81105
G1 X255.047 Y199.351 E110.84148
G1 X255.44 Y199.682 E110.87193
G1 X255.776 Y200.07 E110.90235
G1 X256.048 Y200.505 E110.93276
G1 X256.249 Y200.978 E110.96322
G1 X256.375 Y201.475 E110.99361
G1 X256.422 Y202.031 E111.02668
G1 X256.422 Y212.231 E111.63123
G1 X256.382 Y212.743 E111.66167
G1 X256.263 Y213.242 E111.69207
G1 X256.068 Y213.717 E111.72251
G1 X255.802 Y214.156 E111.75293
G1 X255.471 Y214.549 E111.78338
G1 X255.083 Y214.885 E111.8138
G1 X254.648 Y215.157 E111.84421
G1 X254.175 Y215.358 E111.87467
G1 X253.678 Y215.484 E111.90506
G1 X253.422 Y215.506 E111.92029
G1 X253.422 Y242.331 E113.5102
G1 X253.382 Y242.843 E113.54063
G1 X253.263 Y243.342 E113.57104
G1 X253.068 Y243.817 E113.60147
G1 X252.802 Y244.256 E113.63189
G1 X252.471 Y244.649 E113.66235
G1 X252.083 Y244.985 E113.69277
G1 X251.648 Y245.257 E113.72318
G1 X251.175 Y245.458 E113.75364
G1 X250.678 Y245.584 E113.78403
G1 X250.122 Y245.631 E113.8171
G1 X66.433 Y245.631 E124.70426
G1 X65.921 Y245.591 E124.7347
G1 X65.422 Y245.472 E124.76511
G1 X64.947 Y245.277 E124.79554
G1 X64.508 Y245.011 E124.82596
G1 X64.115 Y244.68 E124.85642
G1 X63.779 Y244.292 E124.88684
G1 X63.507 Y243.857 E124.91725
G1 X63.306 Y243.384 E124.94771
G1 X63.18 Y242.887 E124.9781
G1 X63.133 Y242.351 E125.00999
G1 X62.923 Y207.34 E127.08511
G1 X62.925 Y207.2 E127.09341
G1 X63.024 Y204.477 E127.25491
G1 X63.046 Y204.196 E127.27161
G1 X63.378 Y201.486 E127.43343
G1 X63.424 Y201.209 E127.45008
G1 X63.985 Y198.536 E127.61196
G1 X64.054 Y198.266 E127.62847
G1 X64.838 Y195.651 E127.79028
G1 X64.931 Y195.385 E127.80698
G1 X65.935 Y192.848 E127.96869
G1 X66.049 Y192.592 E127.9853
G1 X67.242 Y190.195 E128.14399
G1 X68.369 Y187.851 E128.29815
G1 X69.164 Y185.578 E128.44087
G1 X69.7 Y183.224 E128.58396
G1 X69.97 Y180.834 E128.72652
G1 X69.97 Y178.427 E128.86918
G1 X69.7 Y176.03 E129.01215
G1 X69.165 Y173.689 E129.15447
G1 X68.371 Y171.414 E129.29729
G1 X67.241 Y169.067 E129.45168
G1 X65.834 Y166.183 E129.64187
G1 X65.703 Y165.877 E129.6616
G1 X64.584 Y162.839 E129.85348
G1 X64.486 Y162.522 E129.87315
G1 X63.678 Y159.389 E130.06492
G1 X63.611 Y159.062 E130.0847
G1 X63.123 Y155.86 E130.27667
G1 X63.089 Y155.529 E130.29639
G1 X62.926 Y152.298 E130.48814
G1 X62.926 Y151.966 E130.50781
G1 X63.089 Y148.733 E130.69968
G1 X63.123 Y148.402 E130.7194
G1 X63.611 Y145.2 E130.91137
G1 X63.678 Y144.873 E130.93115
G1 X64.486 Y141.74 E131.12292
G1 X64.585 Y141.423 E131.14261
G1 X65.704 Y138.386 E131.33444
G1 X65.834 Y138.08 E131.35414
G1 X67.249 Y135.179 E131.54545
G1 X68.371 Y132.847 E131.69883
G1 X69.164 Y130.578 E131.84129
G1 X69.7 Y128.224 E131.98438
G1 X69.97 Y125.834 E132.12693
G1 X69.97 Y123.427 E132.2696
G1 X69.7 Y121.03 E132.41256
G1 X69.165 Y118.689 E132.55489
G1 X68.371 Y116.414 E132.69771
G1 X67.241 Y114.067 E132.85209
G1 X65.858 Y111.237 E133.03879
G1 X65.73 Y110.938 E133.05806
G1 X64.622 Y107.957 E133.24655
G1 X64.523 Y107.645 E133.26596
G1 X63.716 Y104.571 E133.45432
G1 X63.649 Y104.251 E133.4737
G1 X63.15 Y101.109 E133.66226
