;FLAVOR:Marlin
;TIME:8907
;Filament used: 6.74766m
;Layer height: 0.2
;MINX:86.627
;MINY:59.468
;MINZ:0.3
;MAXX:232.218
;MAXY:245.359
;MAXZ:7.8
;Generated with Cura_SteamEngine 4.9.1
M140 S85
M105
M190 S85
M104 S235
M105
M109 S235
M82 ;absolute extrusion mode
G28 ;Home
G1 Z15.0 F6000 ;Move the platform down 15mm
;Prime the extruder
G92 E0
G1 F200 E3
G92 E0
G92 E0
G92 E0
G1 F2100 E-1.5
;LAYER_COUNT:13
;LAYER:0
M107
M204 S5000
M205 X5 Y5
G1 F600 Z0.8
G0 F3600 X91.661 Y64.451 Z0.8
M204 S500
;TYPE:SKIRT
G1 F600 Z0.3
G1 F2100 E0
G1 F1500 X91.998 Y63.981 E0.03618
G1 X92.397 Y63.563 E0.07233
G1 X92.849 Y63.203 E0.10849
G1 X93.347 Y62.91 E0.14463
G1 X93.881 Y62.687 E0.18084
G1 X94.44 Y62.541 E0.21698
G1 X95.217 Y62.468 E0.26581
G1 X122.22 Y62.468 E1.95518
G1 X122.402 Y61.962 E1.98882
G1 X122.671 Y61.451 E2.02495
G1 X123.008 Y60.981 E2.06113
G1 X123.407 Y60.563 E2.09728
G1 X123.859 Y60.203 E2.13343
G1 X124.357 Y59.91 E2.16958
G1 X124.89 Y59.687 E2.20573
G1 X125.45 Y59.541 E2.24194
G1 X126.227 Y59.468 E2.29076
G1 X136.227 Y59.468 E2.91638
G1 X136.804 Y59.508 E2.95257
G1 X137.369 Y59.627 E2.98869
G1 X137.913 Y59.823 E3.02487
G1 X138.424 Y60.092 E3.061
G1 X138.894 Y60.429 E3.09718
G1 X139.312 Y60.828 E3.13333
G1 X139.672 Y61.28 E3.16948
G1 X139.965 Y61.778 E3.20563
G1 X140.188 Y62.311 E3.24178
G1 X140.229 Y62.468 E3.25193
G1 X183.02 Y62.468 E5.92903
G1 X183.202 Y61.962 E5.96267
G1 X183.471 Y61.451 E5.9988
G1 X183.808 Y60.981 E6.03499
G1 X184.207 Y60.563 E6.07114
G1 X184.659 Y60.203 E6.10729
G1 X185.157 Y59.91 E6.14344
G1 X185.69 Y59.687 E6.17958
G1 X186.25 Y59.541 E6.21579
G1 X187.027 Y59.468 E6.26461
G1 X197.027 Y59.468 E6.89024
G1 X197.604 Y59.508 E6.92642
G1 X198.169 Y59.627 E6.96255
G1 X198.713 Y59.823 E6.99872
G1 X199.224 Y60.092 E7.03485
G1 X199.694 Y60.429 E7.07103
G1 X200.112 Y60.828 E7.10718
G1 X200.472 Y61.28 E7.14334
G1 X200.765 Y61.778 E7.17948
G1 X200.988 Y62.311 E7.21563
G1 X201.029 Y62.468 E7.22578
G1 X228.038 Y62.468 E8.91553
G1 X228.615 Y62.508 E8.95171
G1 X229.18 Y62.627 E8.98784
G1 X229.724 Y62.823 E9.02401
G1 X230.235 Y63.092 E9.06014
G1 X230.705 Y63.429 E9.09632
G1 X231.123 Y63.828 E9.13247
G1 X231.483 Y64.28 E9.16863
G1 X231.776 Y64.778 E9.20477
G1 X231.999 Y65.311 E9.24092
G1 X232.145 Y65.871 E9.27713
G1 X232.218 Y66.648 E9.32595
G1 X232.217 Y127.048 E13.10472
G1 X232.177 Y127.625 E13.1409
G1 X232.058 Y128.19 E13.17702
G1 X231.862 Y128.734 E13.2132
G1 X231.593 Y129.245 E13.24933
G1 X231.256 Y129.715 E13.28551
G1 X230.857 Y130.133 E13.32166
G1 X230.405 Y130.493 E13.35781
G1 X229.907 Y130.786 E13.39396
G1 X229.373 Y131.009 E13.43017
G1 X228.814 Y131.155 E13.46631
G1 X228.037 Y131.228 E13.51514
G1 X201.034 Y131.228 E15.20451
G1 X200.852 Y131.734 E15.23815
G1 X200.583 Y132.245 E15.27428
G1 X200.246 Y132.715 E15.31046
G1 X199.847 Y133.133 E15.34661
G1 X199.395 Y133.493 E15.38276
G1 X198.897 Y133.786 E15.41891
G1 X198.364 Y134.009 E15.45506
G1 X197.804 Y134.155 E15.49126
G1 X197.027 Y134.228 E15.54009
G1 X187.027 Y134.228 E16.16571
G1 X186.45 Y134.188 E16.2019
G1 X185.885 Y134.069 E16.23802
G1 X185.341 Y133.873 E16.2742
G1 X184.83 Y133.604 E16.31032
G1 X184.36 Y133.267 E16.34651
G1 X183.942 Y132.868 E16.38266
G1 X183.582 Y132.416 E16.41881
G1 X183.289 Y131.918 E16.45496
G1 X183.066 Y131.385 E16.49111
G1 X183.025 Y131.228 E16.50126
G1 X140.234 Y131.228 E19.17836
G1 X140.052 Y131.734 E19.212
G1 X139.783 Y132.245 E19.24813
G1 X139.446 Y132.715 E19.28431
G1 X139.047 Y133.133 E19.32047
G1 X138.595 Y133.493 E19.35662
G1 X138.097 Y133.786 E19.39277
G1 X137.564 Y134.009 E19.42891
G1 X137.004 Y134.155 E19.46512
G1 X136.227 Y134.228 E19.51394
G1 X126.227 Y134.228 E20.13957
G1 X125.65 Y134.188 E20.17575
G1 X125.085 Y134.069 E20.21187
G1 X124.541 Y133.873 E20.24805
G1 X124.03 Y133.604 E20.28418
G1 X123.56 Y133.267 E20.32036
G1 X123.142 Y132.868 E20.35651
G1 X122.782 Y132.416 E20.39266
G1 X122.489 Y131.918 E20.42881
G1 X122.266 Y131.385 E20.46496
G1 X122.225 Y131.228 E20.47511
G1 X95.216 Y131.228 E22.16486
G1 X94.639 Y131.188 E22.20104
G1 X94.074 Y131.069 E22.23716
G1 X93.53 Y130.873 E22.27334
G1 X93.019 Y130.604 E22.30947
G1 X92.549 Y130.267 E22.34565
G1 X92.131 Y129.868 E22.3818
G1 X91.771 Y129.416 E22.41795
G1 X91.478 Y128.918 E22.4541
G1 X91.255 Y128.385 E22.49025
G1 X91.109 Y127.825 E22.52646
G1 X91.036 Y127.048 E22.57528
G1 X91.037 Y66.648 E26.35404
G1 X91.077 Y66.071 E26.39023
G1 X91.196 Y65.506 E26.42635
G1 X91.392 Y64.962 E26.46253
G1 X91.661 Y64.451 E26.49866
M204 S5000
G0 F3600 X92.099 Y64.582
M204 S500
G1 F1500 X92.434 Y64.15 E26.53286
G1 X92.828 Y63.771 E26.56706
G1 X93.272 Y63.453 E26.60123
G1 X93.759 Y63.204 E26.63545
G1 X94.277 Y63.028 E26.66967
G1 X94.814 Y62.93 E26.70382
G1 X95.217 Y62.908 E26.72907
G1 X122.57 Y62.908 E28.44034
G1 X122.646 Y62.569 E28.46208
G1 X122.841 Y62.059 E28.49624
G1 X123.109 Y61.582 E28.53047
G1 X123.444 Y61.15 E28.56467
G1 X123.837 Y60.771 E28.59882
G1 X124.282 Y60.453 E28.63304
G1 X124.769 Y60.204 E28.66726
G1 X125.286 Y60.028 E28.70143
G1 X125.824 Y59.93 E28.73564
G1 X126.227 Y59.908 E28.76089
G1 X136.227 Y59.908 E29.38652
G1 X136.772 Y59.948 E29.4207
G1 X137.306 Y60.067 E29.45493
G1 X137.816 Y60.262 E29.48909
G1 X138.293 Y60.53 E29.52332
G1 X138.725 Y60.865 E29.55752
G1 X139.104 Y61.258 E29.59168
G1 X139.422 Y61.703 E29.6259
G1 X139.671 Y62.19 E29.66012
G1 X139.847 Y62.707 E29.69428
G1 X139.884 Y62.908 E29.70707
G1 X183.37 Y62.908 E32.42766
G1 X183.446 Y62.569 E32.44939
G1 X183.641 Y62.059 E32.48355
G1 X183.909 Y61.582 E32.51778
G1 X184.244 Y61.15 E32.55198
G1 X184.637 Y60.771 E32.58614
G1 X185.082 Y60.453 E32.62036
G1 X185.569 Y60.204 E32.65458
G1 X186.086 Y60.028 E32.68874
G1 X186.624 Y59.93 E32.72296
G1 X187.027 Y59.908 E32.74821
G1 X197.027 Y59.908 E33.37383
G1 X197.572 Y59.948 E33.40802
G1 X198.106 Y60.067 E33.44224
G1 X198.616 Y60.262 E33.4764
G1 X199.093 Y60.53 E33.51063
G1 X199.525 Y60.865 E33.54483
G1 X199.904 Y61.258 E33.57899
G1 X200.222 Y61.703 E33.61321
G1 X200.471 Y62.19 E33.64743
G1 X200.647 Y62.707 E33.6816
G1 X200.684 Y62.908 E33.69438
G1 X228.038 Y62.908 E35.40571
G1 X228.583 Y62.948 E35.4399
G1 X229.117 Y63.067 E35.47413
G1 X229.627 Y63.262 E35.50829
G1 X230.104 Y63.53 E35.54252
G1 X230.536 Y63.865 E35.57672
G1 X230.915 Y64.258 E35.61088
G1 X231.233 Y64.703 E35.6451
G1 X231.482 Y65.19 E35.67931
G1 X231.658 Y65.707 E35.71348
G1 X231.756 Y66.245 E35.74769
G1 X231.778 Y66.648 E35.77294
G1 X231.777 Y127.048 E39.55171
G1 X231.737 Y127.593 E39.5859
G1 X231.618 Y128.127 E39.62012
G1 X231.423 Y128.637 E39.65428
G1 X231.155 Y129.114 E39.68851
G1 X230.82 Y129.546 E39.72271
G1 X230.426 Y129.925 E39.75692
G1 X229.982 Y130.243 E39.79108
G1 X229.495 Y130.492 E39.8253
G1 X228.977 Y130.668 E39.85953
G1 X228.44 Y130.766 E39.89368
G1 X228.037 Y130.788 E39.91893
G1 X200.684 Y130.788 E41.6302
G1 X200.608 Y131.127 E41.65193
G1 X200.413 Y131.637 E41.68609
G1 X200.145 Y132.114 E41.72032
G1 X199.81 Y132.546 E41.75452
G1 X199.417 Y132.925 E41.78868
G1 X198.972 Y133.243 E41.8229
G1 X198.485 Y133.492 E41.85712
G1 X197.968 Y133.668 E41.89129
G1 X197.43 Y133.766 E41.9255
G1 X197.027 Y133.788 E41.95075
G1 X187.027 Y133.788 E42.57637
G1 X186.482 Y133.748 E42.61056
G1 X185.948 Y133.629 E42.64479
G1 X185.438 Y133.434 E42.67895
G1 X184.961 Y133.166 E42.71318
G1 X184.529 Y132.831 E42.74738
G1 X184.15 Y132.438 E42.78154
G1 X183.832 Y131.993 E42.81575
G1 X183.583 Y131.506 E42.84997
G1 X183.407 Y130.989 E42.88414
G1 X183.37 Y130.788 E42.89693
G1 X139.884 Y130.788 E45.61751
G1 X139.808 Y131.127 E45.63925
G1 X139.613 Y131.637 E45.67341
G1 X139.345 Y132.114 E45.70764
G1 X139.01 Y132.546 E45.74184
G1 X138.617 Y132.925 E45.776
G1 X138.172 Y133.243 E45.81021
G1 X137.685 Y133.492 E45.84443
G1 X137.168 Y133.668 E45.8786
G1 X136.63 Y133.766 E45.91281
G1 X136.227 Y133.788 E45.93806
G1 X126.227 Y133.788 E46.56369
G1 X125.682 Y133.748 E46.59787
G1 X125.148 Y133.629 E46.6321
G1 X124.638 Y133.434 E46.66626
G1 X124.161 Y133.166 E46.70049
G1 X123.729 Y132.831 E46.73469
G1 X123.35 Y132.438 E46.76885
G1 X123.032 Y131.993 E46.80307
G1 X122.783 Y131.506 E46.83729
G1 X122.607 Y130.989 E46.87146
G1 X122.57 Y130.788 E46.88424
G1 X95.216 Y130.788 E48.59557
G1 X94.671 Y130.748 E48.62976
G1 X94.137 Y130.629 E48.66399
G1 X93.627 Y130.434 E48.69815
G1 X93.15 Y130.166 E48.73238
G1 X92.718 Y129.831 E48.76658
G1 X92.339 Y129.438 E48.80073
G1 X92.021 Y128.993 E48.83495
G1 X91.772 Y128.506 E48.86917
G1 X91.596 Y127.989 E48.90334
G1 X91.498 Y127.451 E48.93755
G1 X91.476 Y127.048 E48.9628
G1 X91.477 Y66.648 E52.74157
G1 X91.517 Y66.103 E52.77575
G1 X91.636 Y65.569 E52.80998
G1 X91.831 Y65.059 E52.84414
G1 X92.099 Y64.582 E52.87837
M204 S5000
G0 F3600 X92.537 Y64.723
M204 S500
G1 F1500 X92.868 Y64.33 E52.91052
G1 X93.256 Y63.994 E52.94263
G1 X93.691 Y63.722 E52.97473
G1 X94.164 Y63.521 E53.00688
G1 X94.662 Y63.395 E53.03902
G1 X95.217 Y63.348 E53.07386
G1 X122.95 Y63.348 E54.8089
G1 X122.967 Y63.136 E54.82221
G1 X123.086 Y62.637 E54.8543
G1 X123.281 Y62.162 E54.88643
G1 X123.547 Y61.723 E54.91854
G1 X123.878 Y61.33 E54.95069
G1 X124.266 Y60.994 E54.9828
G1 X124.701 Y60.722 E55.01489
G1 X125.174 Y60.521 E55.04705
G1 X125.671 Y60.395 E55.07912
G1 X126.227 Y60.348 E55.11403
G1 X136.227 Y60.348 E55.73966
G1 X136.739 Y60.388 E55.77178
G1 X137.238 Y60.507 E55.80388
G1 X137.713 Y60.702 E55.836
G1 X138.152 Y60.968 E55.86812
G1 X138.545 Y61.299 E55.90026
G1 X138.881 Y61.687 E55.93237
G1 X139.153 Y62.122 E55.96447
G1 X139.354 Y62.595 E55.99662
G1 X139.48 Y63.092 E56.0287
G1 X139.502 Y63.348 E56.04477
G1 X183.75 Y63.348 E58.81303
G1 X183.767 Y63.136 E58.82634
G1 X183.886 Y62.637 E58.85843
G1 X184.081 Y62.162 E58.89056
G1 X184.347 Y61.723 E58.92267
G1 X184.678 Y61.33 E58.95481
G1 X185.066 Y60.994 E58.98693
G1 X185.501 Y60.722 E59.01902
G1 X185.974 Y60.521 E59.05118
G1 X186.471 Y60.395 E59.08325
G1 X187.027 Y60.348 E59.11816
G1 X197.027 Y60.348 E59.74378
G1 X197.539 Y60.388 E59.77591
G1 X198.038 Y60.507 E59.80801
G1 X198.513 Y60.702 E59.84013
G1 X198.952 Y60.968 E59.87224
G1 X199.345 Y61.299 E59.90439
G1 X199.681 Y61.687 E59.9365
G1 X199.953 Y62.122 E59.9686
G1 X200.154 Y62.595 E60.00075
G1 X200.28 Y63.092 E60.03283
G1 X200.302 Y63.348 E60.0489
G1 X228.038 Y63.348 E61.78413
G1 X228.55 Y63.388 E61.81626
G1 X229.049 Y63.507 E61.84836
G1 X229.524 Y63.702 E61.88048
G1 X229.963 Y63.968 E61.91259
G1 X230.356 Y64.299 E61.94474
G1 X230.692 Y64.687 E61.97685
G1 X230.964 Y65.122 E62.00895
G1 X231.165 Y65.595 E62.0411
G1 X231.291 Y66.092 E62.07318
G1 X231.338 Y66.648 E62.10809
G1 X231.337 Y127.048 E65.88685
G1 X231.297 Y127.56 E65.91898
G1 X231.178 Y128.059 E65.95107
G1 X230.983 Y128.534 E65.9832
G1 X230.717 Y128.973 E66.01531
G1 X230.386 Y129.366 E66.04746
G1 X229.998 Y129.702 E66.07957
G1 X229.563 Y129.974 E66.11166
G1 X229.09 Y130.175 E66.14382
G1 X228.592 Y130.301 E66.17595
G1 X228.037 Y130.348 E66.2108
G1 X200.304 Y130.348 E67.94584
G1 X200.287 Y130.56 E67.95915
G1 X200.168 Y131.059 E67.99124
G1 X199.973 Y131.534 E68.02336
G1 X199.707 Y131.973 E68.05548
G1 X199.376 Y132.366 E68.08762
G1 X198.988 Y132.702 E68.11973
G1 X198.553 Y132.974 E68.15183
G1 X198.08 Y133.175 E68.18398
G1 X197.583 Y133.301 E68.21606
G1 X197.027 Y133.348 E68.25097
G1 X187.027 Y133.348 E68.87659
G1 X186.515 Y133.308 E68.90872
G1 X186.016 Y133.189 E68.94082
G1 X185.541 Y132.994 E68.97294
G1 X185.102 Y132.728 E69.00505
G1 X184.709 Y132.397 E69.0372
G1 X184.373 Y132.009 E69.06931
G1 X184.101 Y131.574 E69.10141
G1 X183.9 Y131.101 E69.13356
G1 X183.774 Y130.604 E69.16564
G1 X183.752 Y130.348 E69.18171
G1 X139.504 Y130.348 E71.94997
G1 X139.487 Y130.56 E71.96328
G1 X139.368 Y131.059 E71.99537
G1 X139.173 Y131.534 E72.02749
G1 X138.907 Y131.973 E72.05961
G1 X138.576 Y132.366 E72.09175
G1 X138.188 Y132.702 E72.12386
G1 X137.753 Y132.974 E72.15596
G1 X137.28 Y133.175 E72.18811
G1 X136.783 Y133.301 E72.22019
G1 X136.227 Y133.348 E72.2551
G1 X126.227 Y133.348 E72.88072
G1 X125.715 Y133.308 E72.91285
G1 X125.216 Y133.189 E72.94495
G1 X124.741 Y132.994 E72.97707
G1 X124.302 Y132.728 E73.00918
G1 X123.909 Y132.397 E73.04133
G1 X123.573 Y132.009 E73.07344
G1 X123.301 Y131.574 E73.10554
G1 X123.1 Y131.101 E73.13769
G1 X122.974 Y130.604 E73.16977
G1 X122.952 Y130.348 E73.18584
G1 X95.216 Y130.348 E74.92107
G1 X94.704 Y130.308 E74.9532
G1 X94.205 Y130.189 E74.98529
G1 X93.73 Y129.994 E75.01742
G1 X93.291 Y129.728 E75.04953
G1 X92.898 Y129.397 E75.08168
G1 X92.562 Y129.009 E75.11379
G1 X92.29 Y128.574 E75.14588
G1 X92.089 Y128.101 E75.17804
G1 X91.963 Y127.604 E75.21011
G1 X91.916 Y127.048 E75.24502
G1 X91.917 Y66.648 E79.02379
G1 X91.957 Y66.136 E79.05592
G1 X92.076 Y65.637 E79.08801
G1 X92.271 Y65.162 E79.12013
G1 X92.537 Y64.723 E79.15225
M204 S5000
G0 F3600 X92.71 Y65.272
M204 S500
G1 F1500 X92.974 Y64.874 E79.18213
G1 X93.301 Y64.525 E79.21205
G1 X93.681 Y64.236 E79.24192
G1 X94.104 Y64.013 E79.27183
G1 X94.558 Y63.865 E79.30171
G1 X95.217 Y63.788 E79.34322
G1 X123.367 Y63.788 E81.10434
G1 X123.407 Y63.172 E81.14296
G1 X123.526 Y62.709 E81.17287
G1 X123.72 Y62.272 E81.20278
G1 X123.984 Y61.874 E81.23266
G1 X124.311 Y61.525 E81.26259
G1 X124.691 Y61.236 E81.29245
G1 X125.114 Y61.013 E81.32237
G1 X125.568 Y60.865 E81.35224
G1 X126.227 Y60.788 E81.39375
G1 X136.227 Y60.788 E82.01938
G1 X136.703 Y60.828 E82.04926
G1 X137.166 Y60.947 E82.07917
G1 X137.603 Y61.141 E82.10908
G1 X138.001 Y61.405 E82.13896
G1 X138.35 Y61.732 E82.16888
G1 X138.639 Y62.112 E82.19875
G1 X138.862 Y62.535 E82.22867
G1 X139.01 Y62.989 E82.25854
G1 X139.087 Y63.648 E82.30005
G1 X139.087 Y63.788 E82.30881
G1 X184.167 Y63.788 E85.12912
G1 X184.207 Y63.172 E85.16774
G1 X184.326 Y62.709 E85.19764
G1 X184.52 Y62.272 E85.22756
G1 X184.784 Y61.874 E85.25744
G1 X185.111 Y61.525 E85.28736
G1 X185.491 Y61.236 E85.31723
G1 X185.914 Y61.013 E85.34714
G1 X186.368 Y60.865 E85.37702
G1 X187.027 Y60.788 E85.41853
G1 X197.027 Y60.788 E86.04415
G1 X197.503 Y60.828 E86.07403
G1 X197.966 Y60.947 E86.10394
G1 X198.403 Y61.141 E86.13385
G1 X198.801 Y61.405 E86.16373
G1 X199.15 Y61.732 E86.19365
G1 X199.439 Y62.112 E86.22352
G1 X199.662 Y62.535 E86.25344
G1 X199.81 Y62.989 E86.28331
G1 X199.887 Y63.648 E86.32482
G1 X199.887 Y63.788 E86.33358
G1 X228.038 Y63.788 E88.09477
G1 X228.514 Y63.828 E88.12466
G1 X228.977 Y63.947 E88.15456
G1 X229.414 Y64.141 E88.18448
G1 X229.812 Y64.405 E88.21436
G1 X230.161 Y64.732 E88.24428
G1 X230.45 Y65.112 E88.27415
G1 X230.673 Y65.535 E88.30406
G1 X230.821 Y65.989 E88.33394
G1 X230.898 Y66.648 E88.37544
G1 X230.897 Y127.048 E92.15421
G1 X230.857 Y127.524 E92.18409
G1 X230.738 Y127.987 E92.214
G1 X230.544 Y128.424 E92.24391
G1 X230.28 Y128.822 E92.27379
G1 X229.953 Y129.171 E92.30371
G1 X229.573 Y129.46 E92.33358
G1 X229.15 Y129.683 E92.3635
G1 X228.696 Y129.831 E92.39337
G1 X228.037 Y129.908 E92.43488
G1 X199.887 Y129.908 E94.19601
G1 X199.847 Y130.524 E94.23463
G1 X199.728 Y130.987 E94.26454
G1 X199.534 Y131.424 E94.29445
G1 X199.27 Y131.822 E94.32433
G1 X198.943 Y132.171 E94.35425
G1 X198.563 Y132.46 E94.38412
G1 X198.14 Y132.683 E94.41404
G1 X197.686 Y132.831 E94.44391
G1 X197.027 Y132.908 E94.48542
G1 X187.027 Y132.908 E95.11104
G1 X186.551 Y132.868 E95.14093
G1 X186.088 Y132.749 E95.17083
G1 X185.651 Y132.555 E95.20075
G1 X185.253 Y132.291 E95.23063
G1 X184.904 Y131.964 E95.26055
G1 X184.615 Y131.584 E95.29042
G1 X184.392 Y131.161 E95.32033
G1 X184.244 Y130.707 E95.35021
G1 X184.167 Y130.048 E95.39172
G1 X184.167 Y129.908 E95.40047
G1 X139.087 Y129.908 E98.22078
G1 X139.047 Y130.524 E98.2594
G1 X138.928 Y130.987 E98.28931
G1 X138.734 Y131.424 E98.31922
G1 X138.47 Y131.822 E98.3491
G1 X138.143 Y132.171 E98.37902
G1 X137.763 Y132.46 E98.40889
G1 X137.34 Y132.683 E98.43881
G1 X136.886 Y132.831 E98.46868
G1 X136.227 Y132.908 E98.51019
G1 X126.227 Y132.908 E99.13581
G1 X125.751 Y132.868 E99.1657
G1 X125.288 Y132.749 E99.19561
G1 X124.851 Y132.555 E99.22552
G1 X124.453 Y132.291 E99.2554
G1 X124.104 Y131.964 E99.28532
G1 X123.815 Y131.584 E99.31519
G1 X123.592 Y131.161 E99.3451
G1 X123.444 Y130.707 E99.37498
G1 X123.367 Y130.048 E99.41649
G1 X123.367 Y129.908 E99.42525
