;FLAVOR:Marlin
;TIME:5329
;Filament used: 3.87215m
;Layer height: 0.2
;MINX:69.402
;MINY:87.989
;MINZ:0.3
;MAXX:250.58
;MAXY:222.027
;MAXZ:2.2
;Generated with Cura_SteamEngine 4.8.0
M140 S85
M105
M190 S85
M104 S240
M105
M109 S240
M82 ;absolute extrusion mode
G28 ;Home
G1 Z15.0 F6000 ;Move the platform down 15mm
;Prime the extruder
G92 E0
G1 F200 E3
G92 E0
G92 E0
G92 E0
G1 F2400 E-3
;LAYER_COUNT:8
;LAYER:0
M107
M204 S5000
M205 X5 Y5
G1 F600 Z0.8
G0 F3000 X74.497 Y125.294 Z0.8
M204 S500
;TYPE:SKIRT
G1 F600 Z0.3
G1 F2400 E0
G1 F1200 X75.274 Y124.833 E0.05409
G1 X75.987 Y124.486 E0.10156
G1 X76.219 Y124.384 E0.11673
G1 X77.061 Y124.057 E0.17081
G1 X77.928 Y123.806 E0.22485
G1 X78.821 Y123.632 E0.27932
G1 X79.123 Y123.587 E0.2976
G1 X80.276 Y123.482 E0.36691
G1 X80.857 Y123.468 E0.4017
G1 X87.581 Y123.467 E0.80426
G1 X90.188 Y123.43 E0.96035
G1 X92.753 Y123.321 E1.11405
G1 X95.26 Y123.143 E1.26452
G1 X97.801 Y122.892 E1.41738
G1 X100.309 Y122.571 E1.56876
G1 X102.814 Y122.177 E1.72057
G1 X105.301 Y121.715 E1.87201
G1 X107.815 Y121.174 E2.02597
G1 X110.261 Y120.575 E2.17673
G1 X112.705 Y119.902 E2.32849
G1 X115.14 Y119.157 E2.48094
G1 X117.525 Y118.352 E2.63164
G1 X121.003 Y117.045 E2.85408
G1 X121.94 Y116.673 E2.91444
G1 X122.793 Y116.377 E2.96849
G1 X123.669 Y116.158 E3.02255
G1 X124.165 Y116.07 E3.05271
G1 X124.473 Y116.023 E3.07136
G1 X125.662 Y115.912 E3.14286
G1 X126.244 Y115.898 E3.17771
G1 X142.669 Y115.897 E4.16105
G1 X145.276 Y115.86 E4.31714
G1 X147.841 Y115.751 E4.47084
G1 X150.348 Y115.573 E4.62131
G1 X152.889 Y115.322 E4.77417
G1 X155.397 Y115.001 E4.92555
G1 X157.902 Y114.607 E5.07736
G1 X160.389 Y114.145 E5.2288
G1 X162.903 Y113.604 E5.38275
G1 X165.349 Y113.005 E5.53352
G1 X167.793 Y112.332 E5.68528
G1 X170.228 Y111.587 E5.83773
G1 X172.63 Y110.776 E5.98951
G1 X175.043 Y109.886 E6.14349
G1 X177.35 Y108.96 E6.29231
G1 X179.721 Y107.928 E6.44712
G1 X182.027 Y106.847 E6.5996
G1 X184.269 Y105.718 E6.74988
G1 X186.527 Y104.498 E6.90353
G1 X188.695 Y103.248 E7.05335
G1 X190.879 Y101.905 E7.20685
G1 X192.989 Y100.523 E7.35785
G1 X195.096 Y99.056 E7.51156
G1 X197.122 Y97.559 E7.66237
G1 X199.119 Y95.994 E7.81427
G1 X201.097 Y94.351 E7.96821
G1 X202.968 Y92.705 E8.1174
G1 X203.816 Y91.914 E8.18683
G1 X204.869 Y90.949 E8.27234
G1 X205.562 Y90.368 E8.32648
G1 X205.745 Y90.228 E8.34027
G1 X206.486 Y89.711 E8.39437
G1 X207.27 Y89.262 E8.44845
G1 X207.83 Y88.995 E8.4856
G1 X208.066 Y88.891 E8.50104
G1 X208.907 Y88.564 E8.55506
G1 X209.775 Y88.312 E8.60917
G1 X210.657 Y88.139 E8.66298
G1 X210.922 Y88.099 E8.67902
G1 X211.82 Y88.004 E8.73309
G1 X212.723 Y87.989 E8.78715
G1 X213.593 Y88.05 E8.83937
G1 X213.84 Y88.078 E8.85425
G1 X214.732 Y88.219 E8.90832
G1 X215.608 Y88.439 E8.96239
G1 X216.433 Y88.724 E9.01464
G1 X216.679 Y88.821 E9.03047
G1 X217.503 Y89.189 E9.0845
G1 X218.292 Y89.629 E9.13859
G1 X219.051 Y90.146 E9.19357
G1 X219.282 Y90.319 E9.21085
G1 X220.104 Y91.004 E9.2749
G1 X220.559 Y91.436 E9.31247
G1 X246.836 Y117.71 E11.53712
G1 X247.41 Y118.3 E11.5864
G1 X248.181 Y119.192 E11.65699
G1 X248.33 Y119.386 E11.67163
G1 X248.848 Y120.126 E11.72571
G1 X249.299 Y120.909 E11.77981
G1 X249.583 Y121.504 E11.81928
G1 X249.686 Y121.739 E11.83464
G1 X250.012 Y122.582 E11.88875
G1 X250.261 Y123.45 E11.94281
G1 X250.428 Y124.3 E11.99467
G1 X250.468 Y124.563 E12.0106
G1 X250.564 Y125.461 E12.06467
G1 X250.58 Y126.364 E12.11874
G1 X250.524 Y127.205 E12.1692
G1 X250.497 Y127.452 E12.18407
G1 X250.359 Y128.345 E12.23817
G1 X250.143 Y129.222 E12.29224
G1 X249.843 Y130.093 E12.3474
G1 X249.745 Y130.341 E12.36336
G1 X249.376 Y131.165 E12.41741
G1 X248.936 Y131.954 E12.4715
G1 X248.423 Y132.706 E12.526
G1 X248.25 Y132.937 E12.54327
G1 X247.559 Y133.765 E12.60784
G1 X247.13 Y134.217 E12.64515
G1 X240.911 Y140.437 E13.17173
G1 X239.995 Y141.332 E13.2484
G1 X237.236 Y143.969 E13.47689
G1 X236.492 Y144.661 E13.53772
G1 X236.066 Y145.043 E13.57198
G1 X235.968 Y145.137 E13.58011
G1 X234.425 Y146.524 E13.70432
G1 X232.572 Y148.289 E13.85752
G1 X230.786 Y150.087 E14.00925
G1 X229.037 Y151.951 E14.16228
G1 X227.376 Y153.828 E14.31233
G1 X225.723 Y155.802 E14.46647
G1 X224.166 Y157.773 E14.61685
G1 X222.647 Y159.814 E14.76917
G1 X221.187 Y161.893 E14.92126
G1 X219.768 Y164.042 E15.07543
G1 X218.45 Y166.165 E15.22503
G1 X217.172 Y168.363 E15.37725
G1 X215.947 Y170.611 E15.53052
G1 X214.791 Y172.885 E15.68324
G1 X213.715 Y175.158 E15.8338
G1 X212.701 Y177.465 E15.98467
G1 X211.736 Y179.841 E16.1382
G1 X210.854 Y182.202 E16.28909
G1 X210.018 Y184.651 E16.44401
G1 X209.279 Y187.033 E16.59332
G1 X208.587 Y189.506 E16.74707
G1 X207.974 Y191.965 E16.89879
G1 X207.428 Y194.459 E17.05164
G1 X206.963 Y196.913 E17.20117
G1 X206.552 Y199.467 E17.35604
G1 X206.224 Y201.955 E17.50628
G1 X205.963 Y204.483 E17.65843
G1 X205.817 Y206.323 E17.76893
G1 X205.668 Y207.488 E17.83925
G1 X205.543 Y208.096 E17.87641
G1 X205.486 Y208.339 E17.89135
G1 X205.241 Y209.209 E17.94546
G1 X204.921 Y210.053 E17.9995
G1 X204.526 Y210.865 E18.05356
G1 X204.062 Y211.64 E18.10764
G1 X203.744 Y212.092 E18.14073
G1 X203.487 Y212.438 E18.16653
G1 X202.917 Y213.139 E18.22062
G1 X202.287 Y213.786 E18.27468
G1 X201.603 Y214.375 E18.32872
G1 X200.869 Y214.901 E18.38279
G1 X200.23 Y215.285 E18.42742
G1 X199.866 Y215.486 E18.45231
G1 X199.056 Y215.887 E18.50642
G1 X198.215 Y216.215 E18.56047
G1 X197.56 Y216.414 E18.60145
G1 X196.546 Y216.684 E18.66427
G1 X196.345 Y216.735 E18.67669
G1 X192.22 Y217.744 E18.93092
G1 X192.018 Y217.791 E18.94334
G1 X190.141 Y218.21 E19.05848
G1 X189.948 Y218.251 E19.07029
G1 X185.756 Y219.102 E19.32638
G1 X185.555 Y219.141 E19.33863
G1 X183.595 Y219.498 E19.45791
G1 X183.398 Y219.532 E19.46988
G1 X179.219 Y220.209 E19.72333
G1 X179.02 Y220.239 E19.73537
G1 X177.038 Y220.52 E19.85522
G1 X176.837 Y220.546 E19.86735
G1 X172.448 Y221.078 E20.13204
G1 X170.457 Y221.28 E20.25185
G1 X170.256 Y221.298 E20.26393
G1 X165.86 Y221.655 E20.52798
G1 X163.85 Y221.779 E20.64854
G1 X163.646 Y221.789 E20.66077
G1 X159.167 Y221.974 E20.92915
G1 X157.26 Y222.016 E21.04334
G1 X157.056 Y222.018 E21.05556
G1 X152.765 Y222.027 E21.31245
G1 X152.562 Y222.025 E21.32461
G1 X150.402 Y221.985 E21.45394
G1 X146.155 Y221.825 E21.70839
G1 X145.952 Y221.815 E21.72055
G1 X143.941 Y221.699 E21.84115
G1 X143.738 Y221.685 E21.85333
G1 X139.526 Y221.358 E22.10625
G1 X139.33 Y221.341 E22.11803
G1 X137.161 Y221.129 E22.24851
G1 X132.942 Y220.634 E22.50282
G1 X132.74 Y220.608 E22.51502
G1 X130.786 Y220.339 E22.6331
G1 X130.586 Y220.309 E22.64521
G1 X126.369 Y219.643 E22.9008
G1 X126.167 Y219.609 E22.91307
G1 X124.035 Y219.227 E23.04274
G1 X119.861 Y218.398 E23.29751
G1 X117.743 Y217.935 E23.4273
G1 X117.544 Y217.889 E23.43953
G1 X113.231 Y216.851 E23.70512
G1 X111.264 Y216.337 E23.82683
G1 X111.067 Y216.283 E23.83906
G1 X107.019 Y215.138 E24.09092
G1 X106.827 Y215.082 E24.10289
G1 X104.92 Y214.502 E24.22222
G1 X104.724 Y214.44 E24.23453
G1 X100.712 Y213.131 E24.48718
G1 X100.524 Y213.068 E24.49905
G1 X98.607 Y212.401 E24.62057
G1 X94.453 Y210.863 E24.88576
G1 X94.27 Y210.793 E24.89749
G1 X92.449 Y210.078 E25.01461
G1 X92.258 Y210.001 E25.02694
G1 X88.308 Y208.357 E25.28308
G1 X88.12 Y208.277 E25.29532
G1 X86.315 Y207.483 E25.41337
G1 X86.13 Y207.399 E25.42554
G1 X82.121 Y205.538 E25.69015
G1 X80.283 Y204.641 E25.81259
G1 X76.022 Y202.458 E26.09922
G1 X75.378 Y202.116 E26.14287
G1 X74.6 Y201.657 E26.19695
G1 X73.659 Y200.965 E26.26688
G1 X73.317 Y200.682 E26.29346
G1 X72.648 Y200.076 E26.3475
G1 X72.034 Y199.414 E26.40155
G1 X71.482 Y198.699 E26.45563
G1 X70.995 Y197.939 E26.50967
G1 X70.638 Y197.265 E26.55533
G1 X70.331 Y196.612 E26.59853
G1 X70.298 Y196.536 E26.60349
G1 X69.975 Y195.692 E26.65759
G1 X69.728 Y194.823 E26.71168
G1 X69.54 Y193.791 E26.77448
G1 X69.494 Y193.438 E26.79579
G1 X69.409 Y192.234 E26.86805
G1 X69.402 Y191.584 E26.90697
G1 X69.403 Y135.201 E30.28252
G1 X69.413 Y134.527 E30.32288
G1 X69.489 Y133.429 E30.38877
G1 X69.518 Y133.194 E30.40295
G1 X69.668 Y132.303 E30.45704
G1 X69.896 Y131.429 E30.51112
G1 X70.14 Y130.732 E30.55533
G1 X70.24 Y130.476 E30.57178
G1 X70.606 Y129.65 E30.62587
G1 X71.043 Y128.86 E30.67992
G1 X71.548 Y128.111 E30.734
G1 X71.703 Y127.902 E30.74958
G1 X72.273 Y127.201 E30.80367
G1 X72.902 Y126.553 E30.85773
G1 X73.569 Y125.977 E30.9105
G1 X73.765 Y125.822 E30.92546
G1 X74.497 Y125.294 E30.97949
M204 S5000
G1 F2400 E27.97949
G1 F600 Z0.8
;MESH:switch_plate_v2.stl
G0 F3000 X239.949 Y126.693 Z0.8
M204 S500
;TYPE:WALL-OUTER
G1 F600 Z0.3
G1 F2400 E30.97949
G1 F900 X233.232 Y133.409 E31.54815
G1 X229.642 Y136.842 E31.84553
G1 X225.897 Y140.116 E32.14334
G1 X222.024 Y143.209 E32.44007
G1 X218.002 Y146.137 E32.73791
G1 X213.868 Y148.872 E33.03467
G1 X209.601 Y151.429 E33.33248
G1 X205.233 Y153.788 E33.62969
G1 X200.769 Y155.947 E33.92656
G1 X196.19 Y157.916 E34.22496
G1 X195.953 Y158.046 E34.24115
G1 X195.742 Y158.238 E34.25823
G1 X195.584 Y158.474 E34.27523
G1 X195.484 Y158.74 E34.29224
G1 X195.452 Y159.011 E34.30858
G1 X195.452 Y205.598 E37.09766
G1 X195.373 Y205.953 E37.11943
G1 X195.161 Y206.229 E37.14027
G1 X194.84 Y206.396 E37.16193
G1 X188.819 Y207.869 E37.53303
G1 X182.715 Y209.107 E37.90591
G1 X176.583 Y210.1 E38.2778
G1 X170.4 Y210.853 E38.6507
G1 X164.208 Y211.357 E39.02263
G1 X157.985 Y211.616 E39.39551
G1 X151.772 Y211.629 E39.76748
G1 X145.548 Y211.394 E40.14036
G1 X139.353 Y210.914 E40.51236
G1 X133.173 Y210.189 E40.88488
G1 X127.023 Y209.217 E41.25764
G1 X120.922 Y208.005 E41.63003
G1 X114.874 Y206.552 E42.00242
G1 X108.896 Y204.861 E42.37435
G1 X102.981 Y202.932 E42.74683
G1 X97.148 Y200.771 E43.11924
G1 X91.399 Y198.379 E43.49202
G1 X85.762 Y195.765 E43.86402
G1 X80.241 Y192.934 E44.23547
G1 X79.968 Y192.7 E44.257
G1 X79.82 Y192.38 E44.27811
G1 X79.802 Y192.209 E44.2884
G1 X79.802 Y134.678 E47.73268
G1 X79.83 Y134.463 E47.74566
G1 X79.911 Y134.268 E47.7583
G1 X80.038 Y134.103 E47.77077
G1 X80.203 Y133.976 E47.78323
G1 X80.398 Y133.895 E47.79587
G1 X80.613 Y133.867 E47.80885
G1 X124.001 Y133.867 E50.40642
G1 X124.299 Y133.828 E50.42441
G1 X124.589 Y133.708 E50.4432
G1 X124.838 Y133.517 E50.46199
G1 X125.029 Y133.268 E50.48078
G1 X125.152 Y132.97 E50.50008
G1 X125.188 Y132.181 E50.54736
G1 X125.188 Y127.108 E50.85107
G1 X125.216 Y126.893 E50.86405
G1 X125.297 Y126.698 E50.8767
G1 X125.424 Y126.533 E50.88916
G1 X125.589 Y126.406 E50.90163
G1 X125.784 Y126.325 E50.91427
G1 X125.999 Y126.297 E50.92725
G1 X154.566 Y126.297 E52.6375
G1 X158.575 Y126.185 E52.87761
G1 X162.574 Y125.848 E53.11787
G1 X166.549 Y125.286 E53.35821
G1 X170.485 Y124.503 E53.59847
G1 X174.37 Y123.501 E53.83867
G1 X178.194 Y122.282 E54.07896
G1 X181.944 Y120.851 E54.31926
G1 X185.607 Y119.211 E54.55953
G1 X189.173 Y117.369 E54.79982
G1 X192.629 Y115.33 E55.04005
G1 X195.967 Y113.101 E55.28035
G1 X199.174 Y110.687 E55.52066
G1 X202.24 Y108.098 E55.76091
G1 X205.154 Y105.342 E56.00103
G1 X211.876 Y98.62 E56.57016
G1 X212.058 Y98.48 E56.5839
G1 X212.253 Y98.399 E56.59655
G1 X212.457 Y98.372 E56.60887
G1 X212.661 Y98.399 E56.62118
G1 X212.856 Y98.48 E56.63383
G1 X213.038 Y98.62 E56.64757
G1 X239.949 Y125.531 E58.92603
G1 X240.089 Y125.713 E58.93978
G1 X240.17 Y125.908 E58.95242
G1 X240.197 Y126.112 E58.96474
G1 X240.17 Y126.316 E58.97706
G1 X240.089 Y126.511 E58.9897
G1 X239.949 Y126.693 E59.00345
M204 S5000
G0 F3000 X239.808 Y126.834
G0 X239.497 Y126.522
G1 F2400 E56.00345
G0 F3000 X216.358 Y103.326
G0 X216.276 Y103.507
M204 S500
G1 F2400 E59.00345
G1 F900 X215.958 Y103.364 E59.02432
G1 X215.615 Y103.3 E59.04521
G1 X215.267 Y103.32 E59.06608
G1 X214.933 Y103.423 E59.08701
G1 X214.531 Y103.664 E59.11507
G1 X214.264 Y103.711 E59.1313
G1 X214.005 Y103.63 E59.14754
G1 X213.863 Y103.513 E59.15856
G1 X213.473 Y103.122 E59.19162
G1 X213.183 Y102.899 E59.21352
G1 X212.833 Y102.754 E59.2362
G1 X212.457 Y102.704 E59.25891
G1 X212.082 Y102.754 E59.28156
G1 X211.731 Y102.899 E59.3043
G1 X211.441 Y103.122 E59.3262
G1 X200.285 Y114.277 E60.2707
G1 X200.063 Y114.567 E60.29256
G1 X199.918 Y114.918 E60.3153
G1 X199.868 Y115.293 E60.33795
G1 X199.918 Y115.669 E60.36065
G1 X200.063 Y116.019 E60.38334
G1 X200.285 Y116.309 E60.4052
G1 X201.087 Y117.111 E60.4731
G1 X201.184 Y117.208 E60.48132
G1 X201.418 Y117.442 E60.50113
G1 X201.663 Y117.687 E60.52187
G1 X201.898 Y117.922 E60.54177
G1 X202.397 Y118.421 E60.58402
G1 X205.378 Y121.402 E60.83641
G1 X205.668 Y121.624 E60.85827
G1 X206.018 Y121.769 E60.88095
G1 X206.394 Y121.819 E60.90366
G1 X206.769 Y121.769 E60.92631
G1 X207.124 Y121.622 E60.94931
G1 X207.522 Y121.29 E60.98034
G1 X208.635 Y120.175 E61.07466
G1 X208.902 Y120.018 E61.09321
G1 X209.034 Y119.998 E61.1012
G1 X209.316 Y120.071 E61.11864
G1 X209.451 Y120.17 E61.12866
G1 X218.394 Y129.114 E61.88587
G1 X218.551 Y129.381 E61.90442
G1 X218.572 Y129.516 E61.9126
G1 X218.5 Y129.788 E61.92944
G1 X218.299 Y130.029 E61.94823
G1 X217.167 Y131.16 E62.04403
G1 X216.945 Y131.45 E62.0659
G1 X216.8 Y131.8 E62.08858
G1 X216.75 Y132.176 E62.11128
G1 X216.8 Y132.551 E62.13393
G1 X216.945 Y132.902 E62.15667
G1 X217.167 Y133.191 E62.17849
G1 X222.26 Y138.284 E62.60969
G1 X222.55 Y138.507 E62.6316
G1 X222.9 Y138.651 E62.65425
G1 X223.276 Y138.701 E62.67696
G1 X223.651 Y138.651 E62.69961
G1 X224.002 Y138.507 E62.72233
G1 X224.292 Y138.284 E62.74423
G1 X235.448 Y127.128 E63.68877
G1 X235.67 Y126.838 E63.71063
G1 X235.815 Y126.488 E63.73331
G1 X235.865 Y126.112 E63.75602
G1 X235.815 Y125.737 E63.77867
G1 X235.669 Y125.385 E63.80148
G1 X235.41 Y125.059 E63.82641
G1 X235.038 Y124.687 E63.85791
G1 X234.893 Y124.447 E63.87469
G1 X234.876 Y124.186 E63.89035
G1 X235.157 Y123.647 E63.92674
G1 X235.26 Y123.314 E63.94761
G1 X235.28 Y122.965 E63.96854
G1 X235.216 Y122.622 E63.98943
G1 X235.071 Y122.301 E64.01052
G1 X234.737 Y121.911 E64.04126
G1 X233.423 Y120.597 E64.15251
G1 X233.158 Y120.39 E64.17264
G1 X232.84 Y120.246 E64.19354
G1 X232.498 Y120.182 E64.21437
G1 X232.149 Y120.203 E64.2353
G1 X231.816 Y120.305 E64.25615
G1 X231.413 Y120.546 E64.28426
G1 X231.146 Y120.593 E64.30049
G1 X230.887 Y120.512 E64.31674
G1 X230.778 Y120.427 E64.32502
G1 X218.158 Y107.808 E65.39347
G1 X218.011 Y107.564 E65.41052
G1 X217.994 Y107.304 E65.42612
G1 X218.275 Y106.765 E65.46251
G1 X218.378 Y106.432 E65.48338
G1 X218.398 Y106.083 E65.50431
G1 X218.334 Y105.74 E65.52519
G1 X218.19 Y105.418 E65.54631
G1 X217.855 Y105.029 E65.57705
G1 X216.541 Y103.715 E65.6883
G1 X216.276 Y103.507 E65.70847
M204 S5000
G0 F3000 X216.094 Y103.425
G0 X216.274 Y103.024
G1 F2400 E62.70847
G1 F600 Z0.8
G0 F3000 X216.299 Y102.97 Z0.8
G0 X212.037 Y127.246
M204 S500
G1 F600 Z0.3
G1 F2400 E65.70847
G1 F900 X211.873 Y126.827 E65.7354
G1 X211.617 Y126.493 E65.7606
G1 X211.285 Y126.238 E65.78566
G1 X210.899 Y126.078 E65.81068
G1 X210.484 Y126.024 E65.83573
G1 X210.07 Y126.078 E65.86073
G1 X209.683 Y126.238 E65.8858
G1 X209.351 Y126.494 E65.9109
G1 X209.097 Y126.825 E65.93588
G1 X208.937 Y127.211 E65.96089
G1 X208.882 Y127.626 E65.98595
G1 X208.937 Y128.04 E66.01096
G1 X209.097 Y128.427 E66.03603
G1 X209.351 Y128.759 E66.06105
G1 X209.683 Y129.013 E66.08608
G1 X210.07 Y129.173 E66.11115
G1 X210.484 Y129.228 E66.13615
G1 X210.899 Y129.173 E66.16122
G1 X211.285 Y129.013 E66.18623
G1 X211.616 Y128.759 E66.21121
G1 X211.872 Y128.427 E66.23631
G1 X212.032 Y128.04 E66.26138
G1 X212.086 Y127.626 E66.28638
G1 X212.037 Y127.246 E66.30932
M204 S5000
G0 F3000 X211.964 Y127.06
G0 X212.427 Y127.146
M204 S500
;TYPE:WALL-INNER
G1 F900 X212.225 Y126.629 E66.34255
G1 X211.902 Y126.208 E66.37431
G1 X211.487 Y125.889 E66.40565
G1 X211.003 Y125.688 E66.43703
G1 X210.484 Y125.621 E66.46836
G1 X209.966 Y125.688 E66.49963
G1 X209.481 Y125.889 E66.53106
G1 X209.065 Y126.209 E66.56248
G1 X208.748 Y126.623 E66.5937
G1 X208.547 Y127.106 E66.62502
G1 X208.478 Y127.626 E66.65642
G1 X208.547 Y128.145 E66.68776
G1 X208.747 Y128.628 E66.71906
G1 X209.066 Y129.044 E66.75045
G1 X209.482 Y129.363 E66.78183
G1 X209.965 Y129.563 E66.81313
G1 X210.484 Y129.632 E66.84447
G1 X211.004 Y129.563 E66.87588
G1 X211.487 Y129.362 E66.9072
G1 X211.901 Y129.045 E66.93842
