;FLAVOR:Marlin
;TIME:5329
;Filament used: 3.87479m
;Layer height: 0.2
;MINX:69.424
;MINY:87.993
;MINZ:0.3
;MAXX:250.597
;MAXY:222.027
;MAXZ:2.2
;Generated with Cura_SteamEngine 4.8.0
M140 S85
M105
M190 S85
M104 S240
M105
M109 S240
M82 ;absolute extrusion mode
G28 ;Home
G1 Z15.0 F6000 ;Move the platform down 15mm
;Prime the extruder
G92 E0
G1 F200 E3
G92 E0
G92 E0
G92 E0
G1 F2400 E-3
;LAYER_COUNT:8
;LAYER:0
M107
M204 S5000
M205 X5 Y5
G1 F600 Z0.8
G0 F3000 X99.141 Y91.733 Z0.8
M204 S500
;TYPE:SKIRT
G1 F600 Z0.3
G1 F2400 E0
G1 F1200 X99.693 Y91.196 E0.04611
G1 X100.599 Y90.414 E0.11776
G1 X100.846 Y90.225 E0.13638
G1 X101.586 Y89.709 E0.19039
G1 X102.37 Y89.26 E0.24447
G1 X103.159 Y88.895 E0.29652
G1 X103.426 Y88.785 E0.31381
G1 X104.275 Y88.478 E0.36786
G1 X105.148 Y88.248 E0.42191
G1 X106.051 Y88.094 E0.47675
G1 X106.284 Y88.065 E0.4908
G1 X107.184 Y87.993 E0.54486
G1 X108.088 Y88.001 E0.59898
G1 X108.976 Y88.088 E0.6524
G1 X109.237 Y88.125 E0.66818
G1 X110.124 Y88.291 E0.72221
G1 X110.994 Y88.535 E0.7763
G1 X111.693 Y88.794 E0.82093
G1 X111.904 Y88.881 E0.83459
G1 X112.723 Y89.262 E0.88867
G1 X113.505 Y89.714 E0.94275
G1 X114.091 Y90.117 E0.98532
G1 X114.354 Y90.312 E1.00493
G1 X115.249 Y91.059 E1.07472
G1 X115.745 Y91.524 E1.11542
G1 X117.699 Y93.305 E1.27371
G1 X119.621 Y94.96 E1.42555
G1 X121.586 Y96.558 E1.57718
G1 X123.604 Y98.107 E1.72949
G1 X125.672 Y99.602 E1.88226
G1 X127.761 Y101.024 E2.03355
G1 X129.915 Y102.404 E2.1867
G1 X132.069 Y103.699 E2.33717
G1 X134.305 Y104.959 E2.49082
G1 X136.518 Y106.124 E2.64055
G1 X138.833 Y107.261 E2.79496
G1 X141.131 Y108.31 E2.94619
G1 X143.455 Y109.292 E3.09724
G1 X145.881 Y110.239 E3.25315
G1 X148.202 Y111.067 E3.40068
G1 X150.654 Y111.865 E3.55506
G1 X153.087 Y112.583 E3.70693
G1 X155.53 Y113.228 E3.8582
G1 X157.996 Y113.807 E4.00985
G1 X160.527 Y114.326 E4.16453
G1 X162.996 Y114.757 E4.31458
G1 X165.509 Y115.125 E4.46663
G1 X168.012 Y115.419 E4.61751
G1 X170.581 Y115.648 E4.77192
G1 X173.076 Y115.799 E4.92157
G1 X175.655 Y115.882 E5.07605
G1 X177.345 Y115.897 E5.17723
G1 X193.452 Y115.898 E6.14153
G1 X194.078 Y115.907 E6.17901
G1 X195.267 Y115.994 E6.25038
G1 X195.638 Y116.043 E6.27278
G1 X196.527 Y116.201 E6.32684
G1 X197.399 Y116.436 E6.38091
G1 X197.956 Y116.632 E6.41626
G1 X198.272 Y116.755 E6.43656
G1 X199.944 Y117.428 E6.54447
G1 X202.362 Y118.322 E6.6988
G1 X204.741 Y119.128 E6.84918
G1 X207.178 Y119.876 E7.0018
G1 X209.629 Y120.553 E7.15403
G1 X212.1 Y121.161 E7.30638
G1 X214.602 Y121.704 E7.45966
G1 X217.062 Y122.161 E7.60945
G1 X219.573 Y122.557 E7.76164
G1 X222.104 Y122.884 E7.91442
G1 X224.617 Y123.136 E8.06563
G1 X227.143 Y123.317 E8.21724
G1 X229.708 Y123.427 E8.37095
G1 X232.398 Y123.467 E8.53201
G1 X238.838 Y123.468 E8.91756
G1 X239.464 Y123.477 E8.95504
G1 X240.69 Y123.569 E9.02865
G1 X241.036 Y123.616 E9.04955
G1 X241.925 Y123.777 E9.10364
G1 X242.795 Y124.016 E9.15766
G1 X243.589 Y124.309 E9.20832
G1 X243.824 Y124.407 E9.22357
G1 X244.641 Y124.791 E9.27761
G1 X245.421 Y125.246 E9.33167
G1 X246.135 Y125.75 E9.384
G1 X246.333 Y125.903 E9.39898
G1 X247.022 Y126.486 E9.45301
G1 X247.657 Y127.128 E9.50707
G1 X248.202 Y127.783 E9.55809
G1 X248.354 Y127.982 E9.57308
G1 X248.87 Y128.723 E9.62714
G1 X249.318 Y129.507 E9.6812
G1 X249.702 Y130.343 E9.73627
G1 X249.796 Y130.575 E9.75126
G1 X250.097 Y131.426 E9.8053
G1 X250.323 Y132.3 E9.85935
G1 X250.426 Y132.868 E9.89391
G1 X250.474 Y133.183 E9.91298
G1 X250.584 Y134.374 E9.98459
G1 X250.597 Y134.926 E10.01764
G1 X250.597 Y191.66 E13.41421
G1 X250.587 Y192.36 E13.45612
G1 X250.534 Y193.261 E13.51016
G1 X250.436 Y193.967 E13.55283
G1 X250.41 Y194.116 E13.56188
G1 X250.283 Y194.731 E13.59948
G1 X250.22 Y194.995 E13.61573
G1 X249.972 Y195.863 E13.66977
G1 X249.648 Y196.706 E13.72384
G1 X249.251 Y197.517 E13.7779
G1 X248.536 Y198.644 E13.8578
G1 X248.349 Y198.9 E13.87678
G1 X247.784 Y199.605 E13.93087
G1 X247.377 Y200.043 E13.96667
G1 X247.241 Y200.181 E13.97827
G1 X246.579 Y200.795 E14.03232
G1 X245.866 Y201.349 E14.08638
G1 X244.81 Y202.003 E14.16074
G1 X243.762 Y202.567 E14.23199
G1 X243.581 Y202.662 E14.24423
G1 X239.896 Y204.551 E14.49214
G1 X239.719 Y204.64 E14.50401
G1 X237.882 Y205.537 E14.62639
G1 X237.697 Y205.625 E14.63866
G1 X233.869 Y207.4 E14.89127
G1 X233.685 Y207.483 E14.90336
G1 X231.88 Y208.277 E15.02141
G1 X227.74 Y210 E15.28988
G1 X227.559 Y210.074 E15.30158
G1 X225.737 Y210.791 E15.41881
G1 X225.547 Y210.863 E15.43097
G1 X221.586 Y212.331 E15.68387
G1 X221.394 Y212.4 E15.69608
G1 X219.478 Y213.067 E15.81754
G1 X219.288 Y213.131 E15.82955
G1 X215.275 Y214.44 E16.08226
G1 X215.08 Y214.502 E16.09451
G1 X213.173 Y215.082 E16.21384
G1 X212.981 Y215.138 E16.22581
G1 X208.932 Y216.283 E16.47773
G1 X208.736 Y216.336 E16.48988
G1 X206.77 Y216.85 E16.61154
G1 X206.574 Y216.899 E16.62363
G1 X202.456 Y217.889 E16.87719
G1 X202.257 Y217.935 E16.88942
G1 X200.139 Y218.398 E17.01922
G1 X195.965 Y219.227 E17.27399
G1 X193.833 Y219.609 E17.40366
G1 X193.631 Y219.643 E17.41592
G1 X189.214 Y220.339 E17.68363
G1 X187.261 Y220.608 E17.80165
G1 X187.058 Y220.634 E17.8139
G1 X182.839 Y221.129 E18.06822
G1 X180.67 Y221.341 E18.19869
G1 X180.474 Y221.358 E18.21047
G1 X176.262 Y221.685 E18.4634
G1 X176.059 Y221.699 E18.47558
G1 X174.048 Y221.815 E18.59617
G1 X173.845 Y221.825 E18.60834
G1 X169.598 Y221.985 E18.86278
G1 X167.438 Y222.025 E18.99212
G1 X167.235 Y222.027 E19.00427
G1 X162.944 Y222.018 E19.26117
G1 X162.74 Y222.016 E19.27338
G1 X160.833 Y221.974 E19.38758
G1 X156.354 Y221.789 E19.65596
G1 X156.15 Y221.779 E19.66819
G1 X154.14 Y221.655 E19.78875
G1 X149.744 Y221.298 E20.0528
G1 X149.543 Y221.28 E20.06488
G1 X147.552 Y221.078 E20.18469
G1 X143.163 Y220.546 E20.44937
G1 X142.963 Y220.52 E20.46145
G1 X140.779 Y220.209 E20.59352
G1 X136.601 Y219.532 E20.84691
G1 X136.405 Y219.498 E20.85882
G1 X134.445 Y219.141 E20.97809
G1 X130.055 Y218.252 E21.24625
G1 X129.856 Y218.21 E21.25842
G1 X127.978 Y217.79 E21.37363
G1 X127.78 Y217.744 E21.3858
G1 X123.215 Y216.626 E21.66718
G1 X122.59 Y216.464 E21.70583
G1 X121.726 Y216.199 E21.75994
G1 X120.631 Y215.735 E21.83114
G1 X120.214 Y215.529 E21.85898
G1 X119.423 Y215.094 E21.91303
G1 X118.674 Y214.59 E21.96707
G1 X117.971 Y214.022 E22.02118
G1 X117.322 Y213.394 E22.07525
G1 X116.758 Y212.744 E22.12677
G1 X116.49 Y212.408 E22.1525
G1 X115.959 Y211.678 E22.20654
G1 X115.494 Y210.904 E22.2606
G1 X115.1 Y210.091 E22.31469
G1 X114.779 Y209.247 E22.36875
G1 X114.554 Y208.463 E22.41758
G1 X114.447 Y208.024 E22.44463
G1 X114.272 Y207.138 E22.4987
G1 X114.199 Y206.537 E22.53495
G1 X114.137 Y205.842 E22.57672
G1 X114.01 Y204.212 E22.6746
G1 X113.743 Y201.692 E22.82631
G1 X113.402 Y199.169 E22.97873
G1 X112.994 Y196.676 E23.12997
G1 X112.509 Y194.167 E23.28296
G1 X111.951 Y191.66 E23.43672
G1 X111.345 Y189.266 E23.58457
G1 X110.638 Y186.759 E23.74051
G1 X109.884 Y184.355 E23.89135
G1 X109.049 Y181.937 E24.0445
G1 X108.167 Y179.596 E24.19427
G1 X107.201 Y177.238 E24.34682
G1 X106.16 Y174.891 E24.50054
G1 X105.09 Y172.645 E24.64948
G1 X103.913 Y170.349 E24.80394
G1 X102.682 Y168.107 E24.95707
G1 X101.408 Y165.934 E25.10787
G1 X100.078 Y163.804 E25.25821
G1 X98.667 Y161.681 E25.41082
G1 X97.172 Y159.564 E25.56598
G1 X95.689 Y157.587 E25.71394
G1 X94.097 Y155.584 E25.86712
G1 X92.451 Y153.629 E26.02012
G1 X90.737 Y151.707 E26.1743
G1 X89.035 Y149.902 E26.32282
G1 X87.217 Y148.082 E26.47683
G1 X85.381 Y146.345 E26.62815
G1 X84.433 Y145.493 E26.70446
G1 X83.196 Y144.376 E26.80424
G1 X82.984 Y144.18 E26.82152
G1 X79.942 Y141.271 E27.07351
G1 X78.985 Y140.335 E27.15365
G1 X73.065 Y134.413 E27.65496
G1 X72.633 Y133.969 E27.69205
G1 X71.836 Y133.045 E27.7651
G1 X71.649 Y132.8 E27.78356
G1 X71.133 Y132.058 E27.83766
G1 X70.685 Y131.274 E27.89172
G1 X70.321 Y130.484 E27.9438
G1 X70.211 Y130.216 E27.96114
G1 X69.905 Y129.366 E28.01523
G1 X69.676 Y128.493 E28.06926
G1 X69.525 Y127.603 E28.1233
G1 X69.496 Y127.37 E28.13736
G1 X69.424 Y126.47 E28.19141
G1 X69.432 Y125.566 E28.24554
G1 X69.52 Y124.673 E28.29926
G1 X69.557 Y124.413 E28.31498
G1 X69.723 Y123.525 E28.36907
G1 X69.968 Y122.656 E28.42312
G1 X70.216 Y121.984 E28.466
G1 X70.302 Y121.774 E28.47959
G1 X70.681 Y120.955 E28.53362
G1 X71.131 Y120.172 E28.58768
G1 X71.551 Y119.56 E28.63212
G1 X71.747 Y119.296 E28.65181
G1 X72.473 Y118.424 E28.71974
G1 X72.887 Y117.989 E28.75569
G1 X99.141 Y91.733 E30.97861
M204 S5000
G1 F2400 E27.97861
G1 F600 Z0.8
;MESH:switch_plate_v2.stl
G0 F3000 X101.998 Y146.137 Z0.8
M204 S500
;TYPE:WALL-OUTER
G1 F600 Z0.3
G1 F2400 E30.97861
G1 F900 X97.976 Y143.209 E31.27644
G1 X94.103 Y140.116 E31.57318
G1 X90.358 Y136.842 E31.87099
G1 X86.768 Y133.41 E32.16833
G1 X80.05 Y126.692 E32.73711
G1 X79.904 Y126.494 E32.75184
G1 X79.829 Y126.299 E32.76435
G1 X79.807 Y126.095 E32.77663
G1 X79.839 Y125.888 E32.78917
G1 X80.051 Y125.531 E32.81403
G1 X106.963 Y98.619 E35.09258
G1 X107.161 Y98.473 E35.1073
G1 X107.356 Y98.398 E35.11981
G1 X107.56 Y98.376 E35.1321
G1 X107.767 Y98.408 E35.14464
G1 X108.124 Y98.62 E35.16949
G1 X114.846 Y105.342 E35.73862
G1 X117.76 Y108.098 E35.97874
G1 X120.826 Y110.687 E36.21899
G1 X124.033 Y113.101 E36.4593
G1 X127.371 Y115.33 E36.6996
G1 X130.827 Y117.369 E36.93983
G1 X134.393 Y119.211 E37.18012
G1 X138.056 Y120.851 E37.42039
G1 X141.806 Y122.282 E37.66069
G1 X145.63 Y123.501 E37.90098
G1 X149.515 Y124.503 E38.14118
G1 X153.451 Y125.286 E38.38144
G1 X157.426 Y125.848 E38.62178
G1 X161.425 Y126.185 E38.86204
G1 X165.434 Y126.297 E39.10215
G1 X193.995 Y126.297 E40.81204
G1 X194.236 Y126.334 E40.82664
G1 X194.426 Y126.418 E40.83908
G1 X194.588 Y126.548 E40.85151
G1 X194.709 Y126.712 E40.86372
G1 X194.812 Y127.108 E40.88821
G1 X194.812 Y132.682 E41.22192
G1 X194.861 Y133.004 E41.24142
G1 X194.988 Y133.29 E41.26015
G1 X195.184 Y133.534 E41.27889
G1 X195.436 Y133.719 E41.2976
G1 X195.726 Y133.831 E41.31622
G1 X195.999 Y133.867 E41.3327
G1 X239.381 Y133.867 E43.92991
G1 X239.622 Y133.904 E43.9445
G1 X239.812 Y133.988 E43.95694
G1 X239.974 Y134.118 E43.96938
G1 X240.095 Y134.282 E43.98158
G1 X240.198 Y134.678 E44.00607
G1 X240.198 Y192.201 E47.44987
G1 X240.121 Y192.552 E47.47139
G1 X239.909 Y192.834 E47.49251
G1 X239.769 Y192.929 E47.50264
G1 X234.238 Y195.765 E47.87476
G1 X228.601 Y198.378 E48.24673
G1 X222.852 Y200.771 E48.61954
G1 X217.019 Y202.932 E48.99195
G1 X211.104 Y204.861 E49.36442
G1 X205.126 Y206.552 E49.73636
G1 X199.078 Y208.005 E50.10875
G1 X192.977 Y209.217 E50.48114
G1 X186.827 Y210.189 E50.8539
G1 X180.647 Y210.915 E51.22643
G1 X174.452 Y211.394 E51.59842
G1 X168.228 Y211.629 E51.97131
G1 X162.015 Y211.616 E52.34327
G1 X155.792 Y211.357 E52.71615
G1 X149.6 Y210.852 E53.08809
G1 X143.417 Y210.101 E53.46097
G1 X137.285 Y209.107 E53.83287
G1 X131.181 Y207.869 E54.20575
G1 X125.16 Y206.396 E54.57685
G1 X124.839 Y206.229 E54.59851
G1 X124.627 Y205.953 E54.61935
G1 X124.548 Y205.598 E54.64112
G1 X124.548 Y159.009 E57.43032
G1 X124.508 Y158.718 E57.44791
G1 X124.403 Y158.453 E57.46497
G1 X124.24 Y158.221 E57.48195
G1 X124.022 Y158.031 E57.49926
G1 X123.401 Y157.74 E57.54032
G1 X119.231 Y155.947 E57.81207
G1 X114.767 Y153.788 E58.10893
G1 X110.399 Y151.429 E58.40614
G1 X106.132 Y148.872 E58.70395
G1 X101.998 Y146.137 E59.00071
M204 S5000
G0 F3000 X101.837 Y146.02
G0 X102.097 Y145.665
G1 F2400 E56.00071
G1 F600 Z0.8
G0 F3000 X102.133 Y145.617 Z0.8
G0 X109.552 Y129.224
M204 S500
G1 F600 Z0.3
G1 F2400 E59.00071
G1 F900 X109.965 Y129.16 E59.02573
G1 X110.346 Y128.991 E59.05068
G1 X110.671 Y128.73 E59.07564
G1 X110.917 Y128.393 E59.10062
G1 X111.068 Y128.004 E59.1256
G1 X111.114 Y127.59 E59.15054
G1 X111.05 Y127.177 E59.17556
G1 X110.881 Y126.796 E59.20051
G1 X110.62 Y126.471 E59.22547
G1 X110.283 Y126.224 E59.25048
G1 X109.894 Y126.073 E59.27546
G1 X109.48 Y126.028 E59.30039
G1 X109.068 Y126.091 E59.32535
G1 X108.686 Y126.26 E59.35035
G1 X108.361 Y126.522 E59.37535
G1 X108.116 Y126.856 E59.40014
G1 X107.967 Y127.213 E59.4233
G1 X107.918 Y127.662 E59.45034
G1 X107.981 Y128.074 E59.4753
G1 X108.15 Y128.456 E59.50031
G1 X108.412 Y128.781 E59.5253
G1 X108.748 Y129.027 E59.55023
G1 X109.137 Y129.178 E59.57521
G1 X109.552 Y129.224 E59.60021
M204 S5000
G0 F3000 X109.75 Y129.194
G0 X109.561 Y129.627
M204 S500
;TYPE:WALL-INNER
G1 F900 X110.079 Y129.547 E59.63159
G1 X110.556 Y129.336 E59.66281
G1 X110.963 Y129.009 E59.69407
G1 X111.271 Y128.587 E59.72535
G1 X111.46 Y128.1 E59.75662
G1 X111.517 Y127.581 E59.78788
G1 X111.437 Y127.063 E59.81926
G1 X111.226 Y126.586 E59.85049
G1 X110.899 Y126.179 E59.88174
G1 X110.477 Y125.87 E59.91306
G1 X109.99 Y125.681 E59.94433
G1 X109.471 Y125.625 E59.97558
G1 X108.955 Y125.704 E60.00683
G1 X108.476 Y125.916 E60.03819
G1 X108.069 Y126.243 E60.06945
G1 X107.765 Y126.658 E60.10025
G1 X107.576 Y127.112 E60.12969
G1 X107.515 Y127.671 E60.16336
G1 X107.594 Y128.187 E60.19461
G1 X107.806 Y128.666 E60.22597
G1 X108.133 Y129.073 E60.25722
G1 X108.554 Y129.381 E60.28845
G1 X109.041 Y129.57 E60.31973
G1 X109.561 Y129.627 E60.35105
M204 S5000
G0 F3000 X109.57 Y130.03
M204 S500
G1 F900 X110.192 Y129.934 E60.38873
G1 X110.766 Y129.681 E60.42628
G1 X111.255 Y129.288 E60.46384
G1 X111.625 Y128.781 E60.50141
G1 X111.852 Y128.196 E60.53898
G1 X111.92 Y127.572 E60.57656
G1 X111.824 Y126.95 E60.61424
G1 X111.571 Y126.376 E60.65179
G1 X111.178 Y125.887 E60.68935
G1 X110.671 Y125.516 E60.72696
G1 X110.085 Y125.289 E60.76459
G1 X109.462 Y125.222 E60.8021
G1 X108.842 Y125.317 E60.83965
G1 X108.266 Y125.571 E60.87734
G1 X107.777 Y125.964 E60.9149
G1 X107.414 Y126.46 E60.9517
G1 X107.185 Y127.011 E60.98742
G1 X107.112 Y127.68 E61.02771
G1 X107.207 Y128.3 E61.06526
G1 X107.461 Y128.876 E61.10295
G1 X107.854 Y129.365 E61.14051
G1 X108.36 Y129.735 E61.17803
G1 X108.945 Y129.962 E61.2156
G1 X109.57 Y130.03 E61.25324
M204 S5000
G1 F2400 E58.25324
G1 F600 Z0.8
G0 F3000 X109.543 Y129.837 Z0.8
G0 X105.26 Y141.876
M204 S500
;TYPE:WALL-OUTER
G1 F600 Z0.3
G1 F2400 E61.25324
G1 F900 X105.45 Y142.164 E61.2739
G1 X105.773 Y142.481 E61.30099
G1 X105.881 Y142.715 E61.31642
G1 X105.869 Y142.99 E61.3329
G1 X105.819 Y143.111 E61.34074
G1 X105.515 Y143.635 E61.37701
G1 X105.372 Y144.004 E61.4007
G1 X105.33 Y144.379 E61.42329
G1 X105.388 Y144.754 E61.44601
G1 X105.541 Y145.1 E61.46866
G1 X105.777 Y145.392 E61.49113
G1 X106.042 Y145.597 E61.51119
G1 X119.706 Y153.486 E62.45578
G1 X120.075 Y153.629 E62.47948
G1 X120.451 Y153.67 E62.50212
G1 X120.824 Y153.612 E62.52472
G1 X121.171 Y153.46 E62.5474
G1 X121.463 Y153.224 E62.56988
G1 X121.668 Y152.959 E62.58994
G1 X125.269 Y146.72 E63.0212
G1 X125.413 Y146.352 E63.04486
G1 X125.454 Y145.975 E63.06757
G1 X125.396 Y145.603 E63.09011
G1 X125.243 Y145.255 E63.11286
G1 X125.008 Y144.963 E63.1353
G1 X124.742 Y144.759 E63.15537
G1 X123.232 Y143.888 E63.25974
G1 X123.105 Y143.785 E63.26953
G1 X122.96 Y143.532 E63.28698
G1 X122.945 Y143.399 E63.295
G1 X123.027 Y143.103 E63.31338
G1 X129.356 Y132.142 E64.07114
G1 X129.455 Y132.017 E64.08068
G1 X129.699 Y131.878 E64.0975
G1 X129.994 Y131.878 E64.11516
G1 X130.13 Y131.935 E64.12398
G1 X131.644 Y132.809 E64.22864
G1 X132.012 Y132.953 E64.2523
G1 X132.389 Y132.994 E64.27501
G1 X132.761 Y132.936 E64.29755
G1 X133.109 Y132.783 E64.3203
G1 X133.401 Y132.548 E64.34274
G1 X133.605 Y132.282 E64.36281
G1 X137.207 Y126.044 E64.79406
G1 X137.35 Y125.675 E64.81775
G1 X137.392 Y125.3 E64.84034
G1 X137.334 Y124.925 E64.86306
G1 X137.181 Y124.579 E64.88571
G1 X136.945 Y124.287 E64.90819
G1 X136.68 Y124.082 E64.92825
G1 X123.016 Y116.193 E65.87284
G1 X122.647 Y116.05 E65.89653
G1 X122.271 Y116.009 E65.91918
G1 X121.898 Y116.067 E65.94177
G1 X121.551 Y116.219 E65.96445
G1 X121.259 Y116.455 E65.98693
G1 X121.054 Y116.72 E66.00699
G1 X120.765 Y117.222 E66.04167
G1 X120.571 Y117.424 E66.05844
G1 X120.322 Y117.508 E66.07417
G1 X119.699 Y117.374 E66.11232
G1 X119.351 Y117.369 E66.13316
G1 X119.169 Y117.41 E66.14432
G1 X119.012 Y117.445 E66.15395
G1 X118.7 Y117.603 E66.17489
G1 X118.437 Y117.827 E66.19557
G1 X118.253 Y118.074 E66.21401
G1 X117.9 Y118.685 E66.25626
G1 X117.232 Y119.842 E66.33624
G1 X117.096 Y120.179 E66.358
