;FLAVOR:Marlin
;TIME:922
;Filament used: 0.61954m
;Layer height: 0.2
;MINX:137.78
;MINY:130.003
;MINZ:0.3
;MAXX:182.22
;MAXY:180.027
;MAXZ:7.5
;Generated with Cura_SteamEngine 4.8.0
M140 S85
M105
M190 S85
M104 S235
M105
M109 S235
M82 ;absolute extrusion mode
G28 ;Home
G1 Z15.0 F6000 ;Move the platform down 15mm
;Prime the extruder
G92 E0
G1 F200 E3
G92 E0
G92 E0
G92 E0
G1 F2400 E-3
;LAYER_COUNT:37
;LAYER:0
M107
M204 S5000
M205 X5 Y5
G1 F600 Z0.8
G0 F1800 X140.376 Y133.477 Z0.8
M204 S500
;TYPE:SKIRT
G1 F600 Z0.3
G1 F2400 E0
G1 F1200 X141.003 Y132.826 E0.05952
G1 X141.685 Y132.233 E0.11904
G1 X142.417 Y131.702 E0.17859
G1 X143.193 Y131.238 E0.23814
G1 X144.007 Y130.845 E0.29766
G1 X144.852 Y130.525 E0.35717
G1 X145.722 Y130.281 E0.41667
G1 X146.611 Y130.115 E0.47623
G1 X147.746 Y130.018 E0.55125
G1 X148.349 Y130.005 E0.59097
G1 X153.111 Y130.003 E0.90457
G1 X171.416 Y130.006 E2.11004
G1 X172.096 Y130.016 E2.15483
G1 X172.999 Y130.069 E2.2144
G1 X173.893 Y130.202 E2.27392
G1 X174.772 Y130.413 E2.33345
G1 X175.629 Y130.702 E2.39301
G1 X176.457 Y131.064 E2.45253
G1 X177.249 Y131.499 E2.51203
G1 X178.001 Y132.002 E2.57161
G1 X178.705 Y132.569 E2.63114
G1 X179.356 Y133.196 E2.69066
G1 X179.949 Y133.878 E2.75018
G1 X180.479 Y134.61 E2.8097
G1 X180.943 Y135.386 E2.86924
G1 X181.336 Y136.2 E2.92876
G1 X181.656 Y137.046 E2.98833
G1 X181.9 Y137.916 E3.04784
G1 X182.065 Y138.805 E3.10738
G1 X182.163 Y140 E3.18634
G1 X182.186 Y140.999 E3.25215
G1 X182.189 Y141.25 E3.26868
G1 X182.187 Y142.563 E3.35515
G1 X182.188 Y145.497 E3.54837
G1 X182.191 Y147.374 E3.67198
G1 X182.218 Y148.617 E3.75385
G1 X182.22 Y148.84 E3.76854
G1 X182.219 Y164.131 E4.77553
G1 X182.209 Y164.833 E4.82176
G1 X182.156 Y165.735 E4.88127
G1 X182.024 Y166.629 E4.94078
G1 X181.851 Y167.373 E4.99108
G1 X181.784 Y167.619 E5.00787
G1 X181.508 Y168.48 E5.06742
G1 X181.157 Y169.313 E5.12695
G1 X180.734 Y170.111 E5.18642
G1 X180.242 Y170.87 E5.24599
G1 X179.685 Y171.582 E5.30552
G1 X179.191 Y172.118 E5.35353
G1 X179.017 Y172.294 E5.36983
G1 X178.427 Y172.845 E5.42299
G1 X177.719 Y173.406 E5.48248
G1 X176.963 Y173.903 E5.54206
G1 X175.866 Y174.469 E5.62335
G1 X175.184 Y174.77 E5.67244
G1 X173.914 Y175.312 E5.76338
G1 X171.59 Y176.383 E5.93189
G1 X169.324 Y177.506 E6.09844
G1 X166.98 Y178.753 E6.27329
G1 X166.164 Y179.142 E6.33282
G1 X164.902 Y179.581 E6.42082
G1 X164.674 Y179.644 E6.43639
G1 X163.793 Y179.846 E6.49592
G1 X162.897 Y179.969 E6.55548
G1 X162.123 Y180.012 E6.60653
G1 X161.227 Y180.027 E6.66554
G1 X158.696 Y180.027 E6.83222
G1 X157.875 Y180.016 E6.88629
G1 X156.973 Y179.962 E6.9458
G1 X155.77 Y179.765 E7.02608
G1 X155.717 Y179.753 E7.02966
G1 X155.101 Y179.593 E7.07157
G1 X154.903 Y179.535 E7.08516
G1 X154.048 Y179.243 E7.14466
G1 X152.998 Y178.762 E7.22072
G1 X151.968 Y178.216 E7.29749
G1 X151.395 Y177.902 E7.34052
G1 X149.139 Y176.75 E7.50734
G1 X146.869 Y175.67 E7.67288
G1 X144.398 Y174.58 E7.85074
G1 X144.221 Y174.504 E7.86343
G1 X143.407 Y174.111 E7.92295
G1 X142.63 Y173.648 E7.98252
G1 X141.898 Y173.119 E8.04199
G1 X140.913 Y172.228 E8.12946
G1 X140.748 Y172.058 E8.14506
G1 X140.148 Y171.382 E8.20459
G1 X139.41 Y170.349 E8.28819
G1 X138.966 Y169.562 E8.3477
G1 X138.592 Y168.738 E8.40729
G1 X138.25 Y167.74 E8.47677
G1 X138.188 Y167.523 E8.49163
G1 X137.979 Y166.643 E8.5512
G1 X137.847 Y165.749 E8.61071
G1 X137.796 Y164.882 E8.6679
G1 X137.781 Y163.966 E8.72823
G1 X137.78 Y149.272 E9.69591
G1 X137.809 Y147.171 E9.83428
G1 X137.803 Y145.558 E9.94051
G1 X137.813 Y145.314 E9.95659
G1 X137.814 Y140.775 E10.25551
G1 X137.824 Y140.086 E10.30089
G1 X137.877 Y139.183 E10.36046
G1 X138.01 Y138.289 E10.41998
G1 X138.221 Y137.41 E10.47951
G1 X138.509 Y136.553 E10.53905
G1 X138.871 Y135.725 E10.59856
G1 X139.306 Y134.932 E10.65812
G1 X139.808 Y134.181 E10.71761
G1 X140.376 Y133.477 E10.77718
M204 S5000
G0 F1800 X148.253 Y140.445
M204 S500
;TYPE:SUPPORT
G1 F900 X153.11 Y140.443 E11.09704
G1 X171.747 Y140.445 E12.32438
G1 X171.749 Y141.404 E12.38754
G1 X171.747 Y142.286 E12.44562
G1 X171.748 Y145.509 E12.65787
G1 X171.737 Y145.658 E12.66771
G1 X148.263 Y145.657 E14.21359
G1 X148.253 Y145.522 E14.22251
G1 X148.253 Y140.445 E14.55685
M204 S5000
G0 F1800 X148.433 Y144
M204 S500
G1 F900 X171.568 Y144 E16.08041
M204 S5000
G0 F1800 X168 Y145.477
M204 S500
G1 F900 X168 Y140.625 E16.39994
M204 S5000
G0 F1800 X164 Y140.625
M204 S500
G1 F900 X164 Y145.477 E16.71947
M204 S5000
G0 F1800 X160 Y145.477
M204 S500
G1 F900 X160 Y140.624 E17.03906
M204 S5000
G0 F1800 X156 Y140.624
M204 S500
G1 F900 X156 Y145.477 E17.35866
M204 S5000
G0 F1800 X152 Y145.477
M204 S500
G1 F900 X152 Y140.623 E17.67832
M204 S5000
G1 F2400 E14.67832
;MESH:4aff83a5-3933-4db6-9570-116ce0923dc6.stl
G0 F1800 X152 Y147.899
G0 X152 Y149.244
G0 X158.217 Y164.504
G0 X157.749 Y164.972
M204 S500
;TYPE:WALL-OUTER
G1 F2400 E17.67832
G1 F900 X148.526 Y164.971 E18.2857
G1 X148.361 Y164.925 E18.29698
G1 X148.264 Y164.825 E18.30616
G1 X148.22 Y164.661 E18.31734
G1 X148.22 Y148.784 E19.36292
G1 X171.78 Y148.784 E20.91446
G1 X171.78 Y164.662 E21.96011
G1 X171.733 Y164.831 E21.97166
G1 X171.633 Y164.928 E21.98084
G1 X171.469 Y164.972 E21.99202
G1 X162.21 Y164.972 E22.60177
G1 X162.209 Y169.28 E22.88547
G1 X162.209 Y169.282 E22.88561
G1 X162.163 Y169.447 E22.89689
G1 X162.063 Y169.544 E22.90606
G1 X161.899 Y169.588 E22.91724
G1 X161.897 Y169.588 E22.91738
G1 X158.055 Y169.587 E23.17039
G1 X157.89 Y169.541 E23.18167
G1 X157.793 Y169.441 E23.19085
G1 X157.749 Y169.277 E23.20203
G1 X157.749 Y164.972 E23.48553
M204 S5000
G0 F1800 X157.549 Y164.972
G0 X157.55 Y164.488
G0 X157.55 Y164.432
G0 X164.446 Y160.916
G0 X165.883 Y160.837
G0 X166.868 Y161.748
G0 X166.408 Y162.03
M204 S500
G1 F900 X166.132 Y161.583 E23.52013
G1 X165.703 Y161.293 E23.55423
G1 X165.175 Y161.209 E23.58944
G1 X164.676 Y161.349 E23.62357
G1 X164.275 Y161.691 E23.65828
G1 X164.058 Y162.158 E23.69219
G1 X164.029 Y162.454 E23.71178
G1 X164.142 Y162.955 E23.7456
G1 X164.466 Y163.372 E23.78038
G1 X164.931 Y163.613 E23.81487
G1 X165.458 Y163.639 E23.84962
G1 X165.944 Y163.44 E23.8842
G1 X166.3 Y163.063 E23.91835
G1 X166.468 Y162.564 E23.95302
G1 X166.408 Y162.03 E23.98841
M204 S5000
G0 F1800 X166.303 Y161.86
G0 X166.834 Y161.883
M204 S500
;TYPE:WALL-INNER
G1 F900 X166.457 Y161.271 E24.03575
G1 X165.869 Y160.874 E24.08247
G1 X165.149 Y160.759 E24.13049
G1 X164.464 Y160.951 E24.17733
G1 X163.916 Y161.419 E24.22479
G1 X163.627 Y162.041 E24.26996
G1 X163.584 Y162.482 E24.29914
G1 X163.734 Y163.147 E24.34403
G1 X164.178 Y163.718 E24.39167
G1 X164.814 Y164.048 E24.43885
G1 X165.534 Y164.083 E24.48633
G1 X166.199 Y163.811 E24.53364
G1 X166.686 Y163.295 E24.58037
G1 X166.916 Y162.612 E24.62783
G1 X166.834 Y161.883 E24.67614
M204 S5000
G0 F1800 X166.928 Y161.851
G0 X166.72 Y163.315
G0 X165.54 Y164.122
G0 X161.742 Y164.504
G0 X159.917 Y165.584
G0 X159.861 Y166.12
M204 S500
;TYPE:WALL-OUTER
G1 F900 X159.337 Y166.291 E24.71244
G1 X158.928 Y166.66 E24.74871
G1 X158.704 Y167.162 E24.78492
G1 X158.704 Y167.714 E24.82127
G1 X158.928 Y168.217 E24.85753
G1 X159.338 Y168.586 E24.89385
G1 X159.862 Y168.756 E24.93013
G1 X160.409 Y168.698 E24.96636
G1 X160.886 Y168.423 E25.00262
G1 X161.21 Y167.977 E25.03892
G1 X161.325 Y167.438 E25.07521
G1 X161.21 Y166.899 E25.11151
G1 X160.887 Y166.454 E25.14772
G1 X160.41 Y166.178 E25.18401
G1 X159.861 Y166.12 E25.22037
M204 S5000
G0 F1800 X159.671 Y166.182
G0 X159.522 Y165.722
G0 X159.505 Y165.668
G0 X156.368 Y161.748
G0 X155.908 Y162.03
M204 S500
G1 F900 X155.632 Y161.583 E25.25497
G1 X155.203 Y161.293 E25.28907
G1 X154.675 Y161.209 E25.32428
G1 X154.176 Y161.349 E25.35841
G1 X153.775 Y161.691 E25.39311
G1 X153.558 Y162.158 E25.42703
G1 X153.529 Y162.454 E25.44661
G1 X153.642 Y162.955 E25.48044
G1 X153.966 Y163.372 E25.51521
G1 X154.431 Y163.613 E25.5497
G1 X154.958 Y163.639 E25.58445
G1 X155.444 Y163.44 E25.61904
G1 X155.8 Y163.063 E25.65318
G1 X155.968 Y162.564 E25.68786
G1 X155.908 Y162.03 E25.72324
M204 S5000
G0 F1800 X155.803 Y161.86
G0 X156.334 Y161.883
M204 S500
;TYPE:WALL-INNER
G1 F900 X155.957 Y161.271 E25.77058
G1 X155.369 Y160.874 E25.8173
G1 X154.649 Y160.759 E25.86532
G1 X153.964 Y160.951 E25.91217
G1 X153.416 Y161.419 E25.95963
G1 X153.127 Y162.041 E26.0048
G1 X153.084 Y162.482 E26.03397
G1 X153.234 Y163.147 E26.07887
G1 X153.678 Y163.718 E26.1265
G1 X154.314 Y164.048 E26.17369
G1 X155.034 Y164.083 E26.22116
G1 X155.699 Y163.811 E26.26848
G1 X156.186 Y163.295 E26.3152
G1 X156.416 Y162.612 E26.36266
G1 X156.334 Y161.883 E26.41097
M204 S5000
G0 F1800 X156.428 Y161.851
G0 X158.259 Y164.462
G0 X158.189 Y164.532
M204 S500
G1 F900 X148.66 Y164.531 E27.03851
G1 X148.66 Y149.224 E28.04655
G1 X171.34 Y149.224 E29.54014
G1 X171.34 Y164.532 E30.54825
G1 X161.77 Y164.532 E31.17849
G1 X161.77 Y166.27 E31.29294
G1 X161.77 Y166.716 E31.32231
G1 X161.769 Y167.412 E31.36815
G1 X161.621 Y166.716 E31.37673
G1 X161.359 Y166.355 E31.39688
G1 X161.188 Y166.12 E31.41602
G1 X160.549 Y165.75 E31.46465
G1 X159.814 Y165.673 E31.51332
G1 X159.112 Y165.902 E31.56194
G1 X158.616 Y166.349 E31.60591
G1 X158.564 Y166.396 E31.61053
G1 X158.264 Y167.068 E31.65899
G1 X158.264 Y167.808 E31.70773
G1 X158.564 Y168.481 E31.75625
G1 X158.616 Y168.528 E31.76087
G1 X158.855 Y168.743 E31.78204
G1 X159.113 Y168.976 E31.80493
G1 X159.643 Y169.147 E31.84161
G1 X159.113 Y169.147 E31.84806
G1 X158.765 Y169.147 E31.86446
G1 X158.189 Y169.147 E31.90239
G1 X158.189 Y168.552 E31.94157
G1 X158.189 Y168.481 E31.94594
G1 X158.189 Y167.808 E31.96813
G1 X158.189 Y167.068 E31.97645
G1 X158.189 Y166.396 E31.9986
G1 X158.189 Y166.325 E32.00297
G1 X158.189 Y164.532 E32.12105
M204 S5000
G0 F1800 X158.629 Y165.389
M204 S500
G1 F900 X158.629 Y164.092 E32.20646
G1 X156.547 Y164.092 E32.34357
G1 X156.546 Y164.092 E32.34364
G1 X156.039 Y164.092 E32.37703
G1 X156.387 Y163.723 E32.3951
G1 X156.572 Y163.527 E32.41285
G1 X156.864 Y162.66 E32.47309
G1 X156.76 Y161.736 E32.53433
G1 X156.282 Y160.959 E32.59441
G1 X155.535 Y160.455 E32.65375
G1 X154.623 Y160.309 E32.71457
G1 X153.752 Y160.553 E32.77414
G1 X153.057 Y161.147 E32.83435
G1 X152.696 Y161.924 E32.89077
G1 X152.639 Y162.51 E32.92955
G1 X152.826 Y163.34 E32.98558
G1 X153.132 Y163.732 E33.01832
G1 X153.39 Y164.064 E33.04601
G1 X153.443 Y164.091 E33.04993
G1 X153.39 Y164.091 E33.04994
G1 X152.969 Y164.091 E33.066
G1 X149.1 Y164.091 E33.3208
G1 X149.1 Y149.664 E34.27089
G1 X170.9 Y149.664 E35.70653
G1 X170.9 Y164.092 E36.65668
G1 X167.047 Y164.092 E36.91042
G1 X167.046 Y164.092 E36.91049
G1 X166.539 Y164.092 E36.94388
G1 X166.887 Y163.723 E36.96195
G1 X167.072 Y163.527 E36.9797
G1 X167.364 Y162.66 E37.03994
G1 X167.26 Y161.736 E37.10118
G1 X166.782 Y160.959 E37.16125
G1 X166.035 Y160.455 E37.2206
G1 X165.123 Y160.309 E37.28142
G1 X164.252 Y160.553 E37.34099
G1 X163.557 Y161.147 E37.4012
G1 X163.196 Y161.924 E37.45762
G1 X163.139 Y162.51 E37.49639
G1 X163.326 Y163.34 E37.55242
G1 X163.632 Y163.733 E37.58522
G1 X163.89 Y164.064 E37.61286
G1 X163.944 Y164.092 E37.61687
G1 X163.89 Y164.092 E37.61689
G1 X163.47 Y164.092 E37.63292
G1 X161.33 Y164.092 E37.77385
G1 X161.33 Y165.314 E37.85433
G1 X161.33 Y165.315 E37.85439
G1 X161.33 Y165.694 E37.87935
G1 X161.001 Y165.504 E37.89353
G1 X160.688 Y165.322 E37.91737
G1 X159.767 Y165.226 E37.97836
G1 X159.004 Y165.475 E38.03121
G1 X158.887 Y165.513 E38.03931
G1 X158.629 Y165.745 E38.06216
G1 X158.629 Y165.513 E38.06512
G1 X158.629 Y165.389 E38.07193
M204 S5000
G0 F1800 X160.422 Y166.14
G0 X161.759 Y167.563
G0 X161.769 Y167.464
M204 S500
G1 F900 X161.769 Y168.16 E38.11777
G1 X161.769 Y168.607 E38.1472
G1 X161.769 Y169.148 E38.18283
G1 X161.234 Y169.148 E38.21806
G1 X161.187 Y169.148 E38.22116
G1 X160.548 Y169.148 E38.26324
G1 X160.342 Y169.148 E38.27681
G1 X160.548 Y169.126 E38.27721
G1 X161.187 Y168.757 E38.30259
G1 X161.214 Y168.72 E38.30545
G1 X161.359 Y168.521 E38.32167
G1 X161.621 Y168.16 E38.34177
G1 X161.769 Y167.464 E38.3503
M204 S5000
G0 F1800 X161.759 Y167.563
G0 X160.9 Y164.948
M204 S500
;TYPE:SKIN
G1 F900 X160.824 Y164.904 E38.35609
G1 X159.72 Y164.788 E38.42919
G1 X159.059 Y165.004 E38.47499
G1 X159.059 Y163.662 E38.56336
G1 X156.98 Y163.662 E38.70028
G1 X157.302 Y162.707 E38.76665
G1 X157.176 Y161.593 E38.84048
G1 X156.599 Y160.654 E38.91306
G1 X155.697 Y160.045 E38.98473
G1 X154.598 Y159.869 E39.05803
G1 X153.545 Y160.164 E39.13004
G1 X152.707 Y160.881 E39.20267
G1 X152.275 Y161.809 E39.27008
G1 X152.205 Y162.537 E39.31825
G1 X152.427 Y163.528 E39.38513
G1 X152.531 Y163.661 E39.39625
G1 X149.53 Y163.661 E39.59388
G1 X149.53 Y150.094 E40.48733
G1 X170.47 Y150.094 E41.86634
G1 X170.47 Y163.662 E42.75986
G1 X167.48 Y163.662 E42.95677
G1 X167.802 Y162.707 E43.02314
G1 X167.676 Y161.593 E43.09697
G1 X167.099 Y160.654 E43.16955
G1 X166.197 Y160.045 E43.24122
G1 X165.098 Y159.869 E43.31452
G1 X164.045 Y160.164 E43.38653
G1 X163.207 Y160.881 E43.45916
G1 X162.775 Y161.809 E43.52657
G1 X162.705 Y162.537 E43.57473
G1 X162.927 Y163.528 E43.64161
G1 X163.032 Y163.662 E43.65283
G1 X160.9 Y163.662 E43.79323
G1 X160.9 Y164.948 E43.87792
M204 S5000
G0 F1800 X158.217 Y164.504
G0 X155.049 Y164.166
G0 X150.392 Y163.459
M204 S500
G1 F900 X149.729 Y162.797 E43.93962
M204 S5000
G0 F1800 X149.729 Y162.174
M204 S500
G1 F900 X151.014 Y163.459 E44.0593
M204 S5000
G0 F1800 X151.636 Y163.459
M204 S500
G1 F900 X149.729 Y161.552 E44.2369
M204 S5000
G0 F1800 X149.729 Y160.93
M204 S500
G1 F900 X152.192 Y163.392 E44.46624
M204 S5000
G0 F1800 X152.012 Y162.59
M204 S500
G1 F900 X149.729 Y160.308 E44.67882
M204 S5000
G0 F1800 X149.729 Y159.685
M204 S500
G1 F900 X152.055 Y162.011 E44.89544
M204 S5000
G0 F1800 X152.188 Y161.522
M204 S500
G1 F900 X149.729 Y159.063 E45.12446
M204 S5000
G0 F1800 X149.729 Y158.441
M204 S500
G1 F900 X152.385 Y161.097 E45.37182
M204 S5000
G0 F1800 X152.609 Y160.699
M204 S500
G1 F900 X149.729 Y157.819 E45.64004
M204 S5000
G0 F1800 X149.729 Y157.196
M204 S500
G1 F900 X152.945 Y160.412 E45.93956
M204 S5000
G0 F1800 X153.28 Y160.125
M204 S500
G1 F900 X149.729 Y156.574 E46.27028
M204 S5000
G0 F1800 X149.729 Y155.952
M204 S500
G1 F900 X153.691 Y159.913 E46.63922
M204 S5000
G0 F1800 X154.176 Y159.777
M204 S500
G1 F900 X149.729 Y155.33 E47.05339
M204 S5000
G0 F1800 X149.729 Y154.707
M204 S500
G1 F900 X154.704 Y159.682 E47.51672
M204 S5000
G0 F1800 X155.444 Y159.8
M204 S500
G1 F900 X149.729 Y154.085 E48.04898
M204 S5000
G0 F1800 X149.729 Y153.463
M204 S500
G1 F900 X160.699 Y164.433 E49.07065
M204 S5000
G0 F1800 X160.289 Y164.644
M204 S500
G1 F900 X159.259 Y163.615 E49.16653
M204 S5000
G0 F1800 X159.105 Y163.461
M204 S500
G1 F900 X157.394 Y161.749 E49.32593
M204 S5000
G0 F1800 X157.474 Y162.452
M204 S500
G1 F900 X158.483 Y163.461 E49.4199
M204 S5000
G0 F1800 X157.86 Y163.461
M204 S500
G1 F900 X157.41 Y163.01 E49.46186
M204 S5000
G0 F1800 X159.259 Y164.237
M204 S500
G1 F900 X159.627 Y164.605 E49.49613
M204 S5000
G0 F1800 X160.699 Y163.811
M204 S500
G1 F900 X149.729 Y152.841 E50.5178
M204 S5000
G0 F1800 X149.729 Y152.218
M204 S500
G1 F900 X160.972 Y163.461 E51.56489
M204 S5000
G0 F1800 X161.594 Y163.461
M204 S500
G1 F900 X149.729 Y151.596 E52.66992
M204 S5000
G0 F1800 X149.729 Y150.974
M204 S500
G1 F900 X162.216 Y163.461 E53.83287
M204 S5000
G0 F1800 X162.669 Y163.292
M204 S500
G1 F900 X149.729 Y150.352 E55.03801
M204 S5000
G0 F1800 X150.293 Y150.293
M204 S500
G1 F900 X162.507 Y162.507 E56.17554
M204 S5000
G0 F1800 X162.561 Y161.939
M204 S500
G1 F900 X150.915 Y150.293 E57.26017
M204 S5000
G0 F1800 X151.537 Y150.293
M204 S500
G1 F900 X162.713 Y161.468 E58.30098
M204 S5000
G0 F1800 X162.91 Y161.043
M204 S500
G1 F900 X152.16 Y150.293 E59.30216
M204 S5000
G0 F1800 X152.782 Y150.293
M204 S500
G1 F900 X163.152 Y160.663 E60.26795
M204 S5000
G0 F1800 X163.488 Y160.376
M204 S500
G1 F900 X153.404 Y150.293 E61.20706
M204 S5000
G0 F1800 X154.026 Y150.293
M204 S500
G1 F900 X163.823 Y160.089 E62.11944
M204 S5000
G0 F1800 X164.253 Y159.897
M204 S500
G1 F900 X154.649 Y150.293 E63.01389
M204 S5000
G0 F1800 X155.271 Y150.293
M204 S500
G1 F900 X164.738 Y159.76 E63.89558
M204 S5000
G0 F1800 X165.298 Y159.697
M204 S500
