;FLAVOR:Marlin
;TIME:1415
;Filament used: 0.930941m
;Layer height: 0.2
;MINX:137.78
;MINY:132.28
;MINZ:0.3
;MAXX:182.22
;MAXY:177.72
;MAXZ:11.9
;Generated with Cura_SteamEngine 4.8.0
M140 S85
M105
M190 S85
M104 S240
M105
M109 S240
M82 ;absolute extrusion mode
G28 ;Home
G1 Z15.0 F6000 ;Move the platform down 15mm
;Prime the extruder
G92 E0
G1 F200 E3
G92 E0
G92 E0
G92 E0
G1 F2400 E-3
;LAYER_COUNT:59
;LAYER:0
M107
M204 S5000
M205 X5 Y5
G1 F600 Z0.8
G0 F1800 X140.917 Y135.736 Z0.8
M204 S500
;TYPE:SKIRT
G1 F600 Z0.3
G1 F2400 E0
G1 F1200 X141.57 Y135.11 E0.05957
G1 X142.399 Y134.455 E0.12915
G1 X142.91 Y134.108 E0.16983
G1 X143.126 Y133.97 E0.18671
G1 X143.908 Y133.517 E0.24622
G1 X144.728 Y133.136 E0.30577
G1 X145.578 Y132.828 E0.36531
G1 X146.33 Y132.624 E0.41662
G1 X146.888 Y132.506 E0.45418
G1 X147.168 Y132.455 E0.47292
G1 X148.063 Y132.333 E0.53241
G1 X148.675 Y132.294 E0.57279
G1 X149.454 Y132.281 E0.6241
G1 X170.296 Y132.28 E1.99665
G1 X171.162 Y132.292 E2.05369
G1 X172.064 Y132.346 E2.1132
G1 X172.997 Y132.487 E2.17534
G1 X173.369 Y132.561 E2.20031
G1 X174.247 Y132.777 E2.25986
G1 X175.102 Y133.069 E2.31936
G1 X175.929 Y133.436 E2.37894
G1 X177.044 Y134.081 E2.46377
G1 X177.371 Y134.299 E2.48965
G1 X178.1 Y134.834 E2.5492
G1 X178.779 Y135.43 E2.6087
G1 X179.403 Y136.084 E2.66823
G1 X180.029 Y136.878 E2.73481
G1 X180.103 Y136.982 E2.74322
G1 X180.391 Y137.408 E2.77708
G1 X180.511 Y137.596 E2.79177
G1 X180.963 Y138.379 E2.85131
G1 X181.344 Y139.199 E2.91086
G1 X181.651 Y140.049 E2.97037
G1 X181.879 Y140.908 E3.0289
G1 X181.973 Y141.337 E3.05782
G1 X182.127 Y142.227 E3.11731
G1 X182.209 Y143.376 E3.19317
G1 X182.22 Y144.216 E3.24849
G1 X182.219 Y165.943 E4.67932
G1 X182.209 Y166.624 E4.72417
G1 X182.156 Y167.526 E4.78368
G1 X182.036 Y168.354 E4.83877
G1 X181.975 Y168.68 E4.86062
G1 X181.769 Y169.56 E4.92014
G1 X181.487 Y170.419 E4.97968
G1 X181.211 Y171.077 E5.02667
G1 X181.117 Y171.281 E5.04146
G1 X180.703 Y172.084 E5.10095
G1 X180.165 Y172.925 E5.1667
G1 X180.02 Y173.129 E5.18318
G1 X179.464 Y173.842 E5.24273
G1 X178.848 Y174.503 E5.30223
G1 X178.175 Y175.107 E5.36178
G1 X177.572 Y175.566 E5.41169
G1 X177.491 Y175.623 E5.41821
G1 X177.068 Y175.905 E5.45169
G1 X176.829 Y176.056 E5.47031
G1 X176.044 Y176.505 E5.52986
G1 X175.223 Y176.882 E5.58936
G1 X174.371 Y177.185 E5.64891
G1 X173.783 Y177.347 E5.68907
G1 X173.676 Y177.373 E5.69633
G1 X173.088 Y177.498 E5.73591
G1 X172.829 Y177.545 E5.75325
G1 X171.933 Y177.667 E5.8128
G1 X171.368 Y177.703 E5.85008
G1 X171.042 Y177.712 E5.87156
G1 X170.354 Y177.72 E5.91687
G1 X149.557 Y177.719 E7.28646
G1 X148.876 Y177.709 E7.33131
G1 X147.974 Y177.656 E7.39081
G1 X147.146 Y177.536 E7.44591
G1 X146.82 Y177.475 E7.46775
G1 X145.94 Y177.269 E7.52727
G1 X145.081 Y176.987 E7.58681
G1 X144.423 Y176.711 E7.6338
G1 X144.219 Y176.617 E7.6486
G1 X143.416 Y176.203 E7.70809
G1 X142.602 Y175.684 E7.77167
G1 X142.398 Y175.54 E7.78811
G1 X141.684 Y174.987 E7.84758
G1 X141.02 Y174.372 E7.90719
G1 X140.414 Y173.702 E7.96668
G1 X139.9 Y173.024 E8.02271
G1 X139.601 Y172.577 E8.05813
G1 X139.449 Y172.337 E8.07684
G1 X139 Y171.553 E8.13633
G1 X138.621 Y170.732 E8.19588
G1 X138.317 Y169.881 E8.25539
G1 X138.148 Y169.264 E8.29752
G1 X138.121 Y169.152 E8.30511
G1 X137.99 Y168.524 E8.34736
G1 X137.944 Y168.262 E8.36488
G1 X137.827 Y167.366 E8.42438
G1 X137.794 Y166.792 E8.46225
G1 X137.788 Y166.542 E8.47871
G1 X137.78 Y165.854 E8.52403
G1 X137.782 Y144.041 E9.96052
G1 X137.793 Y143.334 E10.00709
G1 X137.847 Y142.432 E10.0666
G1 X137.96 Y141.649 E10.11869
G1 X138.07 Y141.08 E10.15686
G1 X138.101 Y140.939 E10.16637
G1 X138.334 Y140.066 E10.22587
G1 X138.644 Y139.217 E10.28539
G1 X139.027 Y138.398 E10.34493
G1 X139.564 Y137.488 E10.41452
G1 X139.79 Y137.147 E10.44146
G1 X140.322 Y136.416 E10.501
G1 X140.917 Y135.736 E10.5605
M204 S5000
G0 F1800 X148.456 Y142.948
M204 S500
;TYPE:SUPPORT
G1 F900 X148.709 Y142.781 E10.58047
G1 X149.02 Y142.72 E10.60134
G1 X170.98 Y142.72 E12.04751
G1 X171.306 Y142.785 E12.06941
G1 X171.552 Y142.954 E12.08906
G1 X171.717 Y143.207 E12.10895
G1 X171.78 Y143.522 E12.13011
G1 X171.78 Y145.08 E12.23271
G1 X167.08 Y145.08 E12.54223
G1 X167.08 Y151.92 E12.99268
G1 X171.78 Y151.92 E13.3022
G1 X171.78 Y161.58 E13.93836
G1 X167.08 Y161.58 E14.24787
G1 X167.08 Y167.28 E14.62325
G1 X152.92 Y167.28 E15.55576
G1 X152.92 Y161.58 E15.93113
G1 X148.22 Y161.58 E16.24065
G1 X148.221 Y151.92 E16.87681
G1 X152.92 Y151.92 E17.18626
G1 X152.92 Y145.08 E17.63671
G1 X148.221 Y145.08 E17.94616
G1 X148.221 Y143.516 E18.04916
G1 X148.285 Y143.196 E18.07065
G1 X148.456 Y142.948 E18.09049
M204 S5000
G0 F1800 X148.401 Y144
M204 S500
G1 F900 X171.6 Y144 E19.61826
M204 S5000
G0 F1800 X168 Y144.9
M204 S500
G1 F900 X168 Y142.9 E19.74997
M204 S5000
G0 F1800 X164 Y142.9
M204 S500
G1 F900 X164 Y167.1 E21.34366
M204 S5000
G0 F1800 X160 Y167.1
M204 S500
G1 F900 X160 Y142.9 E22.93736
M204 S5000
G0 F1800 X156 Y142.9
M204 S500
G1 F900 X156 Y167.1 E24.53105
M204 S5000
G0 F1800 X153.1 Y164
M204 S500
G1 F900 X166.9 Y164 E25.43985
M204 S5000
G1 F2400 E22.43985
G0 F1800 X168 Y161.4
M204 S500
G1 F2400 E25.43985
G1 F900 X168 Y152.1 E26.0523
M204 S5000
G0 F1800 X166.9 Y152
M204 S500
G1 F900 X153.1 Y152 E26.9611
M204 S5000
G0 F1800 X152 Y152.1
M204 S500
G1 F900 X152 Y161.4 E27.57355
M204 S5000
G0 F1800 X148.401 Y160
M204 S500
G1 F900 X171.6 Y160 E29.10133
M204 S5000
G0 F1800 X171.6 Y156
M204 S500
G1 F900 X148.401 Y156 E30.6291
M204 S5000
G1 F2400 E27.6291
G0 F1800 X152.653 Y151.653
G0 X153.1 Y148
M204 S500
G1 F2400 E30.6291
G1 F900 X166.9 Y148 E31.5379
M204 S5000
G0 F1800 X152 Y144.9
M204 S500
G1 F900 X152 Y142.9 E31.66961
M204 S5000
G1 F2400 E28.66961
;MESH:14061ff4-3436-4d52-a7f8-ee74a5d104c4.stl
G0 F1800 X151.326 Y145.335
G0 X151.326 Y146.674
G0 X151.27 Y150.27
G0 X151.78 Y150.78
M204 S500
;TYPE:WALL-OUTER
G1 F2400 E31.66961
G1 F900 X148.22 Y150.78 E31.90405
G1 X148.22 Y146.22 E32.20435
G1 X151.78 Y146.22 E32.43879
G1 X151.78 Y150.78 E32.73909
M204 S5000
G0 F1800 X151.58 Y150.78
G0 X151.296 Y150.296
G0 X151.34 Y150.34
M204 S500
;TYPE:WALL-INNER
G1 F900 X148.66 Y150.34 E32.91559
G1 X148.66 Y146.66 E33.15793
G1 X151.34 Y146.66 E33.33442
G1 X151.34 Y150.34 E33.57677
M204 S5000
G0 F1800 X150.9 Y149.9
M204 S500
G1 F900 X149.1 Y149.9 E33.69531
G1 X149.1 Y147.1 E33.8797
G1 X150.9 Y147.1 E33.99824
G1 X150.9 Y149.9 E34.18264
M204 S5000
G0 F1800 X150.47 Y149.47
M204 S500
;TYPE:SKIN
G1 F900 X149.53 Y149.47 E34.24454
G1 X149.53 Y147.53 E34.3723
G1 X150.47 Y147.53 E34.4342
G1 X150.47 Y149.47 E34.56196
M204 S5000
G0 F1800 X149.891 Y149.269
M204 S500
G1 F900 X149.729 Y149.106 E34.5771
M204 S5000
G0 F1800 X150.269 Y149.024
M204 S500
G1 F900 X149.729 Y148.484 E34.62739
M204 S5000
G0 F1800 X150.269 Y148.402
M204 S500
G1 F900 X149.729 Y147.862 E34.67768
M204 S5000
G1 F2400 E31.67768
G0 F1800 X151.27 Y150.32
G0 X151.27 Y151.665
G0 X151.27 Y161.835
G0 X151.27 Y163.18
G0 X151.27 Y166.77
G0 X151.78 Y167.28
M204 S500
;TYPE:WALL-OUTER
G1 F2400 E34.67768
G1 F900 X149.024 Y167.28 E34.85918
G1 X148.697 Y167.213 E34.88116
G1 X148.448 Y167.044 E34.90098
G1 X148.282 Y166.79 E34.92096
G1 X148.22 Y166.477 E34.94197
G1 X148.22 Y162.72 E35.18939
G1 X151.78 Y162.72 E35.42383
G1 X151.78 Y167.28 E35.72413
M204 S5000
G0 F1800 X151.58 Y167.28
G0 X151.296 Y166.796
G0 X151.34 Y166.84
M204 S500
;TYPE:WALL-INNER
G1 F900 X149.068 Y166.84 E35.87376
G1 X148.871 Y166.8 E35.88699
G1 X148.697 Y166.622 E35.90339
G1 X148.66 Y166.432 E35.91613
G1 X148.66 Y163.16 E36.13161
G1 X151.34 Y163.16 E36.3081
G1 X151.34 Y166.84 E36.55045
M204 S5000
G0 F1800 X150.9 Y166.4
M204 S500
G1 F900 X149.112 Y166.4 E36.6682
G1 X149.1 Y166.389 E36.66927
G1 X149.1 Y163.6 E36.85294
G1 X150.9 Y163.6 E36.97148
G1 X150.9 Y166.4 E37.15587
M204 S5000
G0 F1800 X150.47 Y165.97
M204 S500
;TYPE:SKIN
G1 F900 X149.53 Y165.97 E37.21778
G1 X149.53 Y164.03 E37.34554
G1 X150.47 Y164.03 E37.40744
G1 X150.47 Y165.97 E37.5352
M204 S5000
G0 F1800 X150.212 Y165.769
M204 S500
G1 F900 X149.729 Y165.286 E37.58018
M204 S5000
G0 F1800 X150.27 Y165.204
M204 S500
G1 F900 X149.729 Y164.663 E37.63057
M204 S5000
G0 F1800 X149.917 Y164.229
M204 S500
G1 F900 X150.27 Y164.581 E37.6634
M204 S5000
G1 F2400 E34.6634
G0 F1800 X151.32 Y166.422
G0 X152.665 Y166.422
G0 X167.335 Y166.422
G0 X168.68 Y166.422
G0 X171.241 Y166.422
G0 X171.78 Y166.476
M204 S500
;TYPE:WALL-OUTER
G1 F2400 E37.6634
G1 F900 X171.713 Y166.803 E37.68538
G1 X171.544 Y167.052 E37.7052
G1 X171.29 Y167.218 E37.72518
G1 X170.977 Y167.28 E37.74619
G1 X168.22 Y167.28 E37.92776
G1 X168.22 Y162.72 E38.22805
G1 X171.78 Y162.72 E38.4625
G1 X171.78 Y166.476 E38.70985
M204 S5000
G0 F1800 X171.74 Y166.672
G0 X171.265 Y166.574
G0 X171.34 Y166.432
M204 S500
;TYPE:WALL-INNER
G1 F900 X171.3 Y166.629 E38.72309
G1 X171.122 Y166.803 E38.73948
G1 X170.932 Y166.84 E38.75223
G1 X168.66 Y166.84 E38.90185
G1 X168.66 Y163.16 E39.1442
G1 X171.34 Y163.16 E39.32069
G1 X171.34 Y166.432 E39.53617
M204 S5000
G0 F1800 X170.9 Y166.388
M204 S500
G1 F900 X170.889 Y166.4 E39.53724
G1 X169.1 Y166.4 E39.65505
G1 X169.1 Y163.6 E39.83945
G1 X170.9 Y163.6 E39.95799
G1 X170.9 Y166.388 E40.14159
M204 S5000
G0 F1800 X170.47 Y165.97
M204 S500
;TYPE:SKIN
G1 F900 X169.53 Y165.97 E40.20349
G1 X169.53 Y164.03 E40.33125
G1 X170.47 Y164.03 E40.39316
G1 X170.47 Y165.97 E40.52092
M204 S5000
G0 F1800 X170.125 Y165.769
M204 S500
G1 F900 X169.729 Y165.373 E40.5578
M204 S5000
G0 F1800 X170.269 Y165.291
M204 S500
G1 F900 X169.729 Y164.751 E40.60809
M204 S5000
G0 F1800 X169.83 Y164.23
M204 S500
G1 F900 X170.269 Y164.668 E40.64893
M204 S5000
G1 F2400 E37.64893
G0 F1800 X171.27 Y163.18
G0 X171.27 Y161.835
G0 X171.27 Y151.665
G0 X171.27 Y150.32
G0 X171.78 Y150.78
M204 S500
;TYPE:WALL-OUTER
G1 F2400 E40.64893
G1 F900 X168.22 Y150.78 E40.88337
G1 X168.22 Y146.22 E41.18367
G1 X171.78 Y146.22 E41.41811
G1 X171.78 Y150.78 E41.71841
M204 S5000
G0 F1800 X171.58 Y150.78
G0 X171.296 Y150.296
G0 X171.34 Y150.34
M204 S500
;TYPE:WALL-INNER
G1 F900 X168.66 Y150.34 E41.89491
G1 X168.66 Y146.66 E42.13725
G1 X171.34 Y146.66 E42.31374
G1 X171.34 Y150.34 E42.55609
M204 S5000
G0 F1800 X170.9 Y149.9
M204 S500
G1 F900 X169.1 Y149.9 E42.67463
G1 X169.1 Y147.1 E42.85902
G1 X170.9 Y147.1 E42.97756
G1 X170.9 Y149.9 E43.16196
M204 S5000
G0 F1800 X170.47 Y149.47
M204 S500
;TYPE:SKIN
G1 F900 X169.53 Y149.47 E43.22386
G1 X169.53 Y147.53 E43.35162
G1 X170.47 Y147.53 E43.41352
G1 X170.47 Y149.47 E43.54128
M204 S5000
G0 F1800 X169.803 Y149.269
M204 S500
G1 F900 X169.729 Y149.195 E43.54817
M204 S5000
G0 F1800 X170.269 Y149.112
M204 S500
G1 F900 X169.729 Y148.573 E43.59842
M204 S5000
G0 F1800 X170.269 Y148.49
M204 S500
G1 F900 X169.729 Y147.95 E43.64871
M204 S5000
G0 F1800 X170.131 Y147.73
M204 S500
G1 F900 X170.269 Y147.868 E43.66156
M204 S5000
G1 F2400 E40.66156
;MESH:NONMESH
G0 F600 X170.269 Y147.868 Z0.5
G0 F1800 X168.674 Y146.674
G0 X167.335 Y146.674
G0 X152 Y142.7
;TIME_ELAPSED:58.687732
;LAYER:1
M106 S255
M204 S500
;TYPE:SUPPORT
G1 F2400 E43.66156
G1 F3000 X149.016 Y142.7 E43.76081
G1 X148.702 Y142.761 E43.77145
G1 X148.444 Y142.932 E43.78175
G1 X148.266 Y143.19 E43.79217
G1 X148.201 Y143.512 E43.8031
G1 X148.201 Y145.1 E43.85591
G1 X152 Y145.1 E43.98227
G1 X152 Y142.7 E44.06209
G1 X156 Y142.7 E44.19513
G1 X156 Y167.3 E45.01333
G1 X160 Y167.3 E45.14637
G1 X160 Y142.7 E45.96457
G1 X164 Y142.7 E46.09761
G1 X164 Y167.3 E46.91581
G1 X167.1 Y167.3 E47.01892
G1 X167.1 Y161.6 E47.2085
G1 X168 Y161.6 E47.23844
G1 X168 Y151.9 E47.56106
G1 X167.1 Y151.9 E47.59099
G1 X167.1 Y145.1 E47.81716
G1 X168 Y145.1 E47.8471
G1 X168 Y142.7 E47.92692
G1 X170.981 Y142.7 E48.02607
G1 X171.314 Y142.767 E48.03737
G1 X171.567 Y142.941 E48.04758
G1 X171.736 Y143.2 E48.05787
G1 X171.8 Y143.518 E48.06865
G1 X171.8 Y145.1 E48.12127
G1 X168 Y145.1 E48.24766
M204 S5000
G1 F2400 E45.24766
G0 F7200 X167.347 Y151.653
G0 X168 Y151.9
M204 S500
G1 F2400 E48.24766
G1 F3000 X171.8 Y151.9 E48.37405
G1 X171.8 Y161.6 E48.69667
G1 X168 Y161.6 E48.82306
M204 S5000
G0 F7200 X152 Y151.9
M204 S500
G1 F3000 X148.201 Y151.9 E48.94942
G1 X148.2 Y161.6 E49.27204
G1 X152 Y161.6 E49.39843
G1 X152 Y151.9 E49.72105
G1 X152.9 Y151.9 E49.75099
G1 X152.9 Y145.1 E49.97715
G1 X152 Y145.1 E50.00709
M204 S5000
G1 F2400 E47.00709
;MESH:14061ff4-3436-4d52-a7f8-ee74a5d104c4.stl
G0 F7200 X151.386 Y146.614
G0 X151.33 Y150.33
G0 X151.8 Y150.8
M204 S500
;TYPE:WALL-OUTER
G1 F2400 E50.00709
G1 F1500 X148.2 Y150.8 E50.12682
G1 X148.2 Y146.2 E50.27982
G1 X151.8 Y146.2 E50.39956
G1 X151.8 Y150.8 E50.55255
M204 S5000
G0 F7200 X151.6 Y150.8
G0 X151.36 Y150.36
G0 X151.4 Y150.4
M204 S500
;TYPE:WALL-INNER
G1 F3000 X148.6 Y150.4 E50.64568
G1 X148.6 Y146.6 E50.77207
G1 X151.4 Y146.6 E50.8652
G1 X151.4 Y150.4 E50.99159
M204 S5000
G0 F7200 X151 Y150
M204 S500
G1 F3000 X149 Y150 E51.05811
G1 X149 Y147 E51.15789
G1 X151 Y147 E51.22441
G1 X151 Y150 E51.32419
M204 S5000
G0 F7200 X150.61 Y149.61
M204 S500
;TYPE:SKIN
G1 F1500 X149.39 Y149.61 E51.36477
G1 X149.39 Y147.39 E51.4386
G1 X150.61 Y147.39 E51.47918
G1 X150.61 Y149.61 E51.55302
M204 S5000
G0 F7200 X150.429 Y148.818
M204 S500
G1 F1500 X149.817 Y149.43 E51.58181
M204 S5000
G0 F7200 X149.569 Y149.112
M204 S500
G1 F1500 X150.429 Y148.252 E51.62226
M204 S5000
G0 F7200 X150.429 Y147.687
M204 S500
G1 F1500 X149.569 Y148.546 E51.66269
M204 S5000
G0 F7200 X149.569 Y147.981
M204 S500
G1 F1500 X149.98 Y147.569 E51.68204
M204 S5000
G1 F2400 E48.68204
G0 F7200 X151.33 Y150.38
G0 X151.33 Y151.665
G0 X151.33 Y161.835
G0 X151.33 Y163.12
G0 X151.33 Y166.83
G0 X151.8 Y167.3
M204 S500
;TYPE:WALL-OUTER
G1 F2400 E51.68204
G1 F1500 X149.023 Y167.3 E51.77441
G1 X148.679 Y167.226 E51.78611
G1 X148.426 Y167.049 E51.79638
G1 X148.259 Y166.786 E51.80674
G1 X148.2 Y166.483 E51.81701
G1 X148.2 Y162.7 E51.94283
G1 X151.8 Y162.7 E52.06257
G1 X151.8 Y167.3 E52.21556
M204 S5000
G0 F7200 X151.6 Y167.3
G0 X151.36 Y166.86
G0 X151.4 Y166.9
M204 S500
;TYPE:WALL-INNER
G1 F3000 X149.065 Y166.9 E52.29323
G1 X148.842 Y166.852 E52.30081
G1 X148.721 Y166.767 E52.30573
G1 X148.638 Y166.636 E52.31089
G1 X148.623 Y166.558 E52.31353
G1 X148.609 Y166.486 E52.31597
G1 X148.6 Y166.443 E52.31743
G1 X148.6 Y163.1 E52.42862
G1 X151.4 Y163.1 E52.52175
G1 X151.4 Y166.9 E52.64814
M204 S5000
G0 F7200 X151 Y166.5
M204 S500
G1 F3000 X149.107 Y166.5 E52.7111
G1 X149.014 Y166.48 E52.71426
G1 X149 Y166.407 E52.71673
G1 X149 Y163.5 E52.81342
G1 X151 Y163.5 E52.87994
G1 X151 Y166.5 E52.97972
M204 S5000
G0 F7200 X150.61 Y166.11
M204 S500
;TYPE:SKIN
G1 F1500 X149.39 Y166.11 E53.0203
G1 X149.39 Y163.89 E53.09414
G1 X150.61 Y163.89 E53.13471
G1 X150.61 Y166.11 E53.20855
M204 S5000
G0 F7200 X150.288 Y165.929
M204 S500
G1 F1500 X150.429 Y165.788 E53.21518
M204 S5000
G0 F7200 X150.429 Y165.222
M204 S500
G1 F1500 X149.722 Y165.929 E53.24844
M204 S5000
G0 F7200 X149.57 Y165.516
M204 S500
G1 F1500 X150.429 Y164.656 E53.28887
M204 S5000
G0 F7200 X150.429 Y164.091
M204 S500
G1 F1500 X149.57 Y164.951 E53.3293
M204 S5000
G0 F7200 X149.57 Y164.385
M204 S500
G1 F1500 X149.886 Y164.069 E53.34416
M204 S5000
G1 F2400 E50.34416
G0 F7200 X151.38 Y166.425
G0 X152.665 Y166.425
G0 X167.335 Y166.425
G0 X168.62 Y166.425
G0 X171.301 Y166.425
G0 X171.8 Y166.477
M204 S500
;TYPE:WALL-OUTER
G1 F2400 E53.34416
G1 F1500 X171.726 Y166.821 E53.35586
G1 X171.549 Y167.074 E53.36613
G1 X171.286 Y167.241 E53.37649
G1 X170.983 Y167.3 E53.38676
G1 X168.2 Y167.3 E53.47932
G1 X168.2 Y162.7 E53.63232
G1 X171.8 Y162.7 E53.75206
G1 X171.8 Y166.477 E53.87768
M204 S5000
G0 F7200 X171.758 Y166.673
G0 X171.327 Y166.58
G0 X171.4 Y166.435
M204 S500
;TYPE:WALL-INNER
G1 F3000 X171.352 Y166.658 E53.88527
G1 X171.267 Y166.779 E53.89019
G1 X171.136 Y166.862 E53.89534
G1 X171.058 Y166.877 E53.89799
G1 X170.986 Y166.891 E53.90043
G1 X170.943 Y166.9 E53.90189
G1 X168.6 Y166.9 E53.97982
G1 X168.6 Y163.1 E54.1062
G1 X171.4 Y163.1 E54.19933
G1 X171.4 Y166.435 E54.31025
M204 S5000
G0 F7200 X171 Y166.393
M204 S500
G1 F3000 X170.98 Y166.486 E54.31342
G1 X170.907 Y166.5 E54.31589
G1 X169 Y166.5 E54.37932
G1 X169 Y163.5 E54.4791
G1 X171 Y163.5 E54.54562
G1 X171 Y166.393 E54.64184
M204 S5000
