;FLAVOR:Marlin
;TIME:1768
;Filament used: 1.26416m
;Layer height: 0.2
;MINX:133.78
;MINY:132.278
;MINZ:0.3
;MAXX:186.22
;MAXY:177.722
;MAXZ:11.9
;Generated with Cura_SteamEngine 4.8.0
M140 S85
M105
M190 S85
M104 S240
M105
M109 S240
M82 ;absolute extrusion mode
G28 ;Home
G1 Z15.0 F6000 ;Move the platform down 15mm
;Prime the extruder
G92 E0
G1 F200 E3
G92 E0
G92 E0
G92 E0
G1 F2400 E-3
;LAYER_COUNT:59
;LAYER:0
M107
M204 S5000
M205 X5 Y5
G1 F600 Z0.8
G0 F1800 X136.999 Y135.657 Z0.8
M204 S500
;TYPE:SKIRT
G1 F600 Z0.3
G1 F2400 E0
G1 F1200 X137.156 Y135.5 E0.01462
G1 X137.823 Y134.89 E0.07415
G1 X138.541 Y134.341 E0.13367
G1 X139.528 Y133.734 E0.20998
G1 X139.641 Y133.673 E0.21843
G1 X140.217 Y133.385 E0.26084
G1 X140.499 Y133.255 E0.28129
G1 X141.336 Y132.913 E0.34084
G1 X142.2 Y132.646 E0.40039
G1 X143.084 Y132.457 E0.45992
G1 X143.869 Y132.356 E0.51204
G1 X144.037 Y132.341 E0.52315
G1 X144.546 Y132.309 E0.55674
G1 X145.141 Y132.289 E0.59594
G1 X145.872 Y132.28 E0.64409
G1 X152.02 Y132.278 E1.04896
G1 X153.059 Y132.28 E1.11739
G1 X174.309 Y132.281 E2.51681
G1 X175.113 Y132.291 E2.56976
G1 X176.049 Y132.347 E2.63151
G1 X176.295 Y132.373 E2.6478
G1 X177.189 Y132.507 E2.70733
G1 X178.068 Y132.72 E2.7669
G1 X179.299 Y133.165 E2.8531
G1 X179.43 Y133.222 E2.86251
G1 X179.95 Y133.466 E2.90033
G1 X180.216 Y133.6 E2.91995
G1 X181.005 Y134.042 E2.9795
G1 X181.751 Y134.552 E3.03902
G1 X182.449 Y135.126 E3.09853
G1 X182.845 Y135.5 E3.1344
G1 X182.991 Y135.646 E3.148
G1 X183.601 Y136.313 E3.20752
G1 X184.15 Y137.031 E3.26704
G1 X184.628 Y137.787 E3.32595
G1 X184.698 Y137.909 E3.33521
G1 X185.104 Y138.691 E3.39324
G1 X185.234 Y138.971 E3.41357
G1 X185.578 Y139.807 E3.4731
G1 X185.847 Y140.67 E3.53263
G1 X186.038 Y141.554 E3.59219
G1 X186.116 Y142.097 E3.62832
G1 X186.142 Y142.321 E3.64317
G1 X186.209 Y143.34 E3.71042
G1 X186.22 Y144.14 E3.76311
G1 X186.219 Y145.939 E3.88158
G1 X186.209 Y146.637 E3.92755
G1 X186.184 Y147.213 E3.96552
G1 X186.092 Y148.512 E4.05128
G1 X186.088 Y148.688 E4.06287
G1 X186.031 Y149.424 E4.11149
G1 X185.91 Y151.941 E4.27744
G1 X185.86 Y154.475 E4.44435
G1 X185.881 Y157.041 E4.61334
G1 X185.973 Y159.543 E4.77822
G1 X186.187 Y162.811 E4.99389
G1 X186.208 Y163.322 E5.02757
G1 X186.22 Y164.173 E5.08362
G1 X186.218 Y165.974 E5.20222
G1 X186.209 Y166.618 E5.24464
G1 X186.153 Y167.549 E5.30606
G1 X186.127 Y167.795 E5.32235
G1 X185.993 Y168.689 E5.38188
G1 X185.78 Y169.568 E5.44145
G1 X185.335 Y170.799 E5.52765
G1 X185.278 Y170.93 E5.53706
G1 X185.041 Y171.436 E5.57385
G1 X184.909 Y171.699 E5.59323
G1 X184.468 Y172.489 E5.65281
G1 X183.959 Y173.236 E5.71234
G1 X183.387 Y173.935 E5.77182
G1 X182.978 Y174.365 E5.81091
G1 X182.823 Y174.519 E5.82529
G1 X182.154 Y175.127 E5.88483
G1 X181.434 Y175.674 E5.94438
G1 X180.649 Y176.166 E6.00539
G1 X180.534 Y176.231 E6.01409
G1 X179.798 Y176.609 E6.06857
G1 X179.515 Y176.74 E6.08911
G1 X178.679 Y177.083 E6.14862
G1 X177.815 Y177.35 E6.20817
G1 X176.932 Y177.541 E6.26767
G1 X176.071 Y177.65 E6.32482
G1 X175.454 Y177.691 E6.36554
G1 X174.859 Y177.711 E6.40475
G1 X174.128 Y177.72 E6.45289
G1 X167.98 Y177.722 E6.85777
G1 X166.941 Y177.72 E6.92619
G1 X145.707 Y177.72 E8.32456
G1 X144.903 Y177.71 E8.37751
G1 X144.013 Y177.659 E8.43622
G1 X143.746 Y177.632 E8.45389
G1 X142.851 Y177.502 E8.51345
G1 X141.972 Y177.292 E8.57297
G1 X141.114 Y177.006 E8.63253
G1 X140.571 Y176.78 E8.67126
G1 X140.028 Y176.524 E8.71079
G1 X139.769 Y176.393 E8.72991
G1 X138.981 Y175.95 E8.78944
G1 X138.236 Y175.438 E8.84897
G1 X137.538 Y174.863 E8.90853
G1 X137.132 Y174.477 E8.94542
G1 X136.976 Y174.32 E8.95999
G1 X136.368 Y173.651 E9.01953
G1 X135.821 Y172.931 E9.07907
G1 X135.22 Y171.947 E9.15501
G1 X135.161 Y171.837 E9.16323
G1 X134.897 Y171.309 E9.2021
G1 X134.774 Y171.044 E9.22134
G1 X134.43 Y170.208 E9.28088
G1 X134.161 Y169.345 E9.34041
G1 X133.97 Y168.461 E9.39997
G1 X133.864 Y167.646 E9.45409
G1 X133.844 Y167.421 E9.46896
G1 X133.806 Y166.722 E9.51507
G1 X133.782 Y165.53 E9.59358
G1 X133.78 Y165.324 E9.60715
G1 X133.781 Y144.069 E11.0069
G1 X133.79 Y143.403 E11.05076
G1 X133.844 Y142.487 E11.11119
G1 X133.872 Y142.217 E11.12906
G1 X134.004 Y141.323 E11.18858
G1 X134.216 Y140.444 E11.24812
G1 X134.504 Y139.587 E11.30766
G1 X134.731 Y139.047 E11.34624
G1 X134.976 Y138.528 E11.38403
G1 X135.106 Y138.271 E11.403
G1 X135.55 Y137.483 E11.46257
G1 X136.061 Y136.738 E11.52206
G1 X136.636 Y136.04 E11.58162
G1 X136.999 Y135.657 E11.61637
M204 S5000
G1 F2400 E8.61637
G0 F1800 X143.347 Y148.153
G0 X144.22 Y148.42
M204 S500
;TYPE:SUPPORT
G1 F2400 E11.61637
G1 F900 X152.92 Y148.42 E12.18931
G1 X152.92 Y142.72 E12.56468
G1 X167.08 Y142.72 E13.49719
G1 X167.08 Y148.42 E13.87256
G1 X169.78 Y148.42 E14.05037
G1 X169.78 Y161.58 E14.91702
G1 X167.08 Y161.58 E15.09483
G1 X167.08 Y167.28 E15.47021
G1 X152.92 Y167.28 E16.40271
G1 X152.92 Y161.58 E16.77809
G1 X144.22 Y161.58 E17.35103
G1 X144.22 Y148.42 E18.21768
M204 S5000
G0 F1800 X144.4 Y152
M204 S500
G1 F900 X169.6 Y152 E19.87723
M204 S5000
G0 F1800 X168 Y148.6
M204 S500
G1 F900 X168 Y161.4 E20.72017
M204 S5000
G0 F1800 X169.6 Y160
M204 S500
G1 F900 X144.4 Y160 E22.37972
M204 S5000
G0 F1800 X148 Y161.4
M204 S500
G1 F900 X148 Y148.6 E23.22266
M204 S5000
G0 F1800 X152 Y148.6
M204 S500
G1 F900 X152 Y161.4 E24.06561
M204 S5000
G1 F2400 E21.06561
G0 F1800 X153.1 Y164
M204 S500
G1 F2400 E24.06561
G1 F900 X166.9 Y164 E24.97441
M204 S5000
G0 F1800 X164 Y167.1
M204 S500
G1 F900 X164 Y142.9 E26.5681
M204 S5000
G0 F1800 X166.9 Y144
M204 S500
G1 F900 X153.1 Y144 E27.4769
M204 S5000
G0 F1800 X156 Y142.9
M204 S500
G1 F900 X156 Y167.1 E29.07059
M204 S5000
G0 F1800 X160 Y167.1
M204 S500
G1 F900 X160 Y142.9 E30.66429
M204 S5000
G0 F1800 X153.1 Y148
M204 S500
G1 F900 X166.9 Y148 E31.57309
M204 S5000
G0 F1800 X169.6 Y156
M204 S500
G1 F900 X144.4 Y156 E33.23263
M204 S5000
G1 F2400 E30.23263
;MESH:0bdd9462-9a47-4573-81b7-946c54669977.stl
G0 F1800 X144.674 Y148.165
G0 X144.674 Y146.826
G0 X151.27 Y146.77
G0 X151.78 Y147.28
M204 S500
;TYPE:WALL-OUTER
G1 F2400 E33.23263
G1 F900 X144.22 Y147.28 E33.7305
G1 X144.22 Y143.509 E33.97884
G1 X144.241 Y143.334 E33.99044
G1 X144.399 Y143.009 E34.01424
G1 X144.514 Y142.895 E34.02491
G1 X144.831 Y142.743 E34.04806
G1 X145.245 Y142.72 E34.07536
G1 X151.78 Y142.72 E34.50573
G1 X151.78 Y147.28 E34.80603
M204 S5000
G0 F1800 X151.58 Y147.28
G0 X151.296 Y146.796
G0 X151.34 Y146.84
M204 S500
;TYPE:WALL-INNER
G1 F900 X144.66 Y146.84 E35.24594
G1 X144.66 Y143.536 E35.46352
G1 X144.77 Y143.26 E35.48309
G1 X144.944 Y143.177 E35.49579
G1 X145.232 Y143.162 E35.51478
G1 X145.251 Y143.16 E35.51604
G1 X151.34 Y143.16 E35.91703
G1 X151.34 Y146.84 E36.15937
M204 S5000
G0 F1800 X150.9 Y146.4
M204 S500
G1 F900 X145.1 Y146.4 E36.54133
G1 X145.1 Y143.621 E36.72434
G1 X145.257 Y143.6 E36.73478
G1 X150.9 Y143.6 E37.1064
G1 X150.9 Y146.4 E37.29079
M204 S5000
G0 F1800 X150.47 Y145.97
M204 S500
;TYPE:SKIN
G1 F900 X145.53 Y145.97 E37.61611
G1 X145.53 Y144.03 E37.74387
G1 X150.47 Y144.03 E38.0692
G1 X150.47 Y145.97 E38.19696
M204 S5000
G0 F1800 X150.268 Y144.668
M204 S500
G1 F900 X149.83 Y144.229 E38.2378
M204 S5000
G0 F1800 X149.208 Y144.229
M204 S500
G1 F900 X150.268 Y145.29 E38.33656
M204 S5000
G0 F1800 X150.125 Y145.769
M204 S500
G1 F900 X148.585 Y144.229 E38.47999
M204 S5000
G0 F1800 X147.963 Y144.229
M204 S500
G1 F900 X149.502 Y145.769 E38.62337
M204 S5000
G0 F1800 X148.88 Y145.769
M204 S500
G1 F900 X147.341 Y144.229 E38.76674
M204 S5000
G0 F1800 X146.719 Y144.229
M204 S500
G1 F900 X148.258 Y145.769 E38.91012
M204 S5000
G0 F1800 X147.636 Y145.769
M204 S500
G1 F900 X146.096 Y144.229 E39.05355
M204 S5000
G0 F1800 X145.729 Y144.484
M204 S500
G1 F900 X147.013 Y145.769 E39.17318
M204 S5000
G0 F1800 X146.391 Y145.769
M204 S500
G1 F900 X145.729 Y145.106 E39.23488
G1 X145.659 Y145.036
M204 S5000
G1 F2400 E36.23488
G0 F1800 X151.27 Y146.82
G0 X151.27 Y148.165
G0 X151.27 Y161.835
G0 X151.27 Y163.18
G0 X151.27 Y166.77
G0 X151.78 Y167.28
M204 S500
;TYPE:WALL-OUTER
G1 F2400 E39.23488
G1 F900 X145.009 Y167.28 E39.68078
G1 X144.834 Y167.259 E39.69239
G1 X144.509 Y167.101 E39.71619
G1 X144.395 Y166.986 E39.72685
G1 X144.241 Y166.666 E39.75024
G1 X144.22 Y166.367 E39.76998
G1 X144.22 Y162.72 E40.01015
G1 X151.78 Y162.72 E40.50802
G1 X151.78 Y167.28 E40.80832
M204 S5000
G0 F1800 X151.58 Y167.28
G0 X151.296 Y166.796
G0 X151.34 Y166.84
M204 S500
;TYPE:WALL-INNER
G1 F900 X145.036 Y166.84 E41.22347
G1 X144.759 Y166.728 E41.24314
G1 X144.674 Y166.552 E41.25601
G1 X144.66 Y166.35 E41.26935
G1 X144.66 Y163.16 E41.47943
G1 X151.34 Y163.16 E41.91934
G1 X151.34 Y166.84 E42.16168
M204 S5000
G0 F1800 X150.9 Y166.4
M204 S500
G1 F900 X145.122 Y166.4 E42.5422
G1 X145.1 Y166.334 E42.54678
G1 X145.1 Y163.6 E42.72682
G1 X150.9 Y163.6 E43.10878
G1 X150.9 Y166.4 E43.29318
M204 S5000
G0 F1800 X150.47 Y165.97
M204 S500
;TYPE:SKIN
G1 F900 X145.53 Y165.97 E43.6185
G1 X145.53 Y164.03 E43.74626
G1 X150.47 Y164.03 E44.07158
G1 X150.47 Y165.97 E44.19934
M204 S5000
G0 F1800 X150.27 Y164.581
M204 S500
G1 F900 X149.917 Y164.229 E44.23217
M204 S5000
G0 F1800 X149.295 Y164.229
M204 S500
G1 F900 X150.27 Y165.204 E44.32298
M204 S5000
G0 F1800 X150.212 Y165.769
M204 S500
G1 F900 X148.673 Y164.229 E44.46636
M204 S5000
G0 F1800 X148.051 Y164.229
M204 S500
G1 F900 X149.59 Y165.769 E44.60973
M204 S5000
G0 F1800 X148.968 Y165.769
M204 S500
G1 F900 X147.428 Y164.229 E44.75316
M204 S5000
G0 F1800 X146.806 Y164.229
M204 S500
G1 F900 X148.346 Y165.769 E44.89658
M204 S5000
G0 F1800 X147.723 Y165.769
M204 S500
G1 F900 X146.184 Y164.229 E45.03996
M204 S5000
G0 F1800 X145.729 Y164.397
M204 S500
G1 F900 X147.101 Y165.769 E45.16774
M204 S5000
G0 F1800 X146.479 Y165.769
M204 S500
G1 F900 X145.729 Y165.019 E45.23759
M204 S5000
G0 F1800 X145.729 Y165.641
M204 S500
G1 F900 X145.857 Y165.769 E45.24951
M204 S5000
G1 F2400 E42.24951
G0 F1800 X151.32 Y163.263
G0 X152.665 Y163.263
G0 X167.335 Y163.263
G0 X168.68 Y163.263
G0 X174.955 Y163.263
G0 X175.166 Y162.741
M204 S500
;TYPE:WALL-OUTER
G1 F2400 E45.24951
G1 F900 X175.491 Y162.899 E45.27331
G1 X175.605 Y163.014 E45.28397
G1 X175.76 Y163.336 E45.30751
G1 X175.78 Y163.516 E45.31944
G1 X175.779 Y166.491 E45.51535
G1 X175.758 Y166.668 E45.52709
G1 X175.601 Y166.991 E45.55074
G1 X175.486 Y167.105 E45.56141
G1 X175.169 Y167.257 E45.58456
G1 X174.755 Y167.28 E45.61187
G1 X168.22 Y167.28 E46.04223
G1 X168.22 Y162.72 E46.34253
G1 X174.991 Y162.72 E46.78843
G1 X175.166 Y162.741 E46.80004
M204 S5000
G0 F1800 X175.346 Y162.828
G0 X175.134 Y163.263
G0 X174.964 Y163.16
M204 S500
;TYPE:WALL-INNER
G1 F900 X175.241 Y163.272 E46.81972
G1 X175.311 Y163.462 E46.83305
G1 X175.34 Y163.538 E46.83841
G1 X175.339 Y166.464 E47.0311
G1 X175.23 Y166.74 E47.05064
G1 X175.056 Y166.823 E47.06334
G1 X174.768 Y166.838 E47.08233
G1 X174.749 Y166.84 E47.08359
G1 X168.66 Y166.84 E47.48458
G1 X168.66 Y163.16 E47.72693
G1 X174.964 Y163.16 E48.14208
M204 S5000
G0 F1800 X174.878 Y163.6
M204 S500
G1 F900 X174.9 Y163.616 E48.14387
G1 X174.9 Y163.822 E48.15743
G1 X174.899 Y166.38 E48.32589
G1 X174.743 Y166.4 E48.33625
G1 X169.1 Y166.4 E48.70787
G1 X169.1 Y163.6 E48.89226
G1 X174.672 Y163.6 E49.25921
G1 X174.878 Y163.6 E49.27277
M204 S5000
G0 F1800 X174.47 Y164.03
M204 S500
;TYPE:SKIN
G1 F900 X174.469 Y165.97 E49.40053
G1 X169.53 Y165.97 E49.72579
G1 X169.53 Y164.03 E49.85355
G1 X174.47 Y164.03 E50.17887
M204 S5000
G0 F1800 X174.269 Y164.313
M204 S500
G1 F900 X174.185 Y164.229 E50.1867
M204 S5000
G0 F1800 X173.563 Y164.229
M204 S500
G1 F900 X174.269 Y164.935 E50.25245
M204 S5000
G0 F1800 X174.268 Y165.557
M204 S500
G1 F900 X172.941 Y164.229 E50.37608
M204 S5000
G0 F1800 X172.319 Y164.229
M204 S500
G1 F900 X173.859 Y165.769 E50.51951
M204 S5000
G0 F1800 X173.236 Y165.769
M204 S500
G1 F900 X171.696 Y164.229 E50.66293
M204 S5000
G0 F1800 X171.074 Y164.229
M204 S500
G1 F900 X172.614 Y165.769 E50.80636
M204 S5000
G0 F1800 X171.992 Y165.769
M204 S500
G1 F900 X170.452 Y164.229 E50.94978
M204 S5000
G0 F1800 X169.83 Y164.229
M204 S500
G1 F900 X171.37 Y165.769 E51.09321
M204 S5000
G0 F1800 X170.747 Y165.769
M204 S500
G1 F900 X169.729 Y164.751 E51.18802
M204 S5000
G0 F1800 X169.729 Y165.373
M204 S500
G1 F900 X170.125 Y165.769 E51.2249
M204 S5000
G1 F2400 E48.2249
G0 F1800 X168.73 Y163.18
G0 X168.73 Y161.835
G0 X168.73 Y148.165
G0 X168.73 Y146.82
G0 X168.73 Y143.23
G0 X168.44 Y142.72
M204 S500
;TYPE:WALL-OUTER
G1 F2400 E51.2249
G1 F900 X174.991 Y142.721 E51.65631
G1 X175.168 Y142.742 E51.66805
G1 X175.491 Y142.899 E51.6917
G1 X175.605 Y143.014 E51.70237
G1 X175.76 Y143.336 E51.7259
G1 X175.78 Y143.516 E51.73783
G1 X175.78 Y146.491 E51.93375
G1 X175.759 Y146.666 E51.94535
G1 X175.601 Y146.991 E51.96915
G1 X175.486 Y147.105 E51.97982
G1 X175.168 Y147.258 E52.00306
G1 X174.82 Y147.28 E52.02602
G1 X168.22 Y147.28 E52.46066
G1 X168.22 Y142.94 E52.74647
G1 X168.22 Y142.72 E52.76096
G1 X168.44 Y142.72 E52.77033
M204 S5000
G0 F1800 X168.64 Y142.72
G0 X168.704 Y143.204
G0 X168.66 Y143.16
M204 S500
;TYPE:WALL-INNER
G1 F900 X168.879 Y143.16 E52.78475
G1 X174.964 Y143.161 E53.18548
G1 X175.241 Y143.272 E53.20513
G1 X175.311 Y143.462 E53.21847
G1 X175.34 Y143.538 E53.22382
G1 X175.34 Y146.464 E53.41652
G1 X175.228 Y146.741 E53.43619
G1 X175.055 Y146.824 E53.44883
G1 X174.808 Y146.84 E53.46513
G1 X168.66 Y146.84 E53.87001
G1 X168.66 Y143.379 E54.09793
G1 X168.66 Y143.16 E54.10727
M204 S5000
G0 F1800 X169.1 Y143.6
M204 S500
G1 F900 X169.319 Y143.6 E54.12169
G1 X174.88 Y143.601 E54.48791
G1 X174.9 Y143.616 E54.48955
G1 X174.9 Y146.378 E54.67145
G1 X174.795 Y146.4 E54.67851
G1 X169.1 Y146.4 E55.05356
G1 X169.1 Y143.819 E55.22353
G1 X169.1 Y143.6 E55.23286
M204 S5000
G0 F1800 X169.53 Y144.03
M204 S500
;TYPE:SKIN
G1 F900 X174.47 Y144.031 E55.55819
G1 X174.47 Y145.97 E55.68588
G1 X169.53 Y145.97 E56.0112
G1 X169.53 Y144.03 E56.13896
M204 S5000
G0 F1800 X170.037 Y145.77
M204 S500
G1 F900 X169.729 Y145.461 E56.16769
M204 S5000
G0 F1800 X169.729 Y144.839
M204 S500
G1 F900 X170.66 Y145.77 E56.2544
M204 S5000
G0 F1800 X171.282 Y145.77
M204 S500
G1 F900 X169.743 Y144.23 E56.39778
M204 S5000
G0 F1800 X170.365 Y144.23
M204 S500
G1 F900 X171.904 Y145.77 E56.54116
M204 S5000
G0 F1800 X172.526 Y145.77
M204 S500
G1 F900 X170.987 Y144.23 E56.68454
M204 S5000
G0 F1800 X171.609 Y144.23
M204 S500
G1 F900 X173.149 Y145.77 E56.82796
M204 S5000
G0 F1800 X173.771 Y145.77
M204 S500
G1 F900 X172.232 Y144.231 E56.97129
M204 S5000
G0 F1800 X172.855 Y144.231
M204 S500
G1 F900 X174.269 Y145.645 E57.10298
M204 S5000
G0 F1800 X174.269 Y145.023
M204 S500
G1 F900 X173.477 Y144.231 E57.17674
M204 S5000
G0 F1800 X174.099 Y144.231
M204 S500
G1 F900 X174.269 Y144.401 E57.19258
M204 S5000
G1 F2400 E54.19258
;MESH:NONMESH
G0 F600 X174.269 Y144.401 Z0.5
G0 F1800 X168.674 Y146.826
G0 X167.335 Y146.826
G0 X148 Y161.6
;TIME_ELAPSED:74.442947
;LAYER:1
M106 S255
M204 S500
;TYPE:SUPPORT
G1 F2400 E57.19258
G1 F3000 X152 Y161.6 E57.32562
G1 X152 Y148.4 E57.76465
G1 X152.9 Y148.4 E57.79459
G1 X152.9 Y142.7 E57.98417
G1 X156 Y142.7 E58.08727
G1 X156 Y167.3 E58.90547
G1 X160 Y167.3 E59.03851
G1 X160 Y142.7 E59.85671
G1 X164 Y142.7 E59.98975
G1 X164 Y167.3 E60.80795
G1 X167.1 Y167.3 E60.91106
G1 X167.1 Y161.6 E61.10064
G1 X168 Y161.6 E61.13058
G1 X168 Y148.4 E61.56961
G1 X169.8 Y148.4 E61.62948
G1 X169.8 Y161.6 E62.06851
G1 X168 Y161.6 E62.12838
M204 S5000
G0 F7200 X148 Y161.6
M204 S500
G1 F3000 X144.2 Y161.6 E62.25477
G1 X144.2 Y148.4 E62.6938
G1 X148 Y148.4 E62.82019
G1 X148 Y161.6 E63.25923
M204 S5000
G1 F2400 E60.25923
;MESH:0bdd9462-9a47-4573-81b7-946c54669977.stl
G0 F7200 X148 Y163.12
G0 X151.33 Y166.83
G0 X151.8 Y167.3
M204 S500
;TYPE:WALL-OUTER
G1 F2400 E63.25923
G1 F1500 X145.009 Y167.3 E63.4851
G1 X144.819 Y167.276 E63.49147
G1 X144.505 Y167.121 E63.50311
G1 X144.284 Y166.845 E63.51487
G1 X144.2 Y166.478 E63.52739
G1 X144.2 Y162.7 E63.65305
G1 X151.8 Y162.7 E63.90583
G1 X151.8 Y167.3 E64.05882
M204 S5000
G0 F7200 X151.6 Y167.3
G0 X151.36 Y166.86
G0 X151.4 Y166.9
M204 S500
;TYPE:WALL-INNER
G1 F3000 X145.035 Y166.9 E64.27053
G1 X144.761 Y166.801 E64.28022
G1 X144.654 Y166.667 E64.28592
