;FLAVOR:Marlin
;TIME:21246
;Filament used: 21.9713m
;Layer height: 0.2
;MINX:18.78
;MINY:72.28
;MINZ:0.3
;MAXX:291.22
;MAXY:237.72
;MAXZ:22.4
;Generated with Cura_SteamEngine 4.8.0
M140 S85
M105
M190 S85
M104 S235
M105
M109 S235
M82 ;absolute extrusion mode
G28 ;Home
G1 Z15.0 F6000 ;Move the platform down 15mm
;Prime the extruder
G92 E0
G1 F200 E3
G92 E0
G92 E0
G92 E0
G1 F2400 E-3
;LAYER_COUNT:109
;LAYER:0
M107
M204 S5000
M205 X5 Y5
G1 F600 Z0.8
G0 F6000 X22.371 Y72.553 Z0.8
M204 S500
;TYPE:SKIRT
G1 F600 Z0.3
G1 F2400 E0
G1 F1800 X22.996 Y72.388 E0.04044
G1 X23.863 Y72.291 E0.09502
G1 X24.33 Y72.28 E0.12425
G1 X285.293 Y72.28 E16.45069
G1 X286.066 Y72.291 E16.49906
G1 X286.71 Y72.34 E16.53947
G1 X287.343 Y72.468 E16.57987
G1 X287.955 Y72.674 E16.62027
G1 X288.537 Y72.953 E16.66065
G1 X289.081 Y73.303 E16.70112
G1 X289.577 Y73.716 E16.7415
G1 X290.018 Y74.188 E16.78191
G1 X290.397 Y74.711 E16.82232
G1 X290.709 Y75.277 E16.86275
G1 X290.949 Y75.876 E16.90312
G1 X291.113 Y76.501 E16.94355
G1 X291.209 Y77.363 E16.99781
G1 X291.22 Y77.83 E17.02704
G1 X291.22 Y231.829 E26.66157
G1 X291.211 Y232.556 E26.70706
G1 X291.163 Y233.2 E26.74746
G1 X291.036 Y233.833 E26.78785
G1 X290.831 Y234.446 E26.82829
G1 X290.553 Y235.029 E26.8687
G1 X290.204 Y235.573 E26.90913
G1 X289.792 Y236.069 E26.94947
G1 X289.321 Y236.511 E26.98988
G1 X288.799 Y236.892 E27.03031
G1 X288.234 Y237.205 E27.07072
G1 X287.634 Y237.446 E27.11117
G1 X287.01 Y237.611 E27.15155
G1 X286.137 Y237.709 E27.20651
G1 X285.67 Y237.72 E27.23574
G1 X24.64 Y237.72 E43.56638
G1 X23.942 Y237.711 E43.61005
G1 X23.298 Y237.662 E43.65046
G1 X22.664 Y237.535 E43.69091
G1 X22.052 Y237.33 E43.73129
G1 X21.469 Y237.051 E43.77173
G1 X20.925 Y236.703 E43.81213
G1 X20.429 Y236.29 E43.85251
G1 X19.987 Y235.818 E43.89296
G1 X19.607 Y235.296 E43.93336
G1 X19.294 Y234.731 E43.97377
G1 X19.054 Y234.132 E44.01414
G1 X18.889 Y233.507 E44.05458
G1 X18.791 Y232.632 E44.10966
G1 X18.78 Y232.158 E44.13932
G1 X18.78 Y78.103 E53.77736
G1 X18.789 Y77.438 E53.81897
G1 X18.838 Y76.794 E53.85938
G1 X18.966 Y76.161 E53.89978
G1 X19.171 Y75.549 E53.94016
G1 X19.45 Y74.966 E53.98059
G1 X19.799 Y74.423 E54.02098
G1 X20.213 Y73.926 E54.06145
G1 X20.684 Y73.485 E54.10181
G1 X21.207 Y73.105 E54.14226
G1 X21.772 Y72.793 E54.18264
G1 X22.371 Y72.553 E54.22301
M204 S5000
G1 F2400 E51.22301
G1 F600 Z0.8
;MESH:8dd5b572-2b75-4429-8074-816c68cc2759.stl
G0 F6000 X285.78 Y232.28 Z0.8
M204 S500
;TYPE:WALL-OUTER
G1 F600 Z0.3
G1 F2400 E54.22301
G1 F1200 X24.22 Y232.28 E70.58681
G1 X24.22 Y77.72 E80.25644
G1 X285.78 Y77.72 E96.62024
G1 X285.78 Y232.28 E106.28987
M204 S5000
G0 F6000 X285.58 Y232.28
G0 X285.296 Y231.796
G1 F2400 E103.28987
G0 F6000 X29.49 Y227.01
G0 X24.749 Y227.01
G0 X24.777 Y227.278
M204 S500
G1 F2400 E106.28987
G1 F1200 X24.777 Y231.723 E106.56796
G1 X29.222 Y231.723 E106.84605
G1 X29.222 Y227.278 E107.12414
G1 X24.777 Y227.278 E107.40223
M204 S5000
G0 F6000 X24.777 Y227.478
G0 X24.677 Y227.478
G0 X30.51 Y212.01
G0 X30.778 Y212.278
M204 S500
G1 F1200 X30.778 Y221.723 E107.99313
G1 X279.223 Y221.723 E123.53642
G1 X279.223 Y212.278 E124.12732
G1 X30.778 Y212.278 E139.67062
M204 S5000
G0 F6000 X30.778 Y212.478
G0 X30.338 Y211.838
M204 S500
;TYPE:WALL-INNER
G1 F1200 X30.338 Y222.163 E140.31657
G1 X279.663 Y222.163 E155.91492
G1 X279.663 Y211.838 E156.56088
G1 X30.338 Y211.838 E172.15923
M204 S5000
G0 F6000 X29.898 Y211.398
M204 S500
G1 F1200 X29.898 Y222.603 E172.86024
G1 X280.103 Y222.603 E188.51364
G1 X280.103 Y211.398 E189.21465
G1 X29.898 Y211.398 E204.86805
M204 S5000
G0 F6000 X24.749 Y205.991
G0 X24.677 Y201.278
G0 X24.777 Y201.278
M204 S500
;TYPE:WALL-OUTER
G1 F1200 X24.777 Y205.723 E205.14614
G1 X29.222 Y205.723 E205.42423
G1 X29.222 Y201.278 E205.70232
G1 X24.777 Y201.278 E205.98041
M204 S5000
G0 F6000 X24.777 Y201.478
G0 X24.677 Y201.478
G0 X30.51 Y186.01
G0 X30.778 Y186.278
M204 S500
G1 F1200 X30.778 Y195.723 E206.57131
G1 X279.223 Y195.723 E222.11461
G1 X279.223 Y186.278 E222.70551
G1 X30.778 Y186.278 E238.2488
M204 S5000
G0 F6000 X30.778 Y186.478
G0 X30.338 Y185.838
M204 S500
;TYPE:WALL-INNER
G1 F1200 X30.338 Y196.163 E238.89476
G1 X279.663 Y196.163 E254.49311
G1 X279.663 Y185.838 E255.13906
G1 X30.338 Y185.838 E270.73741
M204 S5000
G0 F6000 X29.898 Y185.398
M204 S500
G1 F1200 X29.898 Y196.603 E271.43842
G1 X280.103 Y196.603 E287.09183
G1 X280.103 Y185.398 E287.79284
G1 X29.898 Y185.398 E303.44624
M204 S5000
G0 F6000 X30.51 Y161.01
G0 X30.778 Y161.278
M204 S500
;TYPE:WALL-OUTER
G1 F1200 X30.778 Y170.723 E304.03714
G1 X279.223 Y170.723 E319.58044
G1 X279.223 Y161.278 E320.17134
G1 X30.778 Y161.278 E335.71463
M204 S5000
G0 F6000 X30.778 Y161.478
G0 X30.338 Y160.838
M204 S500
;TYPE:WALL-INNER
G1 F1200 X30.338 Y171.163 E336.36059
G1 X279.663 Y171.163 E351.95894
G1 X279.663 Y160.838 E352.60489
G1 X30.338 Y160.838 E368.20324
M204 S5000
G0 F6000 X29.898 Y160.398
M204 S500
G1 F1200 X29.898 Y171.603 E368.90425
G1 X280.103 Y171.603 E384.55766
G1 X280.103 Y160.398 E385.25867
G1 X29.898 Y160.398 E400.91207
M204 S5000
G0 F6000 X30.51 Y137.01
G0 X30.778 Y137.278
M204 S500
;TYPE:WALL-OUTER
G1 F1200 X30.778 Y146.722 E401.50291
G1 X279.223 Y146.722 E417.0462
G1 X279.223 Y137.278 E417.63704
G1 X30.778 Y137.278 E433.18034
M204 S5000
G0 F6000 X30.778 Y137.478
G0 X30.338 Y136.838
M204 S500
;TYPE:WALL-INNER
G1 F1200 X30.338 Y147.162 E433.82623
G1 X279.663 Y147.162 E449.42458
G1 X279.663 Y136.838 E450.07047
G1 X30.338 Y136.838 E465.66882
M204 S5000
G0 F6000 X29.898 Y136.398
M204 S500
G1 F1200 X29.898 Y147.602 E466.36977
G1 X280.103 Y147.602 E482.02317
G1 X280.103 Y136.398 E482.72412
G1 X29.898 Y136.398 E498.37752
M204 S5000
G0 F6000 X30.51 Y113.009
G0 X30.778 Y113.277
M204 S500
;TYPE:WALL-OUTER
G1 F1200 X30.778 Y122.722 E498.96843
G1 X279.223 Y122.722 E514.51172
G1 X279.223 Y113.277 E515.10262
G1 X30.778 Y113.277 E530.64591
M204 S5000
G0 F6000 X30.778 Y113.477
G0 X30.338 Y112.837
M204 S500
;TYPE:WALL-INNER
G1 F1200 X30.338 Y123.162 E531.29187
G1 X279.663 Y123.162 E546.89022
G1 X279.663 Y112.837 E547.53618
G1 X30.338 Y112.837 E563.13452
M204 S5000
G0 F6000 X29.898 Y112.397
M204 S500
G1 F1200 X29.898 Y123.602 E563.83553
G1 X280.103 Y123.602 E579.48894
G1 X280.103 Y112.397 E580.18995
G1 X29.898 Y112.397 E595.84335
M204 S5000
G1 F2400 E592.84335
G0 F6000 X24.749 Y82.99
G0 X24.707 Y78.207
G0 X24.777 Y78.277
M204 S500
;TYPE:WALL-OUTER
G1 F2400 E595.84335
G1 F1200 X24.777 Y82.722 E596.12144
G1 X29.222 Y82.722 E596.39953
G1 X29.222 Y78.277 E596.67762
G1 X24.777 Y78.277 E596.95571
M204 S5000
G0 F6000 X24.777 Y78.477
G0 X24.677 Y78.477
G0 X24.749 Y82.99
G0 X30.778 Y88.938
G0 X30.778 Y89.278
M204 S500
G1 F1200 X30.778 Y98.723 E597.54661
G1 X279.223 Y98.723 E613.08991
G1 X279.223 Y89.278 E613.68081
G1 X30.778 Y89.278 E629.2241
M204 S5000
G0 F6000 X30.778 Y89.478
G0 X30.338 Y88.838
M204 S500
;TYPE:WALL-INNER
G1 F1200 X30.338 Y99.163 E629.87006
G1 X279.663 Y99.163 E645.46841
G1 X279.663 Y88.838 E646.11436
G1 X30.338 Y88.838 E661.71271
M204 S5000
G0 F6000 X29.898 Y88.398
M204 S500
G1 F1200 X29.898 Y99.603 E662.41372
G1 X280.103 Y99.603 E678.06713
G1 X280.103 Y88.398 E678.76814
G1 X29.898 Y88.398 E694.42154
M204 S5000
G1 F2400 E691.42154
G0 F6000 X280.778 Y78.177
G0 X280.778 Y78.277
M204 S500
;TYPE:WALL-OUTER
G1 F2400 E694.42154
G1 F1200 X280.778 Y82.722 E694.69963
G1 X285.223 Y82.722 E694.97772
G1 X285.223 Y78.277 E695.25581
G1 X280.778 Y78.277 E695.5339
M204 S5000
G0 F6000 X280.778 Y78.477
G0 X280.294 Y78.477
G1 F2400 E692.5339
G0 F6000 X281.278 Y201.438
G0 X281.278 Y201.778
M204 S500
G1 F2400 E695.5339
G1 F1200 X281.278 Y205.223 E695.74943
G1 X284.723 Y205.223 E695.96495
G1 X284.723 Y201.778 E696.18048
G1 X281.278 Y201.778 E696.39601
M204 S5000
G0 F6000 X281.278 Y201.978
G0 X280.838 Y201.338
M204 S500
;TYPE:WALL-INNER
G1 F1200 X280.838 Y205.663 E696.66659
G1 X285.163 Y205.663 E696.93717
G1 X285.163 Y201.338 E697.20775
G1 X280.838 Y201.338 E697.47833
M204 S5000
G0 F6000 X281.278 Y227.438
G0 X281.278 Y227.778
M204 S500
;TYPE:WALL-OUTER
G1 F1200 X281.278 Y231.223 E697.69386
G1 X284.723 Y231.223 E697.90939
G1 X284.723 Y227.778 E698.12492
G1 X281.278 Y227.778 E698.34044
M204 S5000
G0 F6000 X281.278 Y227.978
G0 X280.838 Y227.338
M204 S500
;TYPE:WALL-INNER
G1 F1200 X280.838 Y231.663 E698.61103
G1 X285.163 Y231.663 E698.88161
G1 X285.163 Y227.338 E699.15219
G1 X280.838 Y227.338 E699.42277
M204 S5000
G0 F6000 X284.991 Y227.51
G0 X285.34 Y231.84
M204 S500
G1 F1200 X285.163 Y231.84 E699.431
G1 X280.838 Y231.84 E699.5401
G1 X29.662 Y231.84 E715.25425
G1 X29.662 Y226.838 E715.56719
G1 X24.66 Y226.838 E715.88012
G1 X24.66 Y206.163 E717.1736
G1 X29.662 Y206.163 E717.48653
G1 X29.662 Y200.838 E717.81968
G1 X24.66 Y200.838 E718.13262
G1 X24.66 Y83.162 E725.4947
G1 X29.662 Y83.162 E725.80764
G1 X29.662 Y78.16 E726.12057
G1 X280.338 Y78.16 E741.80344
G1 X280.338 Y83.162 E742.11638
G1 X285.34 Y83.162 E742.42932
G1 X285.34 Y201.338 E749.82268
G1 X285.34 Y205.663 E749.93178
G1 X285.34 Y227.338 E751.28781
G1 X285.34 Y231.663 E751.39691
G1 X285.34 Y231.84 E751.40514
M204 S5000
G0 F6000 X285.058 Y228.333
G0 X284.9 Y226.898
M204 S500
G1 F1200 X280.398 Y226.898 E751.68679
G1 X280.398 Y231.4 E751.96845
G1 X30.102 Y231.4 E767.62755
G1 X30.102 Y226.398 E767.94048
G1 X25.1 Y226.398 E768.25342
G1 X25.1 Y206.603 E769.49184
G1 X30.102 Y206.603 E769.80478
G1 X30.102 Y200.398 E770.19298
G1 X25.1 Y200.398 E770.50591
G1 X25.1 Y83.602 E777.81294
G1 X30.102 Y83.602 E778.12588
G1 X30.102 Y78.6 E778.43882
G1 X279.898 Y78.6 E794.06663
G1 X279.898 Y83.602 E794.37957
G1 X284.9 Y83.602 E794.6925
G1 X284.9 Y200.898 E802.03081
G1 X280.398 Y200.898 E802.31247
G1 X280.398 Y206.103 E802.63811
G1 X284.9 Y206.103 E802.91976
G1 X284.9 Y226.898 E804.22074
M204 S5000
G0 F6000 X284.47 Y226.468
M204 S500
;TYPE:SKIN
G1 F1200 X279.968 Y226.468 E804.5024
G1 X279.968 Y230.97 E804.78406
G1 X30.532 Y230.97 E820.38935
G1 X30.532 Y225.968 E820.70229
G1 X25.53 Y225.968 E821.01522
G1 X25.53 Y207.033 E822.19984
G1 X30.532 Y207.033 E822.51278
G1 X30.532 Y199.968 E822.95478
G1 X25.53 Y199.968 E823.26772
G1 X25.53 Y84.032 E830.52094
G1 X30.532 Y84.032 E830.83388
G1 X30.532 Y79.03 E831.14681
G1 X279.468 Y79.03 E846.72083
G1 X279.468 Y84.032 E847.03376
G1 X284.47 Y84.032 E847.3467
G1 X284.47 Y200.468 E854.63121
G1 X279.968 Y200.468 E854.91286
G1 X279.968 Y206.533 E855.2923
G1 X284.47 Y206.533 E855.57396
G1 X284.47 Y226.468 E856.82114
M204 S5000
G0 F6000 X280.533 Y223.033
M204 S500
G1 F1200 X280.533 Y210.968 E857.57595
G1 X29.468 Y210.968 E873.28316
G1 X29.468 Y223.033 E874.03797
G1 X280.533 Y223.033 E889.74518
M204 S5000
G0 F6000 X280.533 Y197.033
M204 S500
G1 F1200 X280.533 Y184.968 E890.49999
G1 X29.468 Y184.968 E906.2072
G1 X29.468 Y197.033 E906.96202
G1 X280.533 Y197.033 E922.66922
M204 S5000
G0 F6000 X280.533 Y172.033
M204 S500
G1 F1200 X280.533 Y159.968 E923.42404
G1 X29.468 Y159.968 E939.13124
G1 X29.468 Y172.033 E939.88606
G1 X280.533 Y172.033 E955.59327
M204 S5000
G0 F6000 X280.533 Y148.032
M204 S500
G1 F1200 X280.533 Y135.968 E956.34802
G1 X29.468 Y135.968 E972.05523
G1 X29.468 Y148.032 E972.80998
G1 X280.533 Y148.032 E988.51718
M204 S5000
G0 F6000 X280.533 Y124.032
M204 S500
G1 F1200 X280.533 Y111.967 E989.272
G1 X29.468 Y111.967 E1004.97921
G1 X29.468 Y124.032 E1005.73402
G1 X280.533 Y124.032 E1021.44123
M204 S5000
G0 F6000 X280.533 Y100.033
M204 S500
G1 F1200 X280.533 Y87.968 E1022.19604
G1 X29.468 Y87.968 E1037.90325
G1 X29.468 Y100.033 E1038.65806
G1 X280.533 Y100.033 E1054.36527
M204 S5000
G0 F6000 X279.267 Y79.524
M204 S500
G1 F1200 X278.973 Y79.229 E1054.39133
M204 S5000
G0 F6000 X278.351 Y79.229
M204 S500
G1 F1200 X279.267 Y80.146 E1054.47242
M204 S5000
G0 F6000 X279.267 Y80.768
M204 S500
G1 F1200 X277.728 Y79.229 E1054.60858
M204 S5000
G0 F6000 X277.106 Y79.229
M204 S500
G1 F1200 X279.267 Y81.39 E1054.79978
M204 S5000
G0 F6000 X279.267 Y82.013
M204 S500
G1 F1200 X276.484 Y79.229 E1055.04605
M204 S5000
G0 F6000 X275.862 Y79.229
M204 S500
G1 F1200 X279.267 Y82.635 E1055.34736
M204 S5000
G0 F6000 X279.267 Y83.257
M204 S500
G1 F1200 X275.239 Y79.229 E1055.70374
M204 S5000
G0 F6000 X274.617 Y79.229
M204 S500
G1 F1200 X279.267 Y83.879 E1056.11516
M204 S5000
G0 F6000 X279.619 Y84.231
M204 S500
G1 F1200 X284.269 Y88.881 E1056.52658
M204 S5000
G0 F6000 X284.269 Y88.259
M204 S500
G1 F1200 X280.241 Y84.231 E1056.88296
M204 S5000
G0 F6000 X280.864 Y84.231
M204 S500
G1 F1200 X284.269 Y87.637 E1057.18426
M204 S5000
G0 F6000 X284.269 Y87.015
M204 S500
G1 F1200 X281.486 Y84.231 E1057.43054
M204 S5000
G0 F6000 X282.108 Y84.231
M204 S500
G1 F1200 X284.269 Y86.392 E1057.62174
M204 S5000
G0 F6000 X284.269 Y85.77
M204 S500
G1 F1200 X282.73 Y84.231 E1057.7579
M204 S5000
G0 F6000 X283.353 Y84.231
M204 S500
G1 F1200 X284.269 Y85.148 E1057.83899
M204 S5000
G0 F6000 X284.269 Y84.526
M204 S500
G1 F1200 X283.975 Y84.231 E1057.86505
M204 S5000
G0 F6000 X280.666 Y87.767
M204 S500
G1 F1200 X272.128 Y79.229 E1058.62046
M204 S5000
G0 F6000 X271.506 Y79.229
M204 S500
G1 F1200 X280.043 Y87.767 E1059.37583
M204 S5000
G0 F6000 X279.421 Y87.767
M204 S500
G1 F1200 X270.884 Y79.229 E1060.1312
M204 S5000
G0 F6000 X270.261 Y79.229
M204 S500
G1 F1200 X278.799 Y87.767 E1060.88661
M204 S5000
G0 F6000 X278.177 Y87.767
M204 S500
G1 F1200 X269.639 Y79.229 E1061.64202
M204 S5000
G0 F6000 X269.017 Y79.229
M204 S500
G1 F1200 X277.554 Y87.767 E1062.39739
M204 S5000
G0 F6000 X276.932 Y87.767
M204 S500
G1 F1200 X268.395 Y79.229 E1063.15276
M204 S5000
G0 F6000 X267.772 Y79.229
M204 S500
G1 F1200 X276.31 Y87.767 E1063.90817
M204 S5000
G0 F6000 X275.688 Y87.767
M204 S500
G1 F1200 X267.15 Y79.229 E1064.66358
M204 S5000
G0 F6000 X266.528 Y79.229
M204 S500
G1 F1200 X275.065 Y87.767 E1065.41895
M204 S5000
G0 F6000 X274.443 Y87.767
M204 S500
G1 F1200 X265.906 Y79.229 E1066.17432
M204 S5000
G0 F6000 X265.283 Y79.229
M204 S500
G1 F1200 X273.821 Y87.767 E1066.92973
M204 S5000
G0 F6000 X273.199 Y87.767
M204 S500
G1 F1200 X264.661 Y79.229 E1067.68514
M204 S5000
G0 F6000 X264.039 Y79.229
M204 S500
G1 F1200 X272.576 Y87.767 E1068.44051
M204 S5000
G0 F6000 X271.954 Y87.767
M204 S500
G1 F1200 X263.417 Y79.229 E1069.19588
M204 S5000
G0 F6000 X262.794 Y79.229
M204 S500
G1 F1200 X271.332 Y87.767 E1069.95129
M204 S5000
G0 F6000 X270.71 Y87.767
M204 S500
G1 F1200 X262.172 Y79.229 E1070.7067
M204 S5000
G0 F6000 X261.55 Y79.229
M204 S500
G1 F1200 X270.087 Y87.767 E1071.46207
M204 S5000
G0 F6000 X269.465 Y87.767
M204 S500
G1 F1200 X260.928 Y79.229 E1072.21744
M204 S5000
G0 F6000 X260.305 Y79.229
M204 S500
G1 F1200 X268.843 Y87.767 E1072.97285
M204 S5000
G0 F6000 X268.221 Y87.767
M204 S500
G1 F1200 X259.683 Y79.229 E1073.72826
M204 S5000
G0 F6000 X259.061 Y79.229
M204 S500
G1 F1200 X267.598 Y87.767 E1074.48363
M204 S5000
G0 F6000 X266.976 Y87.767
M204 S500
G1 F1200 X258.439 Y79.229 E1075.239
M204 S5000
G0 F6000 X257.816 Y79.229
M204 S500
G1 F1200 X266.354 Y87.767 E1075.99441
M204 S5000
G0 F6000 X265.732 Y87.767
M204 S500
G1 F1200 X257.194 Y79.229 E1076.74982
M204 S5000
G0 F6000 X256.572 Y79.229
M204 S500
G1 F1200 X265.109 Y87.767 E1077.50519
M204 S5000
G0 F6000 X264.487 Y87.767
M204 S500
G1 F1200 X255.95 Y79.229 E1078.26056
M204 S5000
G0 F6000 X255.327 Y79.229
M204 S500
G1 F1200 X263.865 Y87.767 E1079.01597
M204 S5000
G0 F6000 X263.243 Y87.767
M204 S500
G1 F1200 X254.705 Y79.229 E1079.77138
M204 S5000
G0 F6000 X254.083 Y79.229
M204 S500
G1 F1200 X262.62 Y87.767 E1080.52675
M204 S5000
G0 F6000 X261.998 Y87.767
M204 S500
G1 F1200 X253.461 Y79.229 E1081.28212
M204 S5000
G0 F6000 X252.838 Y79.229
M204 S500
G1 F1200 X261.376 Y87.767 E1082.03753
M204 S5000
G0 F6000 X260.754 Y87.767
M204 S500
G1 F1200 X252.216 Y79.229 E1082.79294
M204 S5000
G0 F6000 X251.594 Y79.229
M204 S500
G1 F1200 X260.131 Y87.767 E1083.54831
M204 S5000
G0 F6000 X259.509 Y87.767
M204 S500
G1 F1200 X250.971 Y79.229 E1084.30372
M204 S5000
G0 F6000 X250.349 Y79.229
M204 S500
G1 F1200 X258.887 Y87.767 E1085.05913
M204 S5000
G0 F6000 X258.265 Y87.767
M204 S500
G1 F1200 X249.727 Y79.229 E1085.81454
M204 S5000
G0 F6000 X249.105 Y79.229
M204 S500
