;FLAVOR:Marlin
;TIME:653
;Filament used: 0.447946m
;Layer height: 0.2
;MINX:110.396
;MINY:134.355
;MINZ:0.3
;MAXX:224.79
;MAXY:221.816
;MAXZ:8
;Generated with Cura_SteamEngine 4.8.0
M140 S85
M105
M190 S85
M104 S235
M105
M109 S235
M82 ;absolute extrusion mode
G28 ;Home
G1 Z15.0 F6000 ;Move the platform down 15mm
;Prime the extruder
G92 E0
G1 F200 E3
G92 E0
G92 E0
G92 E0
G1 F2400 E-3
;LAYER_COUNT:14
;LAYER:0
M107
M204 S5000
M205 X5 Y5
G1 F600 Z0.8
G0 F3600 X182.303 Y142.764 Z0.8
M204 S500
;TYPE:SKIRT
G1 F600 Z0.3
G1 F2400 E0
G1 F1200 X183.064 Y141.791 E0.08135
G1 X183.486 Y141.312 E0.12339
G1 X184.425 Y140.372 E0.21089
G1 X184.735 Y140.098 E0.23813
G1 X185.486 Y139.492 E0.30168
G1 X186.118 Y139.028 E0.35332
G1 X186.948 Y138.477 E0.41892
G1 X187.437 Y138.184 E0.45647
G1 X187.907 Y137.917 E0.49206
G1 X188.527 Y137.59 E0.53822
G1 X189.081 Y137.318 E0.57887
G1 X189.68 Y137.048 E0.62214
G1 X190.225 Y136.82 E0.66104
G1 X190.68 Y136.642 E0.69322
G1 X191.189 Y136.456 E0.72891
G1 X191.734 Y136.273 E0.76677
G1 X192.775 Y135.955 E0.83845
G1 X193.199 Y135.835 E0.86747
G1 X193.943 Y135.641 E0.9181
G1 X194.723 Y135.458 E0.97086
G1 X195.326 Y135.335 E1.01139
G1 X195.583 Y135.287 E1.02861
G1 X196.327 Y135.159 E1.07833
G1 X196.982 Y135.06 E1.12195
G1 X197.227 Y135.026 E1.13824
G1 X197.912 Y134.941 E1.1837
G1 X198.51 Y134.877 E1.2233
G1 X198.742 Y134.856 E1.23864
G1 X199.476 Y134.797 E1.28714
G1 X200.119 Y134.756 E1.32957
G1 X200.35 Y134.745 E1.3448
G1 X201.182 Y134.714 E1.39963
G1 X201.698 Y134.703 E1.43362
G1 X201.925 Y134.701 E1.44857
G1 X202.646 Y134.701 E1.49605
G1 X202.879 Y134.704 E1.51139
G1 X203.427 Y134.716 E1.54749
G1 X203.649 Y134.723 E1.56212
G1 X204.398 Y134.755 E1.61149
G1 X205.147 Y134.802 E1.66091
G1 X205.38 Y134.82 E1.6763
G1 X206.181 Y134.891 E1.72926
G1 X206.449 Y134.918 E1.747
G1 X207.15 Y134.998 E1.79346
G1 X207.396 Y135.029 E1.80979
G1 X208.02 Y135.115 E1.85127
G1 X208.704 Y135.223 E1.89687
G1 X208.968 Y135.27 E1.91453
G1 X209.753 Y135.419 E1.96715
G1 X210.454 Y135.568 E2.01435
G1 X211.172 Y135.741 E2.06298
G1 X211.518 Y135.834 E2.08658
G1 X212.329 Y136.065 E2.14211
G1 X212.753 Y136.195 E2.17132
G1 X213.646 Y136.49 E2.23325
G1 X214.122 Y136.659 E2.26652
G1 X214.606 Y136.849 E2.30076
G1 X215.178 Y137.091 E2.34166
G1 X216.003 Y137.474 E2.40156
G1 X216.573 Y137.763 E2.44365
G1 X217.143 Y138.079 E2.48657
G1 X217.796 Y138.468 E2.53662
G1 X218.668 Y139.047 E2.60555
G1 X219.251 Y139.477 E2.65326
G1 X219.654 Y139.79 E2.68686
G1 X219.724 Y139.847 E2.69281
G1 X220.284 Y140.336 E2.74177
G1 X220.819 Y140.845 E2.7904
G1 X220.965 Y140.991 E2.804
G1 X221.789 Y141.918 E2.88568
G1 X222.042 Y142.238 E2.91254
G1 X222.66 Y143.105 E2.98266
G1 X222.841 Y143.388 E3.00478
G1 X223.45 Y144.476 E3.08689
G1 X223.618 Y144.822 E3.11222
G1 X223.985 Y145.669 E3.17301
G1 X224.278 Y146.545 E3.23384
G1 X224.414 Y147.074 E3.26981
G1 X224.526 Y147.571 E3.30336
G1 X224.577 Y147.822 E3.32023
G1 X224.721 Y148.734 E3.38103
G1 X224.79 Y150.007 E3.46499
G1 X224.789 Y150.179 E3.47632
G1 X224.773 Y150.701 E3.51071
G1 X224.759 Y150.956 E3.52753
G1 X224.668 Y151.875 E3.58834
G1 X224.424 Y153.085 E3.66963
G1 X224.309 Y153.522 E3.69939
G1 X224.036 Y154.404 E3.76019
G1 X223.55 Y155.545 E3.84187
G1 X223.186 Y156.262 E3.89482
G1 X223.136 Y156.354 E3.90172
G1 X222.661 Y157.146 E3.96254
G1 X222.361 Y157.575 E3.99701
G1 X221.95 Y158.125 E4.04223
G1 X221.818 Y158.293 E4.0563
G1 X221.237 Y158.972 E4.11515
G1 X221.115 Y159.103 E4.12694
G1 X220.744 Y159.482 E4.16186
G1 X220.493 Y159.726 E4.18492
G1 X219.819 Y160.327 E4.24439
G1 X219.271 Y160.771 E4.29083
G1 X219.04 Y160.949 E4.31004
G1 X218.591 Y161.277 E4.34666
G1 X218.41 Y161.402 E4.36114
G1 X217.968 Y161.691 E4.39592
G1 X217.252 Y162.128 E4.45116
G1 X216.713 Y162.428 E4.49178
G1 X216.157 Y162.713 E4.53293
G1 X215.423 Y163.063 E4.58648
G1 X214.996 Y163.254 E4.61729
G1 X214.484 Y163.467 E4.65381
G1 X214.163 Y163.591 E4.67647
G1 X213.674 Y163.766 E4.71067
G1 X212.729 Y164.079 E4.77623
G1 X212.326 Y164.204 E4.80402
G1 X211.659 Y164.396 E4.84973
G1 X210.813 Y164.614 E4.90726
G1 X210.515 Y164.683 E4.9274
G1 X209.942 Y164.808 E4.96603
G1 X209.644 Y164.869 E4.98606
G1 X209.124 Y164.967 E5.0209
G1 X208.849 Y165.015 E5.03929
G1 X208.279 Y165.107 E5.07731
G1 X208.011 Y165.147 E5.09516
G1 X207.317 Y165.241 E5.14128
G1 X206.649 Y165.317 E5.18555
G1 X206.432 Y165.338 E5.19991
G1 X205.562 Y165.415 E5.25743
G1 X205.284 Y165.436 E5.27579
G1 X204.625 Y165.477 E5.31927
G1 X204.391 Y165.489 E5.3347
G1 X203.46 Y165.525 E5.39606
G1 X202.803 Y165.536 E5.43933
G1 X202.025 Y165.536 E5.49056
G1 X201.319 Y165.524 E5.53707
G1 X201.09 Y165.517 E5.55215
G1 X200.303 Y165.484 E5.60403
G1 X199.607 Y165.443 E5.64994
G1 X199.365 Y165.425 E5.66592
G1 X198.656 Y165.365 E5.71278
G1 X198.405 Y165.341 E5.72939
G1 X197.889 Y165.285 E5.76357
G1 X197.653 Y165.257 E5.77922
G1 X196.753 Y165.139 E5.83899
G1 X196.458 Y165.096 E5.85863
G1 X195.838 Y164.997 E5.89997
G1 X195.577 Y164.952 E5.91742
G1 X195.048 Y164.854 E5.95285
G1 X194.477 Y164.738 E5.99122
G1 X194.18 Y164.672 E6.01125
G1 X193.62 Y164.539 E6.04916
G1 X193.3 Y164.457 E6.07091
G1 X192.664 Y164.285 E6.1143
G1 X192.384 Y164.205 E6.13348
G1 X191.884 Y164.055 E6.16785
G1 X191.415 Y163.903 E6.20032
G1 X190.8 Y163.687 E6.24325
G1 X190.138 Y163.434 E6.28992
G1 X189.642 Y163.225 E6.32537
G1 X188.951 Y162.914 E6.37527
G1 X188.36 Y162.626 E6.41856
G1 X188.151 Y162.518 E6.43406
G1 X187.587 Y162.204 E6.47657
G1 X186.916 Y161.804 E6.52801
G1 X186.069 Y161.244 E6.59488
G1 X185.525 Y160.845 E6.63931
G1 X185.097 Y160.514 E6.67494
G1 X184.467 Y159.966 E6.72993
G1 X184.057 Y159.58 E6.76701
G1 X183.756 Y159.286 E6.79472
G1 X182.909 Y158.331 E6.87878
G1 X182.475 Y157.771 E6.92544
G1 X182.394 Y157.662 E6.93439
G1 X181.876 Y156.898 E6.99517
G1 X181.535 Y156.303 E7.04034
G1 X181.218 Y155.7 E7.0852
G1 X181.166 Y155.596 E7.09286
G1 X180.79 Y154.753 E7.15364
G1 X180.393 Y153.546 E7.23732
G1 X180.254 Y153.003 E7.27423
G1 X180.198 Y152.764 E7.2904
G1 X180.027 Y151.857 E7.35118
G1 X179.941 Y151.046 E7.40489
G1 X179.932 Y150.912 E7.41373
G1 X179.91 Y149.989 E7.47453
G1 X179.996 Y148.83 E7.55107
G1 X180.069 Y148.266 E7.58852
G1 X180.227 Y147.356 E7.64935
G1 X180.463 Y146.463 E7.71018
G1 X180.675 Y145.851 E7.75283
G1 X180.727 Y145.714 E7.76248
G1 X180.935 Y145.205 E7.79869
G1 X181.063 Y144.914 E7.81962
G1 X181.686 Y143.712 E7.90878
G1 X181.772 Y143.569 E7.91977
G1 X182.147 Y142.989 E7.96526
G1 X182.303 Y142.764 E7.98329
M204 S5000
G0 F3600 X182.664 Y143.015
M204 S500
G1 F1200 X183.395 Y142.082 E8.06134
G1 X183.817 Y141.603 E8.10338
G1 X184.717 Y140.701 E8.1873
G1 X185.027 Y140.427 E8.21454
G1 X185.747 Y139.847 E8.27543
G1 X186.379 Y139.383 E8.32706
G1 X187.174 Y138.854 E8.38995
G1 X187.663 Y138.561 E8.42749
G1 X188.118 Y138.303 E8.46194
G1 X188.731 Y137.98 E8.50757
G1 X189.272 Y137.714 E8.54727
G1 X189.85 Y137.454 E8.58901
G1 X190.395 Y137.226 E8.62791
G1 X190.831 Y137.055 E8.65875
G1 X191.34 Y136.869 E8.69444
G1 X191.862 Y136.694 E8.7307
G1 X192.903 Y136.376 E8.80238
G1 X193.31 Y136.261 E8.83023
G1 X194.054 Y136.067 E8.88087
G1 X194.82 Y135.887 E8.93269
G1 X195.411 Y135.766 E8.97241
G1 X195.657 Y135.721 E8.98888
G1 X196.401 Y135.593 E9.0386
G1 X197.046 Y135.495 E9.08156
G1 X197.281 Y135.463 E9.09718
G1 X197.966 Y135.378 E9.14264
G1 X198.555 Y135.315 E9.18165
G1 X198.777 Y135.295 E9.19633
G1 X199.511 Y135.236 E9.24482
G1 X200.146 Y135.196 E9.28672
G1 X200.367 Y135.185 E9.30129
G1 X201.191 Y135.154 E9.3556
G1 X201.707 Y135.143 E9.38959
G1 X201.925 Y135.141 E9.40394
G1 X202.646 Y135.141 E9.45142
G1 X202.87 Y135.143 E9.46618
G1 X203.418 Y135.155 E9.50227
G1 X203.63 Y135.162 E9.51624
G1 X204.379 Y135.194 E9.56561
G1 X205.117 Y135.241 E9.61431
G1 X205.341 Y135.258 E9.62911
G1 X206.142 Y135.329 E9.68206
G1 X206.399 Y135.355 E9.69907
G1 X207.1 Y135.435 E9.74554
G1 X207.336 Y135.465 E9.7612
G1 X207.96 Y135.551 E9.80269
G1 X208.633 Y135.657 E9.84755
G1 X208.886 Y135.702 E9.86448
G1 X209.671 Y135.851 E9.9171
G1 X210.36 Y135.997 E9.96348
G1 X211.065 Y136.168 E10.01125
G1 X211.398 Y136.257 E10.03395
G1 X212.209 Y136.488 E10.08948
G1 X212.615 Y136.613 E10.11746
G1 X213.508 Y136.908 E10.17939
G1 X214.434 Y137.255 E10.24452
G1 X215.006 Y137.497 E10.28542
G1 X215.813 Y137.871 E10.34399
G1 X216.371 Y138.154 E10.3852
G1 X216.917 Y138.457 E10.42632
G1 X217.57 Y138.846 E10.47637
G1 X218.406 Y139.401 E10.54246
G1 X218.989 Y139.831 E10.59016
G1 X219.446 Y140.188 E10.62835
G1 X219.983 Y140.657 E10.67531
G1 X220.508 Y141.156 E10.72301
G1 X220.654 Y141.302 E10.7366
G1 X221.444 Y142.191 E10.81492
G1 X221.697 Y142.511 E10.84179
G1 X222.29 Y143.342 E10.90902
G1 X222.471 Y143.625 E10.93114
G1 X223.055 Y144.668 E11.00986
G1 X223.223 Y145.014 E11.03519
G1 X223.581 Y145.844 E11.09472
G1 X223.865 Y146.702 E11.15424
G1 X224.036 Y147.389 E11.20086
G1 X224.145 Y147.91 E11.23592
G1 X224.286 Y148.803 E11.29545
G1 X224.35 Y150.004 E11.37466
G1 X224.349 Y150.176 E11.38598
G1 X224.334 Y150.677 E11.41899
G1 X224.32 Y150.932 E11.43581
G1 X224.23 Y151.832 E11.49538
G1 X223.999 Y152.973 E11.57204
G1 X223.884 Y153.41 E11.6018
G1 X223.615 Y154.273 E11.66133
G1 X223.156 Y155.349 E11.73837
G1 X222.8 Y156.052 E11.79026
G1 X222.75 Y156.144 E11.79716
G1 X222.283 Y156.919 E11.85674
G1 X221.805 Y157.589 E11.91094
G1 X221.472 Y158.021 E11.94687
G1 X220.915 Y158.672 E12.00329
G1 X220.793 Y158.803 E12.01508
G1 X220.438 Y159.166 E12.04851
G1 X220.187 Y159.41 E12.07157
G1 X219.54 Y159.987 E12.12866
G1 X219.002 Y160.422 E12.17422
G1 X218.771 Y160.6 E12.19342
G1 X218.341 Y160.914 E12.22849
G1 X218.16 Y161.039 E12.24297
G1 X217.736 Y161.317 E12.27636
G1 X217.032 Y161.746 E12.33066
G1 X216.509 Y162.038 E12.3701
G1 X215.966 Y162.317 E12.41031
G1 X215.243 Y162.661 E12.46303
G1 X214.816 Y162.852 E12.49384
G1 X214.326 Y163.056 E12.52879
G1 X213.535 Y163.349 E12.58434
G1 X212.59 Y163.662 E12.6499
G1 X212.204 Y163.781 E12.6765
G1 X211.537 Y163.973 E12.72221
G1 X210.707 Y164.187 E12.77866
G1 X210.421 Y164.253 E12.79799
G1 X209.848 Y164.378 E12.83661
G1 X209.563 Y164.436 E12.85576
G1 X209.043 Y164.534 E12.89061
G1 X208.778 Y164.58 E12.90832
G1 X208.208 Y164.672 E12.94635
G1 X207.952 Y164.711 E12.9634
G1 X207.258 Y164.805 E13.00952
G1 X206.601 Y164.88 E13.05307
G1 X205.523 Y164.977 E13.12435
G1 X205.257 Y164.997 E13.14191
G1 X204.598 Y165.038 E13.1854
G1 X204.374 Y165.05 E13.20017
G1 X203.653 Y165.079 E13.24769
G1 X203.012 Y165.094 E13.28991
G1 X202.803 Y165.096 E13.30368
G1 X202.025 Y165.096 E13.35491
G1 X201.328 Y165.084 E13.40082
G1 X201.109 Y165.077 E13.41525
G1 X200.12 Y165.034 E13.48044
G1 X199.402 Y164.987 E13.52783
G1 X198.693 Y164.927 E13.57469
G1 X198.452 Y164.903 E13.59064
G1 X197.936 Y164.847 E13.62482
G1 X197.71 Y164.82 E13.6398
G1 X196.81 Y164.702 E13.69958
G1 X196.528 Y164.661 E13.71835
G1 X195.908 Y164.562 E13.7597
G1 X195.657 Y164.519 E13.77647
G1 X195.128 Y164.421 E13.8119
G1 X194.567 Y164.307 E13.8496
G1 X194.281 Y164.243 E13.8689
G1 X193.721 Y164.11 E13.9068
G1 X193.415 Y164.033 E13.92758
G1 X192.779 Y163.861 E13.97097
G1 X192.51 Y163.784 E13.9894
G1 X192.01 Y163.634 E14.02377
G1 X191.56 Y163.488 E14.05493
G1 X190.945 Y163.272 E14.09785
G1 X190.307 Y163.028 E14.14284
G1 X189.82 Y162.823 E14.17764
G1 X189.141 Y162.517 E14.22668
G1 X188.562 Y162.235 E14.26909
G1 X188.353 Y162.127 E14.28459
G1 X187.812 Y161.827 E14.32533
G1 X187.141 Y161.427 E14.37677
G1 X186.33 Y160.889 E14.44086
G1 X185.786 Y160.49 E14.48529
G1 X185.372 Y160.171 E14.51971
G1 X184.768 Y159.645 E14.57245
G1 X184.358 Y159.259 E14.60954
G1 X184.067 Y158.975 E14.63632
G1 X183.255 Y158.059 E14.71693
G1 X182.828 Y157.509 E14.76278
G1 X182.747 Y157.4 E14.77173
G1 X182.24 Y156.651 E14.83129
G1 X181.924 Y156.097 E14.87329
G1 X181.612 Y155.504 E14.91742
G1 X181.56 Y155.4 E14.92508
G1 X181.192 Y154.574 E14.98463
G1 X180.818 Y153.434 E15.06364
G1 X180.682 Y152.902 E15.0998
G1 X180.626 Y152.663 E15.11597
G1 X180.459 Y151.775 E15.17547
G1 X180.38 Y151.017 E15.22566
G1 X180.371 Y150.883 E15.2345
G1 X180.35 Y149.979 E15.29405
G1 X180.433 Y148.886 E15.36624
G1 X180.506 Y148.322 E15.40369
G1 X180.661 Y147.432 E15.46318
G1 X180.895 Y146.558 E15.52277
G1 X181.086 Y146.007 E15.56117
G1 X181.138 Y145.87 E15.57082
G1 X181.338 Y145.382 E15.60555
G1 X181.466 Y145.091 E15.62649
G1 X182.063 Y143.939 E15.71194
G1 X182.149 Y143.796 E15.72293
G1 X182.508 Y143.24 E15.76651
G1 X182.664 Y143.015 E15.78454
M204 S5000
G1 F2400 E12.78454
G1 F600 Z0.8
;MESH:KeycapHolderConnector.stl(3)
G0 F3600 X209.758 Y153.625 Z0.8
M204 S500
;TYPE:WALL-OUTER
G1 F600 Z0.3
G1 F2400 E15.78454
G1 F1200 X209.03 Y153.849 E15.8347
G1 X208.503 Y153.991 E15.87065
G1 X207.972 Y154.114 E15.90654
G1 X207.416 Y154.226 E15.94389
G1 X206.845 Y154.326 E15.98207
G1 X206.256 Y154.414 E16.02129
G1 X205.666 Y154.485 E16.06042
G1 X205.058 Y154.546 E16.10066
G1 X204.268 Y154.605 E16.15283
G1 X203.645 Y154.637 E16.19391
G1 X203.023 Y154.655 E16.23489
G1 X202.4 Y154.662 E16.27592
G1 X201.777 Y154.655 E16.31695
G1 X201.155 Y154.636 E16.35794
G1 X200.531 Y154.604 E16.39908
G1 X199.92 Y154.559 E16.43943
G1 X199.308 Y154.5 E16.47992
G1 X198.537 Y154.409 E16.53105
G1 X197.846 Y154.308 E16.57704
G1 X197.326 Y154.218 E16.61179
G1 X196.819 Y154.117 E16.64583
G1 X196.323 Y154.007 E16.67929
G1 X195.85 Y153.888 E16.71141
G1 X195.254 Y153.718 E16.75223
G1 X194.508 Y153.468 E16.80404
G1 X193.98 Y153.26 E16.84141
G1 X193.342 Y152.965 E16.8877
G1 X192.918 Y152.739 E16.91934
G1 X192.4 Y152.416 E16.95954
G1 X191.844 Y151.992 E17.00559
G1 X191.425 Y151.582 E17.0442
G1 X191.111 Y151.168 E17.07842
G1 X190.899 Y150.754 E17.10905
G1 X190.776 Y150.145 E17.14996
G1 X190.845 Y149.691 E17.1802
G1 X191.011 Y149.297 E17.20836
G1 X191.28 Y148.894 E17.24027
G1 X191.651 Y148.49 E17.27639
G1 X192.051 Y148.146 E17.31113
G1 X192.6 Y147.759 E17.35537
G1 X193.25 Y147.383 E17.40482
G1 X193.695 Y147.161 E17.43757
G1 X194.202 Y146.94 E17.47399
G1 X194.901 Y146.672 E17.52329
G1 X195.469 Y146.486 E17.56265
G1 X196.277 Y146.258 E17.61794
G1 X196.766 Y146.14 E17.65107
G1 X197.267 Y146.034 E17.68479
G1 X197.793 Y145.936 E17.72003
G1 X198.319 Y145.853 E17.7551
G1 X198.861 Y145.78 E17.79111
G1 X199.416 Y145.718 E17.82789
G1 X199.974 Y145.666 E17.8648
G1 X200.532 Y145.628 E17.90163
G1 X201.104 Y145.599 E17.93935
G1 X201.674 Y145.582 E17.9769
G1 X202.303 Y145.575 E18.01833
G1 X202.934 Y145.582 E18.05988
G1 X203.563 Y145.602 E18.10133
G1 X204.194 Y145.636 E18.14294
G1 X204.81 Y145.684 E18.18363
G1 X205.603 Y145.764 E18.23612
G1 X206.2 Y145.84 E18.27575
G1 X206.797 Y145.93 E18.31551
G1 X207.37 Y146.03 E18.35382
G1 X207.94 Y146.146 E18.39212
G1 X208.479 Y146.272 E18.42858
G1 X209.014 Y146.413 E18.46501
G1 X209.751 Y146.639 E18.51578
G1 X210.215 Y146.803 E18.54819
G1 X210.75 Y147.02 E18.58621
G1 X211.35 Y147.297 E18.62973
G1 X211.787 Y147.531 E18.66237
G1 X212.357 Y147.887 E18.70663
G1 X212.869 Y148.281 E18.74918
G1 X213.289 Y148.689 E18.78774
G1 X213.605 Y149.102 E18.82198
G1 X213.829 Y149.549 E18.85491
G1 X213.921 Y149.974 E18.88355
G1 X213.905 Y150.366 E18.90938
G1 X213.793 Y150.766 E18.93674
G1 X213.584 Y151.167 E18.96652
G1 X213.278 Y151.569 E18.99979
G1 X212.906 Y151.941 E19.03443
G1 X212.416 Y152.33 E19.07564
G1 X211.832 Y152.704 E19.12131
G1 X211.325 Y152.978 E19.15926
G1 X210.741 Y153.25 E19.20168
G1 X210.217 Y153.462 E19.23891
G1 X209.758 Y153.625 E19.27099
M204 S5000
G0 F3600 X209.567 Y153.683
G0 X209.426 Y153.22
G0 X209.621 Y153.207
M204 S500
;TYPE:WALL-INNER
G1 F1200 X208.9 Y153.428 E19.32065
G1 X208.404 Y153.562 E19.35448
G1 X207.873 Y153.685 E19.39038
G1 X207.332 Y153.794 E19.42672
G1 X206.78 Y153.891 E19.46363
G1 X206.203 Y153.977 E19.50205
G1 X205.618 Y154.047 E19.54085
G1 X205.021 Y154.107 E19.58036
G1 X204.235 Y154.167 E19.63228
G1 X204.224 Y154.167 E19.633
G1 X203.632 Y154.197 E19.67204
G1 X203.01 Y154.215 E19.71301
G1 X202.4 Y154.222 E19.75319
G1 X201.79 Y154.215 E19.79336
G1 X201.168 Y154.196 E19.83434
G1 X200.563 Y154.165 E19.87424
G1 X199.952 Y154.12 E19.91459
G1 X199.358 Y154.063 E19.95388
G1 X198.589 Y153.972 E20.00488
G1 X197.921 Y153.874 E20.04934
G1 X197.408 Y153.785 E20.08363
