;FLAVOR:Marlin
;TIME:17797
;Filament used: 15.6597m
;Layer height: 0.15
;MINX:46.45
;MINY:97.7
;MINZ:0.3
;MAXX:263.55
;MAXY:212.3
;MAXZ:18.9
;Generated with Cura_SteamEngine 4.8.0
M140 S70
M105
M190 S70
M104 S210
M105
M109 S210
M82 ;absolute extrusion mode
G28 ;Home
G1 Z15.0 F6000 ;Move the platform down 15mm
;Prime the extruder
G92 E0
G1 F200 E3
G92 E0
G92 E0
G92 E0
G1 F3000 E-6
;LAYER_COUNT:125
;LAYER:0
M107
M204 S500
M205 X5 Y5
;MESH:c7a46973-1aa2-4d31-8928-68b4e4e6e581.stl
G0 F3600 X250.766 Y97.701 Z0.3
;TYPE:WALL-OUTER
G1 F3000 E0
G1 F2400 X252.57 Y97.83 E0.09023
G1 X254.357 Y98.219 E0.18147
G1 X256.062 Y98.855 E0.27226
G1 X257.672 Y99.735 E0.3638
G1 X259.135 Y100.829 E0.45494
G1 X260.421 Y102.115 E0.54567
G1 X261.515 Y103.578 E0.63681
G1 X262.395 Y105.188 E0.72835
G1 X263.031 Y106.893 E0.81914
G1 X263.42 Y108.68 E0.91038
G1 X263.55 Y110.5 E1.00141
G1 X263.549 Y199.516 E5.44244
G1 X263.42 Y201.32 E5.53267
G1 X263.031 Y203.107 E5.62391
G1 X262.395 Y204.812 E5.7147
G1 X261.515 Y206.422 E5.80624
G1 X260.421 Y207.885 E5.89738
G1 X259.135 Y209.171 E5.98811
G1 X257.672 Y210.265 E6.07925
G1 X256.062 Y211.145 E6.17079
G1 X254.357 Y211.781 E6.26158
G1 X252.57 Y212.17 E6.35282
G1 X250.75 Y212.3 E6.44385
G1 X59.234 Y212.299 E15.99863
G1 X57.43 Y212.17 E16.08886
G1 X55.643 Y211.781 E16.1801
G1 X53.938 Y211.145 E16.27089
G1 X52.328 Y210.265 E16.36243
G1 X50.865 Y209.171 E16.45356
G1 X49.579 Y207.885 E16.5443
G1 X48.485 Y206.422 E16.63544
G1 X47.605 Y204.812 E16.72698
G1 X46.969 Y203.107 E16.81777
G1 X46.58 Y201.32 E16.90901
G1 X46.45 Y199.5 E17.00004
G1 X46.451 Y110.484 E21.44106
G1 X46.58 Y108.68 E21.5313
G1 X46.969 Y106.893 E21.62254
G1 X47.605 Y105.188 E21.71333
G1 X48.485 Y103.578 E21.80487
G1 X49.579 Y102.115 E21.896
G1 X50.865 Y100.829 E21.98674
G1 X52.328 Y99.735 E22.07788
G1 X53.938 Y98.855 E22.16942
G1 X55.643 Y98.219 E22.26021
G1 X57.43 Y97.83 E22.35145
G1 X59.25 Y97.7 E22.44248
G1 X250.766 Y97.701 E31.99725
G0 F3600 X250.965 Y97.715
G0 X250.933 Y98.154
G0 X250.928 Y98.213
G0 X59.05 Y109.8
G0 X59.05 Y110.3
G1 F2400 X59.05 Y153.2 E34.13754
G1 X153.2 Y153.2 E38.8347
G1 X153.2 Y110.3 E40.97499
G1 X59.05 Y110.3 E45.67215
G0 F3600 X59.05 Y110.5
G0 X58.65 Y109.9
;TYPE:WALL-INNER
G1 F2400 X58.65 Y153.6 E47.85236
G1 X153.6 Y153.6 E52.58943
G1 X153.6 Y109.9 E54.76963
G1 X58.65 Y109.9 E59.50671
G0 F3600 X58.58 Y109.83
G0 X58.622 Y153.628
G0 X59.05 Y156.3
G0 X59.05 Y156.8
;TYPE:WALL-OUTER
G1 F2400 X59.05 Y199.7 E61.647
G1 X153.2 Y199.7 E66.34416
G1 X153.2 Y156.8 E68.48445
G1 X59.05 Y156.8 E73.18161
G0 F3600 X59.05 Y157
G0 X58.65 Y156.4
;TYPE:WALL-INNER
G1 F2400 X58.65 Y200.1 E75.36181
G1 X153.6 Y200.1 E80.09889
G1 X153.6 Y156.4 E82.27909
G1 X58.65 Y156.4 E87.01617
G0 F3600 X58.58 Y156.33
G0 X156.8 Y156.3
G0 X156.8 Y156.8
;TYPE:WALL-OUTER
G1 F2400 X156.8 Y199.7 E89.15646
G1 X250.95 Y199.7 E93.85362
G1 X250.95 Y156.8 E95.99391
G1 X156.8 Y156.8 E100.69107
G0 F3600 X156.8 Y157
G0 X156.4 Y156.4
;TYPE:WALL-INNER
G1 F2400 X156.4 Y200.1 E102.87127
G1 X251.35 Y200.1 E107.60835
G1 X251.35 Y156.4 E109.78855
G1 X156.4 Y156.4 E114.52562
G0 F3600 X156.33 Y156.33
G0 X156.372 Y109.872
G0 X156.8 Y110.3
;TYPE:WALL-OUTER
G1 F2400 X156.8 Y153.2 E116.66591
G1 X250.95 Y153.2 E121.36308
G1 X250.95 Y110.3 E123.50337
G1 X156.8 Y110.3 E128.20053
G0 F3600 X156.8 Y110.5
G0 X156.4 Y109.9
;TYPE:WALL-INNER
G1 F2400 X156.4 Y153.6 E130.38073
G1 X251.35 Y153.6 E135.1178
G1 X251.35 Y109.9 E137.29801
G1 X156.4 Y109.9 E142.03508
G0 F3600 X156.33 Y109.83
G0 X250.748 Y98.2
G0 X250.751 Y98.101
G1 F2400 X252.512 Y98.227 E142.12316
G1 X254.243 Y98.604 E142.21155
G1 X255.897 Y99.22 E142.2996
G1 X257.456 Y100.073 E142.38826
G1 X258.871 Y101.131 E142.47641
G1 X260.119 Y102.379 E142.56446
G1 X261.177 Y103.794 E142.65261
G1 X262.03 Y105.353 E142.74127
G1 X262.646 Y107.007 E142.82932
G1 X263.023 Y108.738 E142.91771
G1 X263.15 Y110.513 E143.00649
G1 X263.149 Y199.5 E147.44607
G1 X263.023 Y201.262 E147.5342
G1 X262.646 Y202.993 E147.62258
G1 X262.03 Y204.647 E147.71064
G1 X261.177 Y206.206 E147.7993
G1 X260.119 Y207.621 E147.88745
G1 X258.871 Y208.869 E147.9755
G1 X257.456 Y209.927 E148.06364
G1 X255.897 Y210.78 E148.1523
G1 X254.243 Y211.396 E148.24036
G1 X252.512 Y211.773 E148.32874
G1 X250.736 Y211.9 E148.41758
G1 X59.249 Y211.899 E157.9709
G1 X57.488 Y211.773 E158.05898
G1 X55.757 Y211.396 E158.14737
G1 X54.103 Y210.78 E158.23542
G1 X52.544 Y209.927 E158.32408
G1 X51.129 Y208.869 E158.41223
G1 X49.881 Y207.621 E158.50028
G1 X48.823 Y206.206 E158.58843
G1 X47.97 Y204.647 E158.67709
G1 X47.354 Y202.993 E158.76514
G1 X46.977 Y201.262 E158.85353
G1 X46.85 Y199.486 E158.94236
G1 X46.851 Y110.499 E163.38194
G1 X46.977 Y108.738 E163.47002
G1 X47.354 Y107.007 E163.5584
G1 X47.97 Y105.353 E163.64646
G1 X48.823 Y103.794 E163.73512
G1 X49.881 Y102.379 E163.82326
G1 X51.129 Y101.131 E163.91132
G1 X52.544 Y100.073 E163.99946
G1 X54.103 Y99.22 E164.08812
G1 X55.757 Y98.604 E164.17618
G1 X57.488 Y98.227 E164.26456
G1 X59.264 Y98.1 E164.3534
G1 X250.751 Y98.101 E173.90672
G0 F3600 X250.737 Y98.491
;TYPE:SKIN
G1 F2400 X252.457 Y98.614 E173.99275
G1 X254.136 Y98.98 E174.07848
G1 X255.733 Y99.574 E174.16349
G1 X257.243 Y100.401 E174.24938
G1 X258.621 Y101.431 E174.33521
G1 X259.819 Y102.629 E174.41974
G1 X260.849 Y104.007 E174.50557
G1 X261.676 Y105.517 E174.59146
G1 X262.27 Y107.114 E174.67647
G1 X262.636 Y108.793 E174.7622
G1 X262.76 Y110.527 E174.84893
G1 X262.759 Y199.486 E179.28712
G1 X262.636 Y201.207 E179.3732
G1 X262.27 Y202.886 E179.45893
G1 X261.676 Y204.483 E179.54394
G1 X260.849 Y205.993 E179.62983
G1 X259.819 Y207.371 E179.71566
G1 X258.621 Y208.569 E179.80019
G1 X257.243 Y209.599 E179.88602
G1 X255.733 Y210.426 E179.97191
G1 X254.136 Y211.02 E180.05692
G1 X252.457 Y211.386 E180.14265
G1 X250.722 Y211.51 E180.22943
G1 X59.263 Y211.509 E189.78136
G1 X57.543 Y211.386 E189.86739
G1 X55.864 Y211.02 E189.95312
G1 X54.267 Y210.426 E190.03813
G1 X52.757 Y209.599 E190.12402
G1 X51.379 Y208.569 E190.20985
G1 X50.181 Y207.371 E190.29438
G1 X49.151 Y205.993 E190.38021
G1 X48.324 Y204.483 E190.4661
G1 X47.73 Y202.886 E190.55111
G1 X47.364 Y201.207 E190.63684
G1 X47.24 Y199.472 E190.72362
G1 X47.241 Y110.513 E195.16181
G1 X47.364 Y108.793 E195.24784
G1 X47.73 Y107.114 E195.33357
G1 X48.324 Y105.517 E195.41858
G1 X49.151 Y104.007 E195.50447
G1 X50.181 Y102.629 E195.5903
G1 X51.379 Y101.431 E195.67483
G1 X52.757 Y100.401 E195.76066
G1 X54.267 Y99.574 E195.84655
G1 X55.864 Y98.98 E195.93156
G1 X57.543 Y98.614 E196.01729
G1 X59.278 Y98.49 E196.10407
G1 X250.737 Y98.491 E205.656
G0 F3600 X251.74 Y109.51
G1 F2400 X156.01 Y109.51 E210.43199
G1 X156.01 Y153.99 E212.6511
G1 X251.74 Y153.99 E217.42709
G1 X251.74 Y109.51 E219.64621
G0 F3600 X251.74 Y156.01
G1 F2400 X156.01 Y156.01 E224.4222
G1 X156.01 Y200.49 E226.64132
G1 X251.74 Y200.49 E231.4173
G1 X251.74 Y156.01 E233.63642
G0 F3600 X153.99 Y156.01
G1 F2400 X58.26 Y156.01 E238.41241
G1 X58.26 Y200.49 E240.63153
G1 X153.99 Y200.49 E245.40751
G1 X153.99 Y156.01 E247.62663
G0 F3600 X153.99 Y109.51
G1 F2400 X58.26 Y109.51 E252.40262
G1 X58.26 Y153.99 E254.62174
G1 X153.99 Y153.99 E259.39773
G1 X153.99 Y109.51 E261.61684
G0 F3600 X257.552 Y100.857
G1 F2400 X260.392 Y103.697 E261.81722
G1 X260.462 Y103.767
G0 F3600 X261.258 Y105.129
G1 F2400 X256.12 Y99.991 E262.17973
G1 X256.05 Y99.921
G0 F3600 X255.09 Y99.526
G1 F2400 X261.722 Y106.159 E262.64769
G1 X261.792 Y106.229
G0 F3600 X262.058 Y107.06
G1 F2400 X254.189 Y99.191 E263.20289
G0 F3600 X253.445 Y99.013
G1 F2400 X262.236 Y107.804 E263.82314
G0 F3600 X262.393 Y108.527
G1 F2400 X252.722 Y98.856 E264.50549
G0 F3600 X252.067 Y98.766
G1 F2400 X262.483 Y109.182 E265.24039
G0 F3600 X262.526 Y109.791
G1 F2400 X251.457 Y98.722 E266.02137
G0 F3600 X250.848 Y98.679
G1 F2400 X262.57 Y110.401 E266.84842
G0 F3600 X262.579 Y110.975
G1 F2400 X250.274 Y98.671 E267.71657
G0 F3600 X249.709 Y98.671
G1 F2400 X262.579 Y111.541 E268.62462
G0 F3600 X262.579 Y112.106
G1 F2400 X249.143 Y98.671 E269.57256
G0 F3600 X248.577 Y98.671
G1 F2400 X262.579 Y112.672 E270.56044
G0 F3600 X262.579 Y113.238
G1 F2400 X248.012 Y98.671 E271.58822
G0 F3600 X247.446 Y98.671
G1 F2400 X262.579 Y113.803 E272.6559
G0 F3600 X262.579 Y114.369
G1 F2400 X246.88 Y98.671 E273.76352
G0 F3600 X246.314 Y98.671
G1 F2400 X262.579 Y114.935 E274.91107
G0 F3600 X262.579 Y115.5
G1 F2400 X245.749 Y98.671 E276.09848
G0 F3600 X245.183 Y98.671
G1 F2400 X262.579 Y116.066 E277.32583
G0 F3600 X262.579 Y116.632
G1 F2400 X244.617 Y98.671 E278.59311
G0 F3600 X244.052 Y98.671
G1 F2400 X262.579 Y117.197 E279.90025
G0 F3600 X262.579 Y117.763
G1 F2400 X243.486 Y98.671 E281.24733
G0 F3600 X242.92 Y98.671
G1 F2400 X262.579 Y118.329 E282.63434
G0 F3600 X262.579 Y118.895
G1 F2400 X242.355 Y98.671 E284.06126
G0 F3600 X241.789 Y98.671
G1 F2400 X262.579 Y119.46 E285.52807
G0 F3600 X262.579 Y120.026
G1 F2400 X251.918 Y109.366 E286.28022
G0 F3600 X251.882 Y109.33
G1 F2400 X241.223 Y98.671 E287.03227
G0 F3600 X240.658 Y98.671
G1 F2400 X251.317 Y109.33 E287.78432
G0 F3600 X250.751 Y109.33
G1 F2400 X240.092 Y98.671 E288.53637
G0 F3600 X239.526 Y98.671
G1 F2400 X250.185 Y109.33 E289.28842
G0 F3600 X249.62 Y109.33
G1 F2400 X238.961 Y98.671 E290.04047
G0 F3600 X238.395 Y98.671
G1 F2400 X249.054 Y109.33 E290.79252
G0 F3600 X248.488 Y109.33
G1 F2400 X237.829 Y98.671 E291.54457
G0 F3600 X237.264 Y98.671
G1 F2400 X247.922 Y109.33 E292.29659
G0 F3600 X247.357 Y109.33
G1 F2400 X236.698 Y98.671 E293.04864
G0 F3600 X236.132 Y98.671
G1 F2400 X246.791 Y109.33 E293.80069
G0 F3600 X246.225 Y109.33
G1 F2400 X235.566 Y98.671 E294.55274
G0 F3600 X235.001 Y98.671
G1 F2400 X245.66 Y109.33 E295.30479
G0 F3600 X245.094 Y109.33
G1 F2400 X234.435 Y98.671 E296.05684
G0 F3600 X233.869 Y98.671
G1 F2400 X244.528 Y109.33 E296.80889
G0 F3600 X243.963 Y109.33
G1 F2400 X233.304 Y98.671 E297.56094
G0 F3600 X232.738 Y98.671
G1 F2400 X243.397 Y109.33 E298.31299
G0 F3600 X242.831 Y109.33
G1 F2400 X232.172 Y98.671 E299.06504
G0 F3600 X231.607 Y98.671
G1 F2400 X242.266 Y109.33 E299.81709
G0 F3600 X241.7 Y109.33
G1 F2400 X231.041 Y98.671 E300.56914
G0 F3600 X230.475 Y98.671
G1 F2400 X241.134 Y109.33 E301.32119
G0 F3600 X240.569 Y109.33
G1 F2400 X229.91 Y98.671 E302.07324
G0 F3600 X229.344 Y98.671
G1 F2400 X240.003 Y109.33 E302.82529
G0 F3600 X239.437 Y109.33
G1 F2400 X228.778 Y98.671 E303.57734
G0 F3600 X228.213 Y98.671
G1 F2400 X238.871 Y109.33 E304.32935
G0 F3600 X238.306 Y109.33
G1 F2400 X227.647 Y98.671 E305.0814
G0 F3600 X227.081 Y98.671
G1 F2400 X237.74 Y109.33 E305.83345
G0 F3600 X237.174 Y109.33
G1 F2400 X226.516 Y98.671 E306.58547
G0 F3600 X225.95 Y98.671
G1 F2400 X236.609 Y109.33 E307.33752
G0 F3600 X236.043 Y109.33
G1 F2400 X225.384 Y98.671 E308.08957
G0 F3600 X224.818 Y98.671
G1 F2400 X235.477 Y109.33 E308.84162
G0 F3600 X234.912 Y109.33
G1 F2400 X224.253 Y98.671 E309.59367
G0 F3600 X223.687 Y98.671
G1 F2400 X234.346 Y109.33 E310.34572
G0 F3600 X233.78 Y109.33
G1 F2400 X223.121 Y98.671 E311.09777
G0 F3600 X222.556 Y98.671
G1 F2400 X233.215 Y109.33 E311.84982
G0 F3600 X232.649 Y109.33
G1 F2400 X221.99 Y98.671 E312.60187
G0 F3600 X221.424 Y98.671
G1 F2400 X232.083 Y109.33 E313.35392
G0 F3600 X231.518 Y109.33
G1 F2400 X220.859 Y98.671 E314.10597
G0 F3600 X220.293 Y98.671
G1 F2400 X230.952 Y109.33 E314.85802
G0 F3600 X230.386 Y109.33
G1 F2400 X219.727 Y98.671 E315.61007
G0 F3600 X219.162 Y98.671
G1 F2400 X229.821 Y109.33 E316.36212
G0 F3600 X229.255 Y109.33
G1 F2400 X218.596 Y98.671 E317.11417
G0 F3600 X218.03 Y98.671
G1 F2400 X228.689 Y109.33 E317.86622
G0 F3600 X228.123 Y109.33
G1 F2400 X217.465 Y98.671 E318.61823
G0 F3600 X216.899 Y98.671
G1 F2400 X227.558 Y109.33 E319.37028
G0 F3600 X226.992 Y109.33
G1 F2400 X216.333 Y98.671 E320.12233
G0 F3600 X215.767 Y98.671
G1 F2400 X226.426 Y109.33 E320.87438
G0 F3600 X225.861 Y109.33
G1 F2400 X215.202 Y98.671 E321.62643
G0 F3600 X214.636 Y98.671
G1 F2400 X225.295 Y109.33 E322.37848
G0 F3600 X224.729 Y109.33
G1 F2400 X214.07 Y98.671 E323.13053
G0 F3600 X213.505 Y98.671
G1 F2400 X224.164 Y109.33 E323.88258
G0 F3600 X223.598 Y109.33
G1 F2400 X212.939 Y98.671 E324.63463
G0 F3600 X212.373 Y98.671
G1 F2400 X223.032 Y109.33 E325.38668
G0 F3600 X222.467 Y109.33
G1 F2400 X211.808 Y98.671 E326.13873
G0 F3600 X211.242 Y98.671
G1 F2400 X221.901 Y109.33 E326.89078
G0 F3600 X221.335 Y109.33
G1 F2400 X210.676 Y98.671 E327.64283
G0 F3600 X210.111 Y98.671
G1 F2400 X220.77 Y109.33 E328.39488
G0 F3600 X220.204 Y109.33
G1 F2400 X209.545 Y98.671 E329.14693
G0 F3600 X208.979 Y98.671
G1 F2400 X219.638 Y109.33 E329.89898
G0 F3600 X219.072 Y109.33
G1 F2400 X208.414 Y98.671 E330.651
G0 F3600 X207.848 Y98.671
G1 F2400 X218.507 Y109.33 E331.40305
G0 F3600 X217.941 Y109.33
G1 F2400 X207.282 Y98.671 E332.1551
G0 F3600 X206.717 Y98.671
G1 F2400 X217.375 Y109.33 E332.90711
G0 F3600 X216.81 Y109.33
G1 F2400 X206.151 Y98.671 E333.65916
G0 F3600 X205.585 Y98.671
G1 F2400 X216.244 Y109.33 E334.41121
G0 F3600 X215.678 Y109.33
G1 F2400 X205.019 Y98.671 E335.16326
G0 F3600 X204.454 Y98.671
G1 F2400 X215.113 Y109.33 E335.91531
G0 F3600 X214.547 Y109.33
G1 F2400 X203.888 Y98.671 E336.66736
G0 F3600 X203.322 Y98.671
G1 F2400 X213.981 Y109.33 E337.41941
G0 F3600 X213.416 Y109.33
G1 F2400 X202.757 Y98.671 E338.17146
G0 F3600 X202.191 Y98.671
G1 F2400 X212.85 Y109.33 E338.92351
G0 F3600 X212.284 Y109.33
G1 F2400 X201.625 Y98.671 E339.67556
G0 F3600 X201.06 Y98.671
G1 F2400 X211.719 Y109.33 E340.42761
G0 F3600 X211.153 Y109.33
G1 F2400 X200.494 Y98.671 E341.17966
G0 F3600 X199.928 Y98.671
G1 F2400 X210.587 Y109.33 E341.93171
G0 F3600 X210.022 Y109.33
G1 F2400 X199.363 Y98.671 E342.68376
G0 F3600 X198.797 Y98.671
G1 F2400 X209.456 Y109.33 E343.43581
G0 F3600 X208.89 Y109.33
G1 F2400 X198.231 Y98.671 E344.18786
G0 F3600 X197.666 Y98.671
G1 F2400 X208.324 Y109.33 E344.93988
G0 F3600 X207.759 Y109.33
G1 F2400 X197.1 Y98.671 E345.69193
G0 F3600 X196.534 Y98.671
G1 F2400 X207.193 Y109.33 E346.44398
G0 F3600 X206.627 Y109.33
G1 F2400 X195.968 Y98.671 E347.19603
G0 F3600 X195.403 Y98.671
G1 F2400 X206.062 Y109.33 E347.94808
G0 F3600 X205.496 Y109.33
G1 F2400 X194.837 Y98.671 E348.70013
G0 F3600 X194.271 Y98.671
G1 F2400 X204.93 Y109.33 E349.45218
G0 F3600 X204.365 Y109.33
G1 F2400 X193.706 Y98.671 E350.20423
G0 F3600 X193.14 Y98.671
G1 F2400 X203.799 Y109.33 E350.95628
G0 F3600 X203.233 Y109.33
G1 F2400 X192.574 Y98.671 E351.70833
G0 F3600 X192.009 Y98.671
G1 F2400 X202.668 Y109.33 E352.46038
G0 F3600 X202.102 Y109.33
G1 F2400 X191.443 Y98.671 E353.21243
G0 F3600 X190.877 Y98.671
G1 F2400 X201.536 Y109.33 E353.96448
G0 F3600 X200.971 Y109.33
G1 F2400 X190.312 Y98.671 E354.71653
G0 F3600 X189.746 Y98.671
G1 F2400 X200.405 Y109.33 E355.46858
G0 F3600 X199.839 Y109.33
G1 F2400 X189.18 Y98.671 E356.22063
G0 F3600 X188.615 Y98.671
G1 F2400 X199.274 Y109.33 E356.97268
G0 F3600 X198.708 Y109.33
G1 F2400 X188.049 Y98.671 E357.72473
G0 F3600 X187.483 Y98.671
G1 F2400 X198.142 Y109.33 E358.47678
G0 F3600 X197.576 Y109.33
G1 F2400 X186.918 Y98.671 E359.22879
G0 F3600 X186.352 Y98.671
G1 F2400 X197.011 Y109.33 E359.98084
G0 F3600 X196.445 Y109.33
G1 F2400 X185.786 Y98.671 E360.73289
G0 F3600 X185.22 Y98.671
G1 F2400 X195.879 Y109.33 E361.48494
G0 F3600 X195.314 Y109.33
G1 F2400 X184.655 Y98.671 E362.23699
G0 F3600 X184.089 Y98.671
G1 F2400 X194.748 Y109.33 E362.98904
G0 F3600 X194.182 Y109.33
G1 F2400 X183.523 Y98.671 E363.74109
G0 F3600 X182.958 Y98.671
G1 F2400 X193.617 Y109.33 E364.49314
G0 F3600 X193.051 Y109.33
G1 F2400 X182.392 Y98.671 E365.24519
G0 F3600 X181.826 Y98.671
