;FLAVOR:Marlin
;TIME:4777
;Filament used: 4.93145m
;Layer height: 0.15
;MINX:65.2
;MINY:55.2
;MINZ:0.3
;MAXX:244.8
;MAXY:254.8
;MAXZ:1.05
;Generated with Cura_SteamEngine 4.8.0
M140 S70
M105
M190 S70
M104 S210
M105
M109 S210
M82 ;absolute extrusion mode
G28 ;Home
G1 Z15.0 F6000 ;Move the platform down 15mm
;Prime the extruder
G92 E0
G1 F200 E3
G92 E0
G92 E0
G92 E0
G1 F1500 E-6
;LAYER_COUNT:6
;LAYER:0
M107
M204 S500
M205 X5 Y5
;MESH:00b4b13f-b366-407e-88e2-c856b7664c26.stl
G0 F3600 X241.98 Y55.33 Z0.3
;TYPE:WALL-OUTER
G1 F1500 E0
G1 F2400 X242.899 Y55.711 E0.04963
G1 X243.685 Y56.315 E0.09909
G1 X244.289 Y57.101 E0.14854
G1 X244.67 Y58.02 E0.19818
G1 X244.8 Y59.011 E0.24804
G1 X244.8 Y252.989 E9.92564
G1 X244.738 Y253.463 E9.94949
G1 X244.557 Y253.899 E9.97304
G1 X244.271 Y254.271 E9.99645
G1 X243.899 Y254.557 E10.01986
G1 X243.463 Y254.738 E10.04342
G1 X242.989 Y254.8 E10.06727
G1 X67.011 Y254.8 E18.84684
G1 X66.537 Y254.738 E18.87069
G1 X66.101 Y254.557 E18.89424
G1 X65.729 Y254.271 E18.91765
G1 X65.443 Y253.899 E18.94106
G1 X65.262 Y253.463 E18.96462
G1 X65.2 Y252.989 E18.98847
G1 X65.2 Y58.011 E28.71596
G1 X65.296 Y57.279 E28.75279
G1 X65.577 Y56.601 E28.78941
G1 X66.022 Y56.022 E28.82584
G1 X66.601 Y55.577 E28.86227
G1 X67.279 Y55.296 E28.89889
G1 X68.011 Y55.2 E28.93572
G1 X240.989 Y55.2 E37.56563
G1 X241.98 Y55.33 E37.61549
G0 F3600 X242.164 Y55.406
G0 X241.995 Y55.812
G0 X90.848 Y62.205
G0 X90.876 Y62.433
G1 F2400 X90.876 Y74.863 E38.23563
G1 X182.25 Y74.863 E42.79429
G1 X182.25 Y62.433 E43.41443
G1 X90.876 Y62.433 E47.9731
G0 F3600 X90.876 Y62.633
G0 X90.776 Y62.633
G0 X72.396 Y62.133
G0 X72.396 Y62.433
G1 F2400 X72.396 Y137.997 E51.743
G1 X90.276 Y137.997 E52.63504
G1 X90.276 Y62.433 E56.40494
G1 X72.396 Y62.433 E57.29698
G0 F3600 X72.396 Y62.633
G0 X71.956 Y62.633
G0 X69.618 Y235.308
G0 X69.618 Y235.608
G1 F2400 X69.618 Y248.762 E57.95323
G1 X109.914 Y248.762 E59.96361
G1 X109.914 Y235.608 E60.61986
G1 X69.618 Y235.608 E62.63024
G0 F3600 X69.618 Y235.808
G0 X69.218 Y235.208
;TYPE:WALL-INNER
G1 F2400 X69.218 Y249.162 E63.32641
G1 X110.314 Y249.162 E65.37669
G1 X110.314 Y235.208 E66.07286
G1 X69.218 Y235.208 E68.12315
G0 F3600 X119.56 Y164.815
G0 X149.007 Y113.854
G0 X148.731 Y113.74
;TYPE:WALL-OUTER
G1 F2400 X148.767 Y113.394 E68.14051
G1 X148.715 Y113.084 E68.15619
G1 X148.586 Y112.8 E68.17175
G1 X148.388 Y112.558 E68.18735
G1 X148.133 Y112.375 E68.20301
G1 X147.84 Y112.267 E68.21859
G1 X147.529 Y112.235 E68.23419
G1 X147.221 Y112.287 E68.24977
G1 X146.936 Y112.415 E68.26536
G1 X146.695 Y112.614 E68.28095
G1 X146.512 Y112.869 E68.29661
G1 X146.403 Y113.161 E68.31216
G1 X146.371 Y113.473 E68.3278
G1 X146.423 Y113.781 E68.34339
G1 X146.552 Y114.065 E68.35895
G1 X146.75 Y114.307 E68.37455
G1 X147.005 Y114.49 E68.39021
G1 X147.297 Y114.598 E68.40574
G1 X147.609 Y114.631 E68.42139
G1 X147.918 Y114.578 E68.43704
G1 X148.201 Y114.451 E68.45251
G1 X148.443 Y114.252 E68.46814
G1 X148.624 Y114 E68.48362
G1 X148.731 Y113.74 E68.49765
G0 F3600 X148.751 Y113.541
G0 X149.17 Y113.381
;TYPE:WALL-INNER
G1 F2400 X149.101 Y112.966 E68.51864
G1 X148.929 Y112.587 E68.5394
G1 X148.664 Y112.264 E68.56025
G1 X148.322 Y112.018 E68.58126
G1 X147.931 Y111.874 E68.60205
G1 X147.516 Y111.832 E68.62286
G1 X147.104 Y111.901 E68.6437
G1 X146.723 Y112.072 E68.66454
G1 X146.4 Y112.339 E68.68544
G1 X146.156 Y112.679 E68.70632
G1 X146.01 Y113.069 E68.7271
G1 X145.968 Y113.486 E68.74801
G1 X146.037 Y113.899 E68.7689
G1 X146.209 Y114.278 E68.78966
G1 X146.474 Y114.601 E68.81051
G1 X146.816 Y114.846 E68.8315
G1 X147.205 Y114.991 E68.85221
G1 X147.622 Y115.035 E68.87313
G1 X148.036 Y114.964 E68.89408
G1 X148.414 Y114.794 E68.91476
G1 X148.737 Y114.528 E68.93564
G1 X148.976 Y114.195 E68.95609
G1 X149.123 Y113.839 E68.9753
G1 X149.17 Y113.381 E68.99827
G0 F3600 X148.833 Y114.118
G0 X137.82 Y126.208
G0 X136.509 Y127.162
G0 X79.036 Y151.134
G0 X79.036 Y151.434
;TYPE:WALL-OUTER
G1 F2400 X79.036 Y164.587 E69.65448
G1 X119.332 Y164.587 E71.66485
G1 X119.332 Y151.434 E72.32106
G1 X79.036 Y151.434 E74.33143
G0 F3600 X79.036 Y151.634
G0 X78.636 Y151.034
;TYPE:WALL-INNER
G1 F2400 X78.636 Y164.987 E75.02755
G1 X119.732 Y164.987 E77.07784
G1 X119.732 Y151.034 E77.77396
G1 X78.636 Y151.034 E79.82425
G0 F3600 X106.5 Y138.217
G0 X106.121 Y137.997
;TYPE:WALL-OUTER
G1 F2400 X105.949 Y137.698 E79.84146
G1 X104.34 Y134.905 E80.00227
G1 X103.02 Y131.958 E80.16337
G1 X102.008 Y128.901 E80.32402
G1 X101.313 Y125.77 E80.48403
G1 X100.935 Y122.564 E80.64509
G1 X100.884 Y119.341 E80.8059
G1 X101.158 Y116.151 E80.96564
G1 X101.729 Y113.131 E81.11898
G1 X104.778 Y113.131 E81.27109
G1 X105.758 Y110.12 E81.42907
G1 X106.988 Y107.364 E81.57964
G1 X108.491 Y104.763 E81.72951
G1 X110.267 Y102.322 E81.88011
G1 X112.284 Y100.084 E82.03042
G1 X114.527 Y98.065 E82.18098
G1 X116.961 Y96.299 E82.33101
G1 X119.568 Y94.795 E82.48117
G1 X122.326 Y93.567 E82.63179
G1 X125.183 Y92.639 E82.78166
G1 X128.14 Y92.012 E82.93246
G1 X131.133 Y91.697 E83.08261
G1 X134.145 Y91.697 E83.23288
G1 X137.138 Y92.012 E83.38302
G1 X140.095 Y92.639 E83.53383
G1 X142.952 Y93.567 E83.68369
G1 X145.71 Y94.795 E83.83431
G1 X148.317 Y96.299 E83.98447
G1 X150.751 Y98.065 E84.1345
G1 X152.994 Y100.084 E84.28506
G1 X155.011 Y102.322 E84.43537
G1 X156.787 Y104.763 E84.58597
G1 X158.29 Y107.364 E84.73585
G1 X159.52 Y110.12 E84.88641
G1 X160.5 Y113.131 E85.04439
G1 X163.549 Y113.131 E85.19651
G1 X164.12 Y116.151 E85.34984
G1 X164.394 Y119.341 E85.50958
G1 X164.343 Y122.564 E85.6704
G1 X163.965 Y125.77 E85.83145
G1 X163.27 Y128.901 E85.99146
G1 X162.258 Y131.958 E86.15211
G1 X160.938 Y134.905 E86.31322
G1 X159.329 Y137.698 E86.47403
G1 X159.157 Y137.997 E86.49124
G1 X159.501 Y137.997 E86.50096
G1 X159.503 Y137.997 E86.50106
G1 X164.555 Y137.997 E86.75311
G1 X164.555 Y166.902 E88.19519
G1 X187.67 Y166.902 E89.3484
G1 X187.67 Y154.473 E89.96848
G1 X171.702 Y154.473 E90.76513
G1 X171.702 Y137.997 E91.58712
G1 X182.25 Y137.997 E92.11336
G1 X182.25 Y75.463 E95.2332
G1 X90.876 Y75.463 E99.79186
G1 X90.876 Y137.997 E102.9117
G1 X105.775 Y137.997 E103.65501
G1 X105.777 Y137.997 E103.65511
G1 X106.121 Y137.997 E103.66484
G0 F3600 X106.021 Y137.824
G0 X106.403 Y137.605
G0 X119.212 Y113.68
G0 X118.915 Y113.649
G1 F2400 X118.951 Y113.301 E103.6823
G1 X118.899 Y112.992 E103.69793
G1 X118.77 Y112.708 E103.71349
G1 X118.572 Y112.466 E103.72909
G1 X118.317 Y112.283 E103.74475
G1 X118.025 Y112.175 E103.76028
G1 X117.713 Y112.142 E103.77593
G1 X117.404 Y112.195 E103.79157
G1 X117.121 Y112.322 E103.80705
G1 X116.879 Y112.521 E103.82268
G1 X116.696 Y112.776 E103.83834
G1 X116.587 Y113.069 E103.85394
G1 X116.555 Y113.38 E103.86953
G1 X116.607 Y113.689 E103.88517
G1 X116.736 Y113.973 E103.90073
G1 X116.934 Y114.215 E103.91633
G1 X117.189 Y114.397 E103.93196
G1 X117.481 Y114.506 E103.94751
G1 X117.793 Y114.538 E103.96316
G1 X118.102 Y114.486 E103.97879
G1 X118.386 Y114.357 E103.99435
G1 X118.627 Y114.159 E104.00991
G1 X118.808 Y113.907 E104.02539
G1 X118.915 Y113.649 E104.03933
G0 F3600 X118.935 Y113.45
G0 X119.354 Y113.288
;TYPE:WALL-INNER
G1 F2400 X119.285 Y112.874 E104.06027
G1 X119.113 Y112.495 E104.08103
G1 X118.848 Y112.172 E104.10187
G1 X118.506 Y111.927 E104.12286
G1 X118.117 Y111.782 E104.14357
G1 X117.7 Y111.738 E104.16449
G1 X117.286 Y111.809 E104.18545
G1 X116.908 Y111.979 E104.20613
G1 X116.585 Y112.245 E104.227
G1 X116.34 Y112.586 E104.24795
G1 X116.194 Y112.977 E104.26877
G1 X116.152 Y113.393 E104.28963
G1 X116.221 Y113.807 E104.31057
G1 X116.393 Y114.186 E104.33134
G1 X116.658 Y114.51 E104.35222
G1 X117 Y114.753 E104.37315
G1 X117.389 Y114.899 E104.39388
G1 X117.806 Y114.941 E104.41479
G1 X118.22 Y114.872 E104.43573
G1 X118.599 Y114.699 E104.45652
G1 X118.921 Y114.435 E104.47729
G1 X119.16 Y114.103 E104.4977
G1 X119.307 Y113.748 E104.51687
G1 X119.354 Y113.288 E104.53994
G0 F3600 X125.501 Y117.314
G0 X125.786 Y117.406
;TYPE:WALL-OUTER
G1 F2400 X125.302 Y118.897 E104.61814
G1 X125.138 Y120.457 E104.6964
G1 X125.302 Y122.017 E104.77466
G1 X125.786 Y123.508 E104.85287
G1 X126.57 Y124.866 E104.9311
G1 X127.619 Y126.031 E105.00931
G1 X128.888 Y126.953 E105.08757
G1 X130.321 Y127.591 E105.16582
G1 X131.855 Y127.917 E105.24407
G1 X133.423 Y127.917 E105.32229
G1 X134.957 Y127.591 E105.40053
G1 X136.39 Y126.953 E105.47879
G1 X137.659 Y126.031 E105.55705
G1 X138.708 Y124.866 E105.63526
G1 X139.492 Y123.508 E105.71349
G1 X139.976 Y122.017 E105.7917
G1 X140.14 Y120.457 E105.86996
G1 X139.976 Y118.897 E105.94821
G1 X139.492 Y117.406 E106.02642
G1 X138.708 Y116.048 E106.10465
G1 X137.659 Y114.883 E106.18286
G1 X136.39 Y113.961 E106.26112
G1 X134.957 Y113.323 E106.33938
G1 X133.423 Y112.997 E106.41762
G1 X131.855 Y112.997 E106.49585
G1 X130.321 Y113.323 E106.57409
G1 X128.888 Y113.961 E106.65235
G1 X127.619 Y114.883 E106.7306
G1 X126.57 Y116.048 E106.80882
G1 X125.786 Y117.406 E106.88705
G0 F3600 X125.725 Y117.596
G0 X125.419 Y117.242
;TYPE:WALL-INNER
G1 F2400 X124.909 Y118.813 E106.96945
G1 X124.736 Y120.457 E107.05192
G1 X124.909 Y122.101 E107.1344
G1 X125.419 Y123.672 E107.2168
G1 X126.245 Y125.102 E107.29919
G1 X127.35 Y126.33 E107.38161
G1 X128.687 Y127.301 E107.46404
G1 X130.197 Y127.974 E107.54652
G1 X131.813 Y128.317 E107.62894
G1 X133.465 Y128.317 E107.71136
G1 X135.081 Y127.974 E107.79378
G1 X136.591 Y127.301 E107.87626
G1 X137.928 Y126.33 E107.95869
G1 X139.033 Y125.102 E108.04111
G1 X139.859 Y123.672 E108.1235
G1 X140.369 Y122.101 E108.20591
G1 X140.542 Y120.457 E108.28838
G1 X140.369 Y118.813 E108.37085
G1 X139.859 Y117.242 E108.45325
G1 X139.033 Y115.812 E108.53564
G1 X137.928 Y114.584 E108.61806
G1 X136.591 Y113.613 E108.7005
G1 X135.081 Y112.94 E108.78298
G1 X133.465 Y112.597 E108.8654
G1 X131.813 Y112.597 E108.94781
G1 X130.197 Y112.94 E109.03023
G1 X128.687 Y113.613 E109.11271
G1 X127.35 Y114.584 E109.19515
G1 X126.245 Y115.812 E109.27757
G1 X125.419 Y117.242 E109.35996
G0 F3600 X125.067 Y118.844
G0 X124.897 Y120.457
G0 X125.067 Y122.07
G0 X125.566 Y123.607
G0 X126.374 Y125.005
G0 X133.794 Y133.696
G0 X134.032 Y134.797
G0 X133.735 Y134.766
;TYPE:WALL-OUTER
G1 F2400 X133.771 Y134.418 E109.37741
G1 X133.719 Y134.108 E109.39309
G1 X133.59 Y133.824 E109.40865
G1 X133.392 Y133.583 E109.42421
G1 X133.137 Y133.4 E109.43987
G1 X132.845 Y133.291 E109.45542
G1 X132.533 Y133.259 E109.47107
G1 X132.224 Y133.311 E109.4867
G1 X131.94 Y133.44 E109.50227
G1 X131.699 Y133.638 E109.51783
G1 X131.516 Y133.893 E109.53349
G1 X131.407 Y134.185 E109.54904
G1 X131.375 Y134.497 E109.56468
G1 X131.427 Y134.806 E109.58032
G1 X131.556 Y135.09 E109.59588
G1 X131.754 Y135.331 E109.61144
G1 X132.009 Y135.514 E109.6271
G1 X132.301 Y135.623 E109.64265
G1 X132.613 Y135.655 E109.6583
G1 X132.922 Y135.603 E109.67393
G1 X133.206 Y135.474 E109.68949
G1 X133.447 Y135.276 E109.70505
G1 X133.628 Y135.024 E109.72053
G1 X133.735 Y134.766 E109.73447
G0 F3600 X133.755 Y134.567
G0 X134.174 Y134.405
;TYPE:WALL-INNER
G1 F2400 X134.105 Y133.99 E109.75545
G1 X133.932 Y133.611 E109.77624
G1 X133.668 Y133.289 E109.79701
G1 X133.327 Y133.044 E109.81796
G1 X132.937 Y132.898 E109.83874
G1 X132.52 Y132.856 E109.85965
G1 X132.106 Y132.925 E109.88059
G1 X131.727 Y133.098 E109.90137
G1 X131.405 Y133.362 E109.92214
G1 X131.16 Y133.703 E109.94309
G1 X131.014 Y134.093 E109.96387
G1 X130.972 Y134.51 E109.98478
G1 X131.041 Y134.924 E110.00572
G1 X131.214 Y135.303 E110.0265
G1 X131.478 Y135.625 E110.04728
G1 X131.819 Y135.87 E110.06822
G1 X132.209 Y136.016 E110.089
G1 X132.626 Y136.058 E110.10991
G1 X133.04 Y135.989 E110.13085
G1 X133.419 Y135.816 E110.15163
G1 X133.741 Y135.552 E110.17241
G1 X133.98 Y135.22 E110.19282
G1 X134.127 Y134.865 E110.21199
G1 X134.174 Y134.405 E110.23506
G0 F3600 X214.883 Y235.308
G0 X214.883 Y235.608
;TYPE:WALL-OUTER
G1 F2400 X214.883 Y248.762 E110.89131
G1 X238.708 Y248.762 E112.07995
G1 X238.708 Y235.608 E112.7362
G1 X214.883 Y235.608 E113.92484
G0 F3600 X214.883 Y235.808
G0 X214.483 Y235.208
;TYPE:WALL-INNER
G1 F2400 X214.483 Y249.162 E114.621
G1 X239.108 Y249.162 E115.84955
G1 X239.108 Y235.208 E116.54572
G1 X214.483 Y235.208 E117.77426
G0 F3600 X214.655 Y173.279
G0 X214.883 Y173.507
;TYPE:WALL-OUTER
G1 F2400 X214.883 Y186.661 E118.43052
G1 X238.708 Y186.661 E119.61915
G1 X238.708 Y173.507 E120.27541
G1 X214.883 Y173.507 E121.46404
G0 F3600 X214.883 Y173.707
G0 X214.483 Y173.107
;TYPE:WALL-INNER
G1 F2400 X214.483 Y187.061 E122.16021
G1 X239.108 Y187.061 E123.38876
G1 X239.108 Y173.107 E124.08493
G1 X214.483 Y173.107 E125.31347
G0 F3600 X213.981 Y137.997
G0 X214.081 Y137.997
;TYPE:WALL-OUTER
G1 F2400 X239.459 Y137.997 E126.57959
G1 X239.459 Y62.631 E130.33961
G1 X239.459 Y62.431 E130.34959
G1 X239.259 Y62.431 E130.35605
G1 X214.081 Y62.433 E131.61218
G1 X214.081 Y137.997 E135.38209
G0 F3600 X214.281 Y137.997
G0 X214.281 Y138.437
G0 X213.509 Y62.205
G0 X182.822 Y62.205
G0 X182.85 Y62.433
G1 F2400 X182.85 Y137.997 E139.15199
G1 X213.481 Y137.997 E140.68018
G1 X213.481 Y62.433 E144.45008
G1 X182.85 Y62.433 E145.97827
G0 F3600 X182.85 Y62.633
G0 X182.75 Y62.633
G0 X213.681 Y62.033
;TYPE:WALL-INNER
G1 F2400 X71.996 Y62.033 E153.04696
G1 X71.996 Y138.397 E156.85678
G1 X106.468 Y138.397 E158.57659
G1 X106.469 Y138.397 E158.57664
G1 X106.813 Y138.397 E158.5938
G1 X106.641 Y138.099 E158.60355
G1 X104.695 Y134.72 E158.79808
G1 X103.394 Y131.815 E158.95689
G1 X102.392 Y128.787 E159.11601
G1 X101.708 Y125.705 E159.27351
G1 X101.335 Y122.54 E159.43251
G1 X101.284 Y119.359 E159.59123
G1 X101.556 Y116.2 E159.74942
G1 X102.06 Y113.531 E159.88493
G1 X105.068 Y113.531 E160.035
G1 X106.132 Y110.264 E160.20641
G1 X107.345 Y107.545 E160.35495
G1 X108.827 Y104.979 E160.50279
G1 X110.574 Y102.579 E160.65089
G1 X112.567 Y100.367 E160.79943
G1 X114.777 Y98.378 E160.94777
G1 X117.184 Y96.632 E161.09612
G1 X119.749 Y95.152 E161.24386
G1 X122.47 Y93.941 E161.39245
G1 X125.287 Y93.026 E161.54022
G1 X128.198 Y92.408 E161.68869
G1 X131.156 Y92.097 E161.83707
G1 X134.122 Y92.097 E161.98505
G1 X137.08 Y92.408 E162.13344
G1 X139.991 Y93.026 E162.2819
G1 X142.808 Y93.941 E162.42967
G1 X145.529 Y95.152 E162.57826
G1 X148.094 Y96.632 E162.726
G1 X150.501 Y98.378 E162.87436
G1 X152.711 Y100.367 E163.02269
G1 X154.704 Y102.579 E163.17124
G1 X156.451 Y104.979 E163.31934
G1 X157.933 Y107.545 E163.46717
G1 X159.146 Y110.264 E163.61571
G1 X160.21 Y113.531 E163.78713
G1 X163.218 Y113.531 E163.9372
G1 X163.722 Y116.2 E164.07271
G1 X163.994 Y119.359 E164.23089
G1 X163.943 Y122.54 E164.38961
G1 X163.57 Y125.705 E164.54861
G1 X162.886 Y128.787 E164.70611
G1 X161.884 Y131.815 E164.86524
G1 X160.583 Y134.72 E165.02404
G1 X158.637 Y138.099 E165.21857
G1 X158.465 Y138.397 E165.23574
G1 X158.809 Y138.397 E165.24548
G1 X158.81 Y138.397 E165.24553
G1 X164.155 Y138.397 E165.51219
G1 X164.155 Y167.302 E166.95427
G1 X188.07 Y167.302 E168.1474
G1 X188.07 Y154.073 E168.80739
G1 X172.102 Y154.073 E169.60404
G1 X172.102 Y138.397 E170.38612
G1 X239.859 Y138.397 E173.76653
G1 X239.859 Y62.23 E177.56652
G1 X239.859 Y62.031 E177.57644
G1 X239.66 Y62.031 E177.58287
G1 X213.681 Y62.033 E178.87897
G0 F3600 X241.876 Y55.72
G1 F2400 X242.698 Y56.061 E178.92336
G1 X243.4 Y56.6 E178.96752
G1 X243.939 Y57.302 E179.01167
G1 X244.28 Y58.124 E179.05607
G1 X244.4 Y59.04 E179.10216
G1 X244.4 Y252.96 E188.77687
G1 X244.347 Y253.362 E188.7971
G1 X244.209 Y253.695 E188.81508
G1 X243.986 Y253.986 E188.83338
G1 X243.695 Y254.209 E188.85167
G1 X243.362 Y254.347 E188.86965
G1 X242.96 Y254.4 E188.88988
G1 X67.04 Y254.4 E197.66656
G1 X66.638 Y254.347 E197.68679
