;FLAVOR:Marlin
;TIME:5669
;Filament used: 6.00164m
;Layer height: 0.2
;MINX:89.661
;MINY:137.058
;MINZ:0.3
;MAXX:230.188
;MAXY:172.942
;MAXZ:20.9
;Generated with Cura_SteamEngine 4.9.1
M140 S85
M105
M190 S85
M104 S235
M105
M109 S235
M82 ;absolute extrusion mode
G28 ;Home
G1 Z15.0 F6000 ;Move the platform down 15mm
;Prime the extruder
G92 E0
G1 F200 E3
G92 E0
G92 E0
G92 E0
G1 F2400 E-3
;LAYER_COUNT:104
;LAYER:0
M107
M204 S5000
M205 X5 Y5
G1 F600 Z0.8
G0 F3600 X94.461 Y138.962 Z0.8
M204 S500
;TYPE:SKIRT
G1 F600 Z0.3
G1 F2400 E0
G1 F1200 X95.227 Y138.482 E0.05655
G1 X96.032 Y138.071 E0.1131
G1 X96.668 Y137.807 E0.15618
G1 X96.854 Y137.737 E0.16862
G1 X97.714 Y137.456 E0.22522
G1 X98.594 Y137.253 E0.28172
G1 X99.49 Y137.128 E0.33832
G1 X100.234 Y137.084 E0.38495
G1 X101.351 Y137.06 E0.45484
G1 X101.571 Y137.058 E0.46861
G1 X218.799 Y137.058 E7.80266
G1 X219.623 Y137.069 E7.85422
G1 X220.525 Y137.123 E7.91075
G1 X221.42 Y137.255 E7.96735
G1 X222.299 Y137.467 E8.02392
G1 X222.804 Y137.627 E8.05706
G1 X223.062 Y137.716 E8.07414
G1 X223.902 Y138.048 E8.13064
G1 X224.711 Y138.453 E8.18725
G1 X225.48 Y138.928 E8.24379
G1 X226.204 Y139.47 E8.30037
G1 X227.168 Y140.369 E8.38284
G1 X227.233 Y140.438 E8.38877
G1 X227.823 Y141.123 E8.44533
G1 X228.351 Y141.857 E8.5019
G1 X228.811 Y142.635 E8.55844
G1 X229.201 Y143.451 E8.61503
G1 X229.517 Y144.298 E8.67158
G1 X229.757 Y145.169 E8.72811
G1 X229.861 Y145.682 E8.76085
G1 X229.949 Y146.192 E8.79323
G1 X230.011 Y146.573 E8.81738
G1 X230.117 Y147.471 E8.87395
G1 X230.141 Y147.972 E8.90533
G1 X230.166 Y149.025 E8.97123
G1 X230.177 Y149.911 E9.02666
G1 X230.188 Y151.987 E9.15654
G1 X230.175 Y153.725 E9.26528
G1 X230.158 Y154.525 E9.31534
G1 X230.18 Y156.274 E9.42477
G1 X230.17 Y156.589 E9.44449
G1 X230.18 Y157.863 E9.5242
G1 X230.178 Y159.52 E9.62786
G1 X230.171 Y160.295 E9.67635
G1 X230.169 Y160.845 E9.71076
G1 X230.144 Y162.003 E9.78322
G1 X230.084 Y162.905 E9.83978
G1 X229.948 Y163.825 E9.89796
G1 X229.84 Y164.43 E9.93641
G1 X229.636 Y165.311 E9.99299
G1 X229.354 Y166.17 E10.04955
G1 X228.999 Y167.001 E10.10608
G1 X228.571 Y167.797 E10.16263
G1 X228.074 Y168.553 E10.21923
G1 X227.513 Y169.261 E10.27574
G1 X226.891 Y169.917 E10.3323
G1 X226.213 Y170.516 E10.3889
G1 X225.722 Y170.889 E10.42748
G1 X225.555 Y171.008 E10.4403
G1 X224.796 Y171.5 E10.49689
G1 X223.997 Y171.922 E10.55342
G1 X223.164 Y172.272 E10.60995
G1 X222.303 Y172.548 E10.66652
G1 X221.628 Y172.707 E10.7099
G1 X221.493 Y172.734 E10.71852
G1 X220.6 Y172.871 E10.77504
G1 X219.634 Y172.931 E10.83559
G1 X218.783 Y172.942 E10.88883
G1 X101.066 Y172.941 E18.25348
G1 X100.422 Y172.932 E18.29378
G1 X99.52 Y172.879 E18.35031
G1 X98.625 Y172.747 E18.4069
G1 X97.631 Y172.503 E18.47094
G1 X97.334 Y172.414 E18.49033
G1 X96.481 Y172.116 E18.54686
G1 X95.657 Y171.745 E18.6034
G1 X94.869 Y171.301 E18.65998
G1 X94.123 Y170.79 E18.71656
G1 X93.426 Y170.215 E18.77309
G1 X92.922 Y169.729 E18.81689
G1 X92.863 Y169.668 E18.8222
G1 X92.264 Y168.991 E18.87875
G1 X91.727 Y168.264 E18.9353
G1 X91.256 Y167.492 E18.99187
G1 X90.856 Y166.682 E19.04839
G1 X90.528 Y165.839 E19.10498
G1 X90.199 Y164.625 E19.18367
G1 X90.067 Y163.971 E19.22541
G1 X89.828 Y162.665 E19.30848
G1 X89.705 Y161.769 E19.36506
G1 X89.661 Y160.866 E19.42162
G1 X89.672 Y160.354 E19.45366
G1 X89.719 Y159.343 E19.51698
G1 X89.802 Y156.709 E19.68185
G1 X89.811 Y154.176 E19.84032
G1 X89.746 Y151.584 E20.00253
G1 X89.715 Y150.904 E20.04512
G1 X89.704 Y150.566 E20.06628
G1 X89.741 Y149.411 E20.13857
G1 X89.858 Y148.086 E20.22179
G1 X89.943 Y147.167 E20.27953
G1 X90.032 Y146.396 E20.32809
G1 X90.18 Y145.504 E20.38465
G1 X90.406 Y144.629 E20.44119
G1 X90.569 Y144.141 E20.47338
G1 X90.658 Y143.895 E20.48975
G1 X91.002 Y143.059 E20.54631
G1 X91.42 Y142.258 E20.60283
G1 X91.906 Y141.496 E20.65937
G1 X92.458 Y140.78 E20.71594
G1 X93.071 Y140.115 E20.77252
G1 X93.741 Y139.508 E20.82908
G1 X94.461 Y138.962 E20.88561
M204 S5000
G1 F2400 E17.88561
G1 F600 Z0.8
G0 F3600 X100.417 Y147.528 Z0.8
M204 S500
;TYPE:SUPPORT
G1 F600 Z0.3
G1 F2400 E20.88561
G1 F900 X100.523 Y147.498 E20.8925
G1 X219.484 Y147.498 E28.33498
G1 X219.581 Y147.529 E28.34135
G1 X219.582 Y148.044 E28.37357
G1 X219.718 Y148.3 E28.39171
G1 X219.717 Y149.328 E28.45602
G1 X219.742 Y149.441 E28.46326
G1 X219.735 Y149.968 E28.49623
G1 X219.749 Y152.054 E28.62674
G1 X219.548 Y151.962 E28.64057
G1 X100.457 Y151.962 E36.09118
G1 X100.262 Y152.049 E36.10454
G1 X100.261 Y151.354 E36.14802
G1 X100.269 Y151.306 E36.15106
G1 X100.257 Y150.661 E36.19142
G1 X100.139 Y150.305 E36.21489
G1 X100.467 Y148.788 E36.31199
G1 X100.316 Y148.428 E36.33641
G1 X100.369 Y148.24 E36.34863
G1 X100.345 Y148.173 E36.35308
G1 X100.419 Y148.031 E36.3631
G1 X100.417 Y147.528 E36.39457
M204 S5000
G0 F3600 X100.597 Y148
M204 S500
G1 F900 X219.402 Y148 E43.82729
M204 S5000
G1 F2400 E40.82729
G1 F600 Z0.8
G0 F3600 X216 Y147.678 Z0.8
M204 S500
G1 F600 Z0.3
G1 F2400 E43.82729
G1 F900 X216 Y151.782 E44.08404
M204 S5000
G1 F2400 E41.08404
G1 F600 Z0.8
G0 F3600 X212 Y151.782 Z0.8
M204 S500
G1 F600 Z0.3
G1 F2400 E44.08404
G1 F900 X212 Y147.678 E44.3408
M204 S5000
G1 F2400 E41.3408
G1 F600 Z0.8
G0 F3600 X208 Y147.678 Z0.8
M204 S500
G1 F600 Z0.3
G1 F2400 E44.3408
G1 F900 X208 Y151.782 E44.59755
M204 S5000
G1 F2400 E41.59755
G1 F600 Z0.8
G0 F3600 X204 Y151.782 Z0.8
M204 S500
G1 F600 Z0.3
G1 F2400 E44.59755
G1 F900 X204 Y147.678 E44.85431
M204 S5000
G1 F2400 E41.85431
G1 F600 Z0.8
G0 F3600 X200 Y147.678 Z0.8
M204 S500
G1 F600 Z0.3
G1 F2400 E44.85431
G1 F900 X200 Y151.782 E45.11106
M204 S5000
G1 F2400 E42.11106
G1 F600 Z0.8
G0 F3600 X196 Y151.782 Z0.8
M204 S500
G1 F600 Z0.3
G1 F2400 E45.11106
G1 F900 X196 Y147.678 E45.36782
M204 S5000
G1 F2400 E42.36782
G1 F600 Z0.8
G0 F3600 X192 Y147.678 Z0.8
M204 S500
G1 F600 Z0.3
G1 F2400 E45.36782
G1 F900 X192 Y151.782 E45.62458
M204 S5000
G1 F2400 E42.62458
G1 F600 Z0.8
G0 F3600 X188 Y151.782 Z0.8
M204 S500
G1 F600 Z0.3
G1 F2400 E45.62458
G1 F900 X188 Y147.678 E45.88133
M204 S5000
G1 F2400 E42.88133
G1 F600 Z0.8
G0 F3600 X184 Y147.678 Z0.8
M204 S500
G1 F600 Z0.3
G1 F2400 E45.88133
G1 F900 X184 Y151.782 E46.13809
M204 S5000
G1 F2400 E43.13809
G1 F600 Z0.8
G0 F3600 X180 Y151.782 Z0.8
M204 S500
G1 F600 Z0.3
G1 F2400 E46.13809
G1 F900 X180 Y147.678 E46.39484
M204 S5000
G1 F2400 E43.39484
G1 F600 Z0.8
G0 F3600 X176 Y147.678 Z0.8
M204 S500
G1 F600 Z0.3
G1 F2400 E46.39484
G1 F900 X176 Y151.782 E46.6516
M204 S5000
G1 F2400 E43.6516
G1 F600 Z0.8
G0 F3600 X172 Y151.782 Z0.8
M204 S500
G1 F600 Z0.3
G1 F2400 E46.6516
G1 F900 X172 Y147.678 E46.90835
M204 S5000
G1 F2400 E43.90835
G1 F600 Z0.8
G0 F3600 X168 Y147.678 Z0.8
M204 S500
G1 F600 Z0.3
G1 F2400 E46.90835
G1 F900 X168 Y151.782 E47.16511
M204 S5000
G1 F2400 E44.16511
G1 F600 Z0.8
G0 F3600 X164 Y151.782 Z0.8
M204 S500
G1 F600 Z0.3
G1 F2400 E47.16511
G1 F900 X164 Y147.678 E47.42187
M204 S5000
G1 F2400 E44.42187
G1 F600 Z0.8
G0 F3600 X160 Y147.678 Z0.8
M204 S500
G1 F600 Z0.3
G1 F2400 E47.42187
G1 F900 X160 Y151.782 E47.67862
M204 S5000
G1 F2400 E44.67862
G1 F600 Z0.8
G0 F3600 X156 Y151.782 Z0.8
M204 S500
G1 F600 Z0.3
G1 F2400 E47.67862
G1 F900 X156 Y147.678 E47.93538
M204 S5000
G1 F2400 E44.93538
G1 F600 Z0.8
G0 F3600 X152 Y147.678 Z0.8
M204 S500
G1 F600 Z0.3
G1 F2400 E47.93538
G1 F900 X152 Y151.782 E48.19213
M204 S5000
G1 F2400 E45.19213
G1 F600 Z0.8
G0 F3600 X148 Y151.782 Z0.8
M204 S500
G1 F600 Z0.3
G1 F2400 E48.19213
G1 F900 X148 Y147.678 E48.44889
M204 S5000
G1 F2400 E45.44889
G1 F600 Z0.8
G0 F3600 X144 Y147.678 Z0.8
M204 S500
G1 F600 Z0.3
G1 F2400 E48.44889
G1 F900 X144 Y151.782 E48.70564
M204 S5000
G1 F2400 E45.70564
G1 F600 Z0.8
G0 F3600 X140 Y151.782 Z0.8
M204 S500
G1 F600 Z0.3
G1 F2400 E48.70564
G1 F900 X140 Y147.678 E48.9624
M204 S5000
G1 F2400 E45.9624
G1 F600 Z0.8
G0 F3600 X136 Y147.678 Z0.8
M204 S500
G1 F600 Z0.3
G1 F2400 E48.9624
G1 F900 X136 Y151.782 E49.21916
M204 S5000
G1 F2400 E46.21916
G1 F600 Z0.8
G0 F3600 X132 Y151.782 Z0.8
M204 S500
G1 F600 Z0.3
G1 F2400 E49.21916
G1 F900 X132 Y147.678 E49.47591
M204 S5000
G1 F2400 E46.47591
G1 F600 Z0.8
G0 F3600 X128 Y147.678 Z0.8
M204 S500
G1 F600 Z0.3
G1 F2400 E49.47591
G1 F900 X128 Y151.782 E49.73267
M204 S5000
G1 F2400 E46.73267
G1 F600 Z0.8
G0 F3600 X124 Y151.782 Z0.8
M204 S500
G1 F600 Z0.3
G1 F2400 E49.73267
G1 F900 X124 Y147.678 E49.98942
M204 S5000
G1 F2400 E46.98942
G1 F600 Z0.8
G0 F3600 X120 Y147.678 Z0.8
M204 S500
G1 F600 Z0.3
G1 F2400 E49.98942
G1 F900 X120 Y151.782 E50.24618
M204 S5000
G1 F2400 E47.24618
G1 F600 Z0.8
G0 F3600 X116 Y151.782 Z0.8
M204 S500
G1 F600 Z0.3
G1 F2400 E50.24618
G1 F900 X116 Y147.678 E50.50293
M204 S5000
G1 F2400 E47.50293
G1 F600 Z0.8
G0 F3600 X112 Y147.678 Z0.8
M204 S500
G1 F600 Z0.3
G1 F2400 E50.50293
G1 F900 X112 Y151.782 E50.75969
M204 S5000
G1 F2400 E47.75969
G1 F600 Z0.8
G0 F3600 X108 Y151.782 Z0.8
M204 S500
G1 F600 Z0.3
G1 F2400 E50.75969
G1 F900 X108 Y147.678 E51.01645
M204 S5000
G1 F2400 E48.01645
G1 F600 Z0.8
G0 F3600 X104 Y147.678 Z0.8
M204 S500
G1 F600 Z0.3
G1 F2400 E51.01645
G1 F900 X104 Y151.782 E51.2732
M204 S5000
G1 F2400 E48.2732
G1 F600 Z0.8
G0 F3600 X100.452 Y158.038 Z0.8
M204 S500
G1 F600 Z0.3
G1 F2400 E51.2732
G1 F900 X219.543 Y158.038 E58.72381
G1 X219.74 Y157.95 E58.73731
G1 X219.737 Y159.936 E58.86156
G1 X219.733 Y159.966 E58.86345
G1 X219.74 Y160.574 E58.90149
G1 X219.72 Y160.665 E58.90732
G1 X219.718 Y161.706 E58.97245
G1 X219.581 Y161.963 E58.99067
G1 X219.581 Y162.469 E59.02233
G1 X219.477 Y162.502 E59.02915
G1 X100.519 Y162.502 E66.47144
G1 X100.42 Y162.473 E66.47789
G1 X100.412 Y161.944 E66.51099
G1 X100.345 Y161.819 E66.51987
G1 X100.368 Y161.759 E66.52389
G1 X100.094 Y160.805 E66.58598
G1 X100.138 Y160.305 E66.61738
G1 X100.283 Y158.785 E66.71291
G1 X100.259 Y158.645 E66.7218
G1 X100.289 Y158.252 E66.74646
G1 X100.265 Y157.952 E66.76529
G1 X100.452 Y158.038 E66.77816
M204 S5000
G1 F2400 E63.77816
G1 F600 Z0.8
G0 F3600 X100.347 Y160 Z0.8
M204 S500
G1 F600 Z0.3
G1 F2400 E66.77816
G1 F900 X219.554 Y160 E74.23603
M204 S5000
G1 F2400 E71.23603
G1 F600 Z0.8
G0 F3600 X216 Y158.218 Z0.8
M204 S500
G1 F600 Z0.3
G1 F2400 E74.23603
G1 F900 X216 Y162.322 E74.49278
M204 S5000
G1 F2400 E71.49278
G1 F600 Z0.8
G0 F3600 X212 Y162.322 Z0.8
M204 S500
G1 F600 Z0.3
G1 F2400 E74.49278
G1 F900 X212 Y158.218 E74.74954
M204 S5000
G1 F2400 E71.74954
G1 F600 Z0.8
G0 F3600 X208 Y158.218 Z0.8
M204 S500
G1 F600 Z0.3
G1 F2400 E74.74954
G1 F900 X208 Y162.322 E75.0063
M204 S5000
G1 F2400 E72.0063
G1 F600 Z0.8
G0 F3600 X204 Y162.322 Z0.8
M204 S500
G1 F600 Z0.3
G1 F2400 E75.0063
G1 F900 X204 Y158.218 E75.26305
M204 S5000
G1 F2400 E72.26305
G1 F600 Z0.8
G0 F3600 X200 Y158.218 Z0.8
M204 S500
G1 F600 Z0.3
G1 F2400 E75.26305
G1 F900 X200 Y162.322 E75.51981
M204 S5000
G1 F2400 E72.51981
G1 F600 Z0.8
G0 F3600 X196 Y162.322 Z0.8
M204 S500
G1 F600 Z0.3
G1 F2400 E75.51981
G1 F900 X196 Y158.218 E75.77656
M204 S5000
G1 F2400 E72.77656
G1 F600 Z0.8
G0 F3600 X192 Y158.218 Z0.8
M204 S500
G1 F600 Z0.3
G1 F2400 E75.77656
G1 F900 X192 Y162.322 E76.03332
M204 S5000
G1 F2400 E73.03332
G1 F600 Z0.8
G0 F3600 X188 Y162.322 Z0.8
M204 S500
G1 F600 Z0.3
G1 F2400 E76.03332
G1 F900 X188 Y158.218 E76.29007
M204 S5000
G1 F2400 E73.29007
G1 F600 Z0.8
G0 F3600 X184 Y158.218 Z0.8
M204 S500
G1 F600 Z0.3
G1 F2400 E76.29007
G1 F900 X184 Y162.322 E76.54683
M204 S5000
G1 F2400 E73.54683
G1 F600 Z0.8
G0 F3600 X180 Y162.322 Z0.8
M204 S500
G1 F600 Z0.3
G1 F2400 E76.54683
G1 F900 X180 Y158.218 E76.80359
M204 S5000
G1 F2400 E73.80359
G1 F600 Z0.8
G0 F3600 X176 Y158.218 Z0.8
M204 S500
G1 F600 Z0.3
G1 F2400 E76.80359
G1 F900 X176 Y162.322 E77.06034
M204 S5000
G1 F2400 E74.06034
G1 F600 Z0.8
G0 F3600 X172 Y162.322 Z0.8
M204 S500
G1 F600 Z0.3
G1 F2400 E77.06034
G1 F900 X172 Y158.218 E77.3171
M204 S5000
G1 F2400 E74.3171
G1 F600 Z0.8
G0 F3600 X168 Y158.218 Z0.8
M204 S500
G1 F600 Z0.3
G1 F2400 E77.3171
G1 F900 X168 Y162.322 E77.57385
M204 S5000
G1 F2400 E74.57385
G1 F600 Z0.8
G0 F3600 X164 Y162.322 Z0.8
M204 S500
G1 F600 Z0.3
G1 F2400 E77.57385
G1 F900 X164 Y158.218 E77.83061
M204 S5000
G1 F2400 E74.83061
G1 F600 Z0.8
G0 F3600 X160 Y158.218 Z0.8
M204 S500
G1 F600 Z0.3
G1 F2400 E77.83061
G1 F900 X160 Y162.322 E78.08736
M204 S5000
G1 F2400 E75.08736
G1 F600 Z0.8
G0 F3600 X156 Y162.322 Z0.8
M204 S500
G1 F600 Z0.3
G1 F2400 E78.08736
G1 F900 X156 Y158.218 E78.34412
M204 S5000
G1 F2400 E75.34412
G1 F600 Z0.8
G0 F3600 X152 Y158.218 Z0.8
M204 S500
G1 F600 Z0.3
G1 F2400 E78.34412
G1 F900 X152 Y162.322 E78.60088
M204 S5000
G1 F2400 E75.60088
G1 F600 Z0.8
G0 F3600 X148 Y162.322 Z0.8
M204 S500
G1 F600 Z0.3
G1 F2400 E78.60088
G1 F900 X148 Y158.218 E78.85763
M204 S5000
G1 F2400 E75.85763
G1 F600 Z0.8
G0 F3600 X144 Y158.218 Z0.8
M204 S500
G1 F600 Z0.3
G1 F2400 E78.85763
G1 F900 X144 Y162.322 E79.11439
M204 S5000
G1 F2400 E76.11439
G1 F600 Z0.8
G0 F3600 X140 Y162.322 Z0.8
M204 S500
G1 F600 Z0.3
G1 F2400 E79.11439
G1 F900 X140 Y158.218 E79.37114
M204 S5000
G1 F2400 E76.37114
G1 F600 Z0.8
G0 F3600 X136 Y158.218 Z0.8
M204 S500
G1 F600 Z0.3
G1 F2400 E79.37114
G1 F900 X136 Y162.322 E79.6279
M204 S5000
G1 F2400 E76.6279
G1 F600 Z0.8
G0 F3600 X132 Y162.322 Z0.8
M204 S500
G1 F600 Z0.3
G1 F2400 E79.6279
G1 F900 X132 Y158.218 E79.88465
M204 S5000
G1 F2400 E76.88465
G1 F600 Z0.8
G0 F3600 X128 Y158.218 Z0.8
M204 S500
G1 F600 Z0.3
G1 F2400 E79.88465
G1 F900 X128 Y162.322 E80.14141
M204 S5000
G1 F2400 E77.14141
G1 F600 Z0.8
G0 F3600 X124 Y162.322 Z0.8
M204 S500
G1 F600 Z0.3
G1 F2400 E80.14141
G1 F900 X124 Y158.218 E80.39817
M204 S5000
G1 F2400 E77.39817
G1 F600 Z0.8
G0 F3600 X120 Y158.218 Z0.8
M204 S500
G1 F600 Z0.3
G1 F2400 E80.39817
G1 F900 X120 Y162.322 E80.65492
M204 S5000
G1 F2400 E77.65492
G1 F600 Z0.8
G0 F3600 X116 Y162.322 Z0.8
M204 S500
G1 F600 Z0.3
G1 F2400 E80.65492
G1 F900 X116 Y158.218 E80.91168
M204 S5000
G1 F2400 E77.91168
G1 F600 Z0.8
G0 F3600 X112 Y158.218 Z0.8
M204 S500
G1 F600 Z0.3
G1 F2400 E80.91168
G1 F900 X112 Y162.322 E81.16843
M204 S5000
G1 F2400 E78.16843
G1 F600 Z0.8
G0 F3600 X108 Y162.322 Z0.8
M204 S500
G1 F600 Z0.3
G1 F2400 E81.16843
G1 F900 X108 Y158.218 E81.42519
M204 S5000
G1 F2400 E78.42519
G1 F600 Z0.8
G0 F3600 X104 Y158.218 Z0.8
M204 S500
G1 F600 Z0.3
G1 F2400 E81.42519
G1 F900 X104 Y162.322 E81.68194
M204 S5000
G1 F2400 E78.68194
G1 F600 Z0.8
;MESH:e504d955-9749-442c-b126-9178012ce0dc.stl
G0 F3600 X218.71 Y155.565 Z0.8
M204 S500
;TYPE:WALL-INNER
G1 F600 Z0.3
G1 F2400 E81.68194
G1 F900 X101.291 Y155.565 E89.02795
G1 X101.247 Y155 E89.0634
G1 X101.29 Y154.435 E89.09885
G1 X218.709 Y154.435 E96.44486
G1 X218.753 Y155 E96.48031
G1 X218.71 Y155.565 E96.51576
M204 S5000
G0 F3600 X219.117 Y156.005
M204 S500
G1 F900 X100.884 Y156.005 E103.91269
G1 X100.805 Y155 E103.97576
G1 X100.883 Y153.995 E104.03883
G1 X219.116 Y153.995 E111.43576
G1 X219.195 Y155 E111.49882
G1 X219.117 Y156.005 E111.56189
M204 S5000
G0 F3600 X219.43 Y156.445
M204 S500
;TYPE:WALL-OUTER
G1 F900 X100.568 Y156.445 E118.99817
G1 X100.459 Y156.223 E119.01364
G1 X100.363 Y155 E119.09039
G1 X100.458 Y153.777 E119.16714
G1 X100.57 Y153.555 E119.18269
G1 X219.432 Y153.555 E126.61897
G1 X219.541 Y153.777 E126.63445
G1 X219.637 Y155 E126.7112
G1 X219.542 Y156.223 E126.78794
G1 X219.43 Y156.445 E126.8035
M204 S5000
G0 F3600 X219.23 Y156.445
G0 X219.079 Y155.949
G0 X219.023 Y155.945
G0 X218.312 Y155.135
M204 S500
;TYPE:SKIN
G1 F900 X101.688 Y155.135 E134.09976
G1 X101.688 Y154.865 E134.11666
G1 X218.312 Y154.865 E141.41292
G1 X218.312 Y155.135 E141.42982
M204 S5000
G1 F2400 E138.42982
G1 F600 Z0.8
;MESH:NONMESH
G0 F3600 X218.312 Y155.135 Z0.8
G0 X104 Y147.478
;TIME_ELAPSED:191.806361
;LAYER:1
M106 S255
G0 F7200 X104 Y147.478 Z1
M204 S500
;TYPE:SUPPORT
G1 F600 Z0.5
G1 F2400 E141.42982
G1 F4500 X100.529 Y147.478 E141.53949
G1 X100.434 Y147.496 E141.54254
G1 X100.397 Y147.517 E141.54389
G1 X100.399 Y148.026 E141.55997
G1 X100.323 Y148.171 E141.56514
G1 X100.348 Y148.24 E141.56746
G1 X100.294 Y148.43 E141.5737
G1 X100.446 Y148.79 E141.58605
G1 X100.172 Y150.055 E141.62695
G1 X100.118 Y150.306 E141.63506
G1 X100.237 Y150.665 E141.64701
G1 X100.243 Y150.977 E141.65687
