;FLAVOR:Marlin
;TIME:512
;Filament used: 0.392334m
;Layer height: 0.2
;MINX:135.43
;MINY:138.98
;MINZ:0.3
;MAXX:184.569
;MAXY:171.02
;MAXZ:5
;Generated with Cura_SteamEngine 4.8.0
M140 S85
M105
M190 S85
M104 S240
M105
M109 S240
M82 ;absolute extrusion mode
G28 ;Home
G1 Z15.0 F6000 ;Move the platform down 15mm
;Prime the extruder
G92 E0
G1 F200 E3
G92 E0
G92 E0
G92 E0
G1 F2400 E-3
;LAYER_COUNT:22
;LAYER:0
M107
M204 S5000
M205 X5 Y5
G1 F600 Z0.8
G0 F3000 X138.621 Y141.8 Z0.8
M204 S500
;TYPE:SKIRT
G1 F600 Z0.3
G1 F2400 E0
G1 F1500 X139.304 Y141.207 E0.05957
G1 X140.036 Y140.677 E0.11908
G1 X140.812 Y140.213 E0.17862
G1 X141.626 Y139.82 E0.23815
G1 X142.471 Y139.5 E0.29765
G1 X143.342 Y139.256 E0.35722
G1 X144.23 Y139.091 E0.4167
G1 X145.401 Y138.993 E0.49409
G1 X146.055 Y138.98 E0.53717
G1 X167.643 Y138.98 E1.95885
G1 X168.666 Y138.993 E2.02622
G1 X169.449 Y139.029 E2.07784
G1 X170.016 Y139.078 E2.11532
G1 X170.603 Y139.15 E2.15427
G1 X170.809 Y139.18 E2.16797
G1 X171.355 Y139.275 E2.20447
G1 X172.063 Y139.423 E2.25211
G1 X172.186 Y139.452 E2.26043
G1 X172.759 Y139.604 E2.29947
G1 X173.387 Y139.795 E2.34269
G1 X173.528 Y139.841 E2.35246
G1 X174.123 Y140.056 E2.39413
G1 X174.714 Y140.294 E2.43608
G1 X174.884 Y140.367 E2.44827
G1 X175.408 Y140.61 E2.48631
G1 X175.923 Y140.871 E2.52433
G1 X176.118 Y140.975 E2.53888
G1 X176.662 Y141.287 E2.58018
G1 X177.164 Y141.599 E2.6191
G1 X177.277 Y141.672 E2.62796
G1 X177.847 Y142.068 E2.67367
G1 X178.441 Y142.519 E2.72279
G1 X178.985 Y142.97 E2.76932
G1 X179.497 Y143.433 E2.81478
G1 X179.947 Y143.881 E2.8566
G1 X180.423 Y144.387 E2.90235
G1 X180.496 Y144.468 E2.90953
G1 X180.911 Y144.959 E2.95187
G1 X181.321 Y145.483 E2.99568
G1 X181.419 Y145.614 E3.00646
G1 X181.775 Y146.12 E3.0472
G1 X182.09 Y146.606 E3.08534
G1 X182.198 Y146.78 E3.09883
G1 X182.488 Y147.278 E3.13678
G1 X182.796 Y147.852 E3.17968
G1 X182.875 Y148.008 E3.19119
G1 X183.136 Y148.565 E3.2317
G1 X183.395 Y149.173 E3.27522
G1 X183.468 Y149.356 E3.2882
G1 X183.671 Y149.911 E3.32712
G1 X183.886 Y150.582 E3.37352
G1 X184.056 Y151.204 E3.41598
G1 X184.224 Y151.928 E3.46493
G1 X184.247 Y152.04 E3.47246
G1 X184.345 Y152.593 E3.50944
G1 X184.446 Y153.308 E3.557
G1 X184.467 Y153.489 E3.569
G1 X184.516 Y154.041 E3.60549
G1 X184.547 Y154.623 E3.64387
G1 X184.563 Y155.132 E3.67741
G1 X184.568 Y155.441 E3.69776
G1 X184.569 Y157.274 E3.81847
G1 X184.56 Y157.898 E3.85957
G1 X184.535 Y158.473 E3.89747
G1 X184.487 Y159.108 E3.93941
G1 X184.469 Y159.293 E3.95165
G1 X184.342 Y160.188 E4.01118
G1 X184.208 Y160.797 E4.05225
G1 X184.069 Y161.34 E4.08916
G1 X184.02 Y161.517 E4.10126
G1 X183.74 Y162.376 E4.16075
G1 X183.504 Y162.953 E4.20181
G1 X183.24 Y163.535 E4.24389
G1 X183.177 Y163.667 E4.25353
G1 X182.752 Y164.465 E4.31307
G1 X182.431 Y164.974 E4.3527
G1 X182.031 Y165.56 E4.39942
G1 X181.968 Y165.648 E4.40655
G1 X181.41 Y166.359 E4.46607
G1 X180.994 Y166.814 E4.50667
G1 X180.525 Y167.292 E4.55077
G1 X180.416 Y167.398 E4.56078
G1 X179.741 Y167.999 E4.6203
G1 X179.312 Y168.329 E4.65595
G1 X178.758 Y168.726 E4.70083
G1 X178.623 Y168.818 E4.71159
G1 X177.855 Y169.294 E4.77109
G1 X177.373 Y169.546 E4.80691
G1 X176.741 Y169.851 E4.85312
G1 X176.626 Y169.903 E4.86144
G1 X175.786 Y170.239 E4.92101
G1 X175.228 Y170.416 E4.95957
G1 X174.503 Y170.62 E5.00917
G1 X174.429 Y170.639 E5.0142
G1 X173.544 Y170.825 E5.07375
G1 X172.931 Y170.907 E5.11448
G1 X172.388 Y170.959 E5.1504
G1 X172.223 Y170.972 E5.1613
G1 X171.589 Y171.003 E5.20311
G1 X170.681 Y171.018 E5.26291
G1 X149.359 Y171.02 E6.66707
G1 X148.481 Y171.008 E6.7249
G1 X147.917 Y170.984 E6.76207
G1 X147.4 Y170.943 E6.79623
G1 X147.148 Y170.918 E6.8129
G1 X146.253 Y170.789 E6.87245
G1 X145.721 Y170.674 E6.9083
G1 X145.096 Y170.515 E6.95077
G1 X144.934 Y170.47 E6.96184
G1 X144.074 Y170.19 E7.0214
G1 X143.54 Y169.972 E7.05939
G1 X142.927 Y169.697 E7.10363
G1 X142.809 Y169.641 E7.11223
G1 X142.01 Y169.218 E7.17177
G1 X141.498 Y168.895 E7.21164
G1 X140.916 Y168.499 E7.258
G1 X140.796 Y168.413 E7.26772
G1 X140.085 Y167.854 E7.32728
G1 X139.666 Y167.473 E7.36457
G1 X139.187 Y167.006 E7.40863
G1 X139.094 Y166.911 E7.41739
G1 X138.491 Y166.238 E7.47689
G1 X138.151 Y165.8 E7.51341
G1 X137.657 Y165.112 E7.56919
G1 X137.601 Y165.029 E7.57578
G1 X137.129 Y164.258 E7.63531
G1 X136.765 Y163.543 E7.68815
G1 X136.582 Y163.154 E7.71646
G1 X136.24 Y162.317 E7.77601
G1 X136.041 Y161.702 E7.81857
G1 X135.851 Y161.035 E7.86425
G1 X135.831 Y160.959 E7.86942
G1 X135.64 Y160.075 E7.92898
G1 X135.554 Y159.456 E7.97014
G1 X135.492 Y158.855 E8.00993
G1 X135.484 Y158.761 E8.01614
G1 X135.448 Y158.067 E8.0619
G1 X135.432 Y157.121 E8.12421
G1 X135.43 Y149.89 E8.60041
G1 X135.441 Y149.06 E8.65507
G1 X135.494 Y148.157 E8.71464
G1 X135.627 Y147.263 E8.77417
G1 X135.839 Y146.384 E8.83371
G1 X136.127 Y145.527 E8.89325
G1 X136.489 Y144.699 E8.95276
G1 X136.924 Y143.906 E9.01233
G1 X137.427 Y143.155 E9.07185
G1 X137.994 Y142.451 E9.13138
G1 X138.621 Y141.8 E9.19091
M204 S5000
G1 F2400 E6.19091
;MESH:S8_shroud_40XX-Clamp.stl
G0 F3000 X146.324 Y148.535
G0 X146.324 Y149.874
G0 X161.473 Y149.865
G0 X168.812 Y149.981
G0 X168.85 Y149.442
M204 S500
;TYPE:WALL-OUTER
G1 F2400 E9.19091
G1 F1500 X169.342 Y149.505 E9.22357
G1 X169.837 Y149.614 E9.25695
G1 X170.323 Y149.767 E9.2905
G1 X171.224 Y150.185 E9.35591
G1 X171.655 Y150.459 E9.38955
G1 X172.055 Y150.765 E9.42271
G1 X172.431 Y151.107 E9.45619
G1 X172.778 Y151.485 E9.48998
G1 X173.077 Y151.874 E9.52229
G1 X173.35 Y152.301 E9.55566
G1 X173.585 Y152.752 E9.58915
G1 X173.774 Y153.206 E9.62154
G1 X173.93 Y153.697 E9.65547
G1 X174.041 Y154.191 E9.68881
G1 X174.105 Y154.678 E9.72116
G1 X174.129 Y155.191 E9.75498
G1 X174.13 Y157.792 E9.92627
G1 X174.088 Y158.276 E9.95826
G1 X173.964 Y158.744 E9.99015
G1 X173.757 Y159.189 E10.02247
G1 X173.483 Y159.581 E10.05396
G1 X173.141 Y159.924 E10.08586
G1 X172.74 Y160.206 E10.11815
G1 X172.31 Y160.408 E10.14943
G1 X171.834 Y160.535 E10.18188
G1 X171.346 Y160.579 E10.21414
G1 X148.657 Y160.58 E11.70833
G1 X148.183 Y160.54 E11.73965
G1 X147.711 Y160.416 E11.77179
G1 X147.274 Y160.214 E11.8035
G1 X146.872 Y159.935 E11.83572
G1 X146.531 Y159.598 E11.8673
G1 X146.25 Y159.2 E11.89938
G1 X146.043 Y158.761 E11.93134
G1 X145.916 Y158.296 E11.96309
G1 X145.871 Y157.8 E11.99589
G1 X145.87 Y149.64 E12.53326
G1 X145.87 Y149.42 E12.54775
G1 X146.09 Y149.42 E12.55712
G1 X168.341 Y149.42 E14.02246
G1 X168.85 Y149.442 E14.05601
M204 S5000
G0 F3000 X169.048 Y149.467
G0 X168.986 Y149.947
G0 X168.975 Y150.009
G0 X162.44 Y149.879
G0 X150.44 Y149.879
G0 X149.251 Y150.469
G0 X148.554 Y151.675
G0 X147.978 Y153.891
G0 X147.77 Y154.88
G0 X148.31 Y154.88
M204 S500
G1 F1500 X148.31 Y158.52 E14.29572
G1 X154.2 Y158.52 E14.68361
G1 X154.2 Y154.88 E14.92332
G1 X148.31 Y154.88 E15.31121
M204 S5000
G0 F3000 X148.31 Y155.08
G0 X147.826 Y155.08
G0 X147.77 Y155.08
G0 X150.251 Y154.427
G0 X150.606 Y154.057
M204 S500
G1 F1500 X151.176 Y154.044 E15.34876
G1 X151.712 Y153.862 E15.38603
G1 X152.118 Y153.578 E15.41866
G1 X152.472 Y153.136 E15.45596
G1 X152.678 Y152.605 E15.49346
G1 X152.716 Y152.039 E15.53082
G1 X152.607 Y151.558 E15.5633
G1 X152.383 Y151.125 E15.59541
G1 X152.051 Y150.765 E15.62766
G1 X151.637 Y150.502 E15.65996
G1 X151.094 Y150.343 E15.69722
G1 X150.524 Y150.356 E15.73477
G1 X149.988 Y150.538 E15.77204
G1 X149.582 Y150.822 E15.80467
G1 X149.228 Y151.264 E15.84196
G1 X149.023 Y151.79 E15.87914
G1 X148.978 Y152.202 E15.90644
G1 X149.042 Y152.689 E15.93878
G1 X149.27 Y153.207 E15.97605
G1 X149.645 Y153.633 E16.01343
G1 X150.064 Y153.898 E16.04608
G1 X150.606 Y154.057 E16.08328
M204 S5000
G0 F3000 X150.806 Y154.053
G0 X150.251 Y154.427
G0 X149.331 Y154.001
G0 X148.576 Y152.819
G0 X148.554 Y151.675
G0 X149.251 Y150.469
G0 X150.44 Y149.879
G0 X151.706 Y150.023
G0 X160.17 Y154.88
G0 X160.71 Y154.88
M204 S500
G1 F1500 X160.71 Y158.52 E16.32299
G1 X169.05 Y158.52 E16.87222
G1 X169.05 Y154.88 E17.11193
G1 X160.71 Y154.88 E17.66116
M204 S5000
G0 F3000 X160.71 Y155.08
G0 X160.226 Y155.08
G0 X160.17 Y155.08
G0 X162.251 Y154.427
G0 X162.606 Y154.057
M204 S500
G1 F1500 X163.176 Y154.044 E17.69871
G1 X163.712 Y153.862 E17.73599
G1 X164.118 Y153.578 E17.76862
G1 X164.472 Y153.136 E17.80591
G1 X164.678 Y152.605 E17.84342
G1 X164.716 Y152.039 E17.88078
G1 X164.607 Y151.558 E17.91326
G1 X164.383 Y151.125 E17.94536
G1 X164.051 Y150.765 E17.97761
G1 X163.637 Y150.502 E18.00991
G1 X163.094 Y150.343 E18.04717
G1 X162.524 Y150.356 E18.08472
G1 X161.988 Y150.538 E18.122
G1 X161.582 Y150.822 E18.15463
G1 X161.228 Y151.264 E18.19192
G1 X161.023 Y151.79 E18.2291
G1 X160.978 Y152.202 E18.25639
G1 X161.042 Y152.689 E18.28874
G1 X161.27 Y153.207 E18.32601
G1 X161.645 Y153.633 E18.36338
G1 X162.064 Y153.898 E18.39603
G1 X162.606 Y154.057 E18.43323
M204 S5000
G0 F3000 X162.806 Y154.053
G0 X162.251 Y154.427
G0 X161.331 Y154.001
G0 X160.576 Y152.819
G0 X160.554 Y151.675
G0 X161.251 Y150.469
G0 X162.44 Y149.879
G0 X168.812 Y149.981
G0 X168.822 Y149.882
M204 S500
;TYPE:WALL-INNER
G1 F1500 X169.725 Y150.04 E18.4936
G1 X170.167 Y150.179 E18.52412
G1 X171.013 Y150.572 E18.58555
G1 X171.772 Y151.101 E18.64647
G1 X172.442 Y151.77 E18.70883
G1 X172.948 Y152.494 E18.767
G1 X172.972 Y152.527 E18.76968
G1 X173.361 Y153.358 E18.83011
G1 X173.607 Y154.267 E18.89212
G1 X173.665 Y154.708 E18.92141
G1 X173.689 Y155.212 E18.95464
G1 X173.69 Y157.777 E19.12356
G1 X173.653 Y158.199 E19.15146
G1 X173.55 Y158.591 E19.17815
G1 X173.374 Y158.968 E19.20555
G1 X173.145 Y159.296 E19.23189
G1 X172.854 Y159.588 E19.25904
G1 X172.517 Y159.825 E19.28617
G1 X172.159 Y159.993 E19.31222
G1 X171.757 Y160.1 E19.33961
G1 X171.328 Y160.139 E19.36798
G1 X148.67 Y160.14 E20.86013
G1 X148.263 Y160.106 E20.88702
G1 X147.857 Y159.999 E20.91467
G1 X147.493 Y159.831 E20.94107
G1 X147.155 Y159.596 E20.96818
G1 X146.868 Y159.312 E20.99477
G1 X146.846 Y159.28 E20.99733
G1 X146.633 Y158.98 E21.02156
G1 X146.456 Y158.605 E21.04887
G1 X146.351 Y158.219 E21.07521
G1 X146.348 Y158.179 E21.07785
G1 X146.314 Y157.805 E21.10259
G1 X146.311 Y157.782 E21.10411
G1 X146.31 Y150.079 E21.61139
G1 X146.31 Y149.86 E21.62582
G1 X146.529 Y149.86 E21.63515
G1 X149.538 Y149.86 E21.83331
G1 X149.787 Y149.86 E21.84971
G1 X150.446 Y149.86 E21.89311
G1 X151.152 Y149.86 E21.9396
G1 X151.82 Y149.86 E21.98359
G1 X152.167 Y149.86 E22.00644
G1 X161.538 Y149.86 E22.62357
G1 X161.787 Y149.86 E22.63997
G1 X162.446 Y149.86 E22.68337
G1 X163.152 Y149.86 E22.72986
G1 X163.82 Y149.86 E22.77385
G1 X164.167 Y149.86 E22.7967
G1 X168.322 Y149.86 E23.07033
G1 X168.822 Y149.882 E23.10329
M204 S5000
G0 F3000 X168.78 Y150.321
M204 S500
G1 F1500 X169.616 Y150.467 E23.15918
G1 X170.011 Y150.591 E23.18644
G1 X170.791 Y150.954 E23.2431
G1 X171.49 Y151.441 E23.2992
G1 X172.105 Y152.055 E23.35643
G1 X172.589 Y152.746 E23.41199
G1 X172.945 Y153.507 E23.46732
G1 X173.175 Y154.358 E23.52537
G1 X173.249 Y155.233 E23.5832
G1 X173.25 Y157.762 E23.74975
G1 X173.219 Y158.118 E23.77328
G1 X173.134 Y158.442 E23.79534
G1 X172.991 Y158.747 E23.81753
G1 X172.807 Y159.011 E23.83872
G1 X172.567 Y159.252 E23.86112
G1 X172.294 Y159.444 E23.8831
G1 X172.008 Y159.578 E23.9039
G1 X171.68 Y159.665 E23.92624
G1 X171.31 Y159.699 E23.95071
G1 X169.93 Y159.699 E24.04159
G1 X159.83 Y159.699 E24.70673
G1 X155.081 Y159.699 E25.01947
G1 X148.683 Y159.7 E25.44081
G1 X148.338 Y159.671 E25.46361
G1 X148.011 Y159.585 E25.48588
G1 X147.643 Y159.4 E25.51301
G1 X148.011 Y159.4 E25.51754
G1 X148.338 Y159.4 E25.52865
G1 X148.683 Y159.4 E25.54342
G1 X155.08 Y159.4 E25.83082
G1 X155.08 Y154 E26.18644
G1 X153.257 Y154 E26.30649
G1 X153.244 Y154 E26.30735
G1 X152.907 Y154 E26.32954
G1 X153.244 Y153.58 E26.35135
G1 X153.248 Y153.568 E26.35217
G1 X153.548 Y152.798 E26.40659
G1 X153.597 Y152.033 E26.45707
G1 X153.602 Y151.969 E26.4613
G1 X153.441 Y151.254 E26.50957
G1 X153.157 Y150.704 E26.55033
G1 X153.111 Y150.615 E26.55693
G1 X152.82 Y150.3 E26.58517
G1 X153.111 Y150.3 E26.59038
G1 X153.212 Y150.3 E26.59623
G1 X160.415 Y150.3 E27.07059
G1 X160.416 Y150.3 E27.07065
G1 X160.872 Y150.3 E27.10068
G1 X160.586 Y150.656 E27.1172
G1 X160.456 Y150.818 E27.13088
G1 X160.161 Y151.579 E27.18463
G1 X160.092 Y152.212 E27.22656
G1 X160.186 Y152.929 E27.27419
G1 X160.482 Y153.6 E27.32248
G1 X160.52 Y153.687 E27.32874
G1 X160.795 Y154 E27.35617
G1 X160.52 Y154 E27.36089
G1 X160.424 Y154 E27.36646
G1 X159.83 Y154 E27.40558
G1 X159.83 Y159.4 E27.7612
G1 X169.93 Y159.4 E28.21422
G1 X169.93 Y154 E28.56984
G1 X165.257 Y154 E28.87758
G1 X165.244 Y154 E28.87843
G1 X164.907 Y154 E28.90063
G1 X165.244 Y153.58 E28.92244
G1 X165.248 Y153.568 E28.92326
G1 X165.548 Y152.798 E28.97768
G1 X165.597 Y152.033 E29.02816
G1 X165.602 Y151.969 E29.03239
G1 X165.441 Y151.254 E29.08065
G1 X165.157 Y150.704 E29.12142
G1 X165.111 Y150.615 E29.12801
G1 X164.82 Y150.3 E29.15626
G1 X165.111 Y150.3 E29.16146
G1 X165.212 Y150.3 E29.16732
G1 X168.303 Y150.3 E29.37088
G1 X168.78 Y150.321 E29.40232
M204 S5000
G0 F3000 X165.117 Y151.372
G0 X165.024 Y151.406
M204 S500
G1 F1500 X164.747 Y150.87 E29.44205
G1 X164.335 Y150.424 E29.48204
G1 X164.112 Y150.283 E29.49941
G1 X163.82 Y150.097 E29.51717
G1 X163.152 Y149.902 E29.53264
G1 X162.446 Y149.918 E29.53793
G1 X161.787 Y150.142 E29.55681
G1 X161.583 Y150.284 E29.57038
G1 X161.278 Y150.498 E29.59492
G1 X160.842 Y151.041 E29.64078
G1 X160.592 Y151.684 E29.68621
G1 X160.535 Y152.207 E29.72086
G1 X160.614 Y152.809 E29.76084
G1 X160.895 Y153.447 E29.80675
G1 X161.356 Y153.971 E29.85272
G1 X161.441 Y154.025 E29.85935
G1 X161.881 Y154.303 E29.89362
G1 X162.35 Y154.44 E29.9258
G1 X161.881 Y154.44 E29.93037
G1 X161.36 Y154.44 E29.95335
G1 X160.27 Y154.44 E30.02514
G1 X160.27 Y158.96 E30.3228
G1 X169.49 Y158.96 E30.92998
G1 X169.49 Y154.44 E31.22765
G1 X164.32 Y154.44 E31.56812
G1 X163.913 Y154.44 E31.59492
G1 X163.378 Y154.44 E31.63016
G1 X163.913 Y154.258 E31.63904
G1 X164.246 Y154.025 E31.65833
G1 X164.422 Y153.902 E31.67247
G1 X164.858 Y153.358 E31.71838
G1 X165.113 Y152.702 E31.76473
G1 X165.159 Y152.004 E31.8108
G1 X165.024 Y151.406 E31.85117
M204 S5000
G0 F3000 X165.117 Y151.372
G0 X164.36 Y150.394
G0 X163.157 Y149.863
G0 X161.898 Y150.063
G0 X154.71 Y154.37
G0 X154.64 Y154.44
M204 S500
G1 F1500 X152.32 Y154.44 E32.00396
G1 X151.913 Y154.44 E32.03076
G1 X151.378 Y154.44 E32.06599
G1 X151.913 Y154.258 E32.07488
G1 X152.246 Y154.025 E32.09417
G1 X152.422 Y153.902 E32.10831
G1 X152.858 Y153.358 E32.15422
G1 X153.113 Y152.702 E32.20057
G1 X153.159 Y152.004 E32.24664
G1 X153.024 Y151.406 E32.28701
G1 X152.747 Y150.87 E32.32674
G1 X152.335 Y150.424 E32.36673
G1 X152.112 Y150.283 E32.3841
G1 X151.82 Y150.097 E32.40186
G1 X151.152 Y149.902 E32.41732
G1 X150.446 Y149.918 E32.42262
G1 X149.787 Y150.142 E32.4415
G1 X149.583 Y150.284 E32.45507
G1 X149.278 Y150.498 E32.47961
G1 X148.842 Y151.041 E32.52547
G1 X148.592 Y151.684 E32.5709
G1 X148.535 Y152.207 E32.60555
G1 X148.614 Y152.809 E32.64553
G1 X148.895 Y153.447 E32.69144
G1 X149.356 Y153.971 E32.73741
G1 X149.441 Y154.025 E32.74404
G1 X149.881 Y154.303 E32.77831
G1 X150.35 Y154.44 E32.81049
G1 X149.881 Y154.44 E32.81506
G1 X149.36 Y154.44 E32.83804
G1 X147.87 Y154.44 E32.93617
G1 X147.87 Y158.96 E33.23383
G1 X154.64 Y158.96 E33.67967
G1 X154.64 Y154.44 E33.97734
M204 S5000
G0 F3000 X154.71 Y154.37
G0 X152.779 Y150.848
G0 X151.836 Y150.061
G0 X150.577 Y149.875
G0 X148.872 Y150.3
M204 S500
G1 F1500 X148.586 Y150.656 E34.00741
G1 X148.456 Y150.818 E34.02109
G1 X148.161 Y151.579 E34.07484
G1 X148.092 Y152.212 E34.11677
G1 X148.186 Y152.929 E34.16439
G1 X148.482 Y153.6 E34.21269
G1 X148.52 Y153.687 E34.21894
G1 X148.795 Y154 E34.24638
G1 X148.52 Y154 E34.2511
G1 X148.424 Y154 E34.25667
G1 X147.43 Y154 E34.32213
G1 X147.43 Y158.704 E34.63191
G1 X147.43 Y158.759 E34.63553
G1 X147.43 Y159.026 E34.65312
G1 X147.43 Y159.249 E34.6678
G1 X147.204 Y159.026 E34.67649
G1 X147.016 Y158.759 E34.69294
G1 X146.993 Y158.71 E34.6964
G1 X146.871 Y158.453 E34.71514
G1 X146.785 Y158.138 E34.73664
G1 X146.751 Y157.764 E34.76137
G1 X146.75 Y150.3 E35.25291
G1 X148.415 Y150.3 E35.36256
G1 X148.416 Y150.3 E35.36263
