;FLAVOR:Marlin
;TIME:1424
;Filament used: 1.39476m
;Layer height: 0.2
;MINX:135.762
;MINY:68.433
;MINZ:0.3
;MAXX:182.13
;MAXY:241.32
;MAXZ:10.7
;Generated with Cura_SteamEngine 4.8.0
M140 S85
M105
M190 S85
M104 S235
M105
M109 S235
M82 ;absolute extrusion mode
G28 ;Home
G1 Z15.0 F6000 ;Move the platform down 15mm
;Prime the extruder
G92 E0
G1 F200 E3
G92 E0
G92 E0
G92 E0
G1 F2400 E-3
;LAYER_COUNT:21
;LAYER:0
M107
M204 S5000
M205 X5 Y5
G1 F600 Z0.8
G0 F6000 X140.356 Y213.433 Z0.8
M204 S500
;TYPE:SKIRT
G1 F600 Z0.3
G1 F2400 E0
G1 F1200 X141.132 Y212.968 E0.0566
G1 X141.945 Y212.574 E0.11312
G1 X142.791 Y212.253 E0.16973
G1 X143.661 Y212.008 E0.22627
G1 X144.549 Y211.841 E0.2828
G1 X145.705 Y211.743 E0.35539
G1 X146.312 Y211.73 E0.39337
G1 X152.52 Y211.73 E0.78176
G1 X154.491 Y211.757 E0.90508
G1 X157.127 Y211.757 E1.06999
G1 X158.326 Y211.732 E1.14502
G1 X158.539 Y211.73 E1.15835
G1 X164.91 Y211.731 E1.55693
G1 X165.608 Y211.741 E1.6006
G1 X166.511 Y211.794 E1.6572
G1 X167.405 Y211.926 E1.71373
G1 X168.284 Y212.137 E1.77029
G1 X169.141 Y212.425 E1.82685
G1 X169.969 Y212.788 E1.88341
G1 X170.762 Y213.222 E1.93997
G1 X171.514 Y213.724 E1.99653
G1 X172.218 Y214.291 E2.05309
G1 X172.869 Y214.918 E2.10963
G1 X173.462 Y215.6 E2.16617
G1 X173.993 Y216.332 E2.22275
G1 X174.457 Y217.108 E2.27931
G1 X174.85 Y217.922 E2.33586
G1 X175.17 Y218.767 E2.39239
G1 X175.415 Y219.638 E2.449
G1 X175.581 Y220.526 E2.50552
G1 X175.678 Y221.673 E2.57753
G1 X175.691 Y222.28 E2.61552
G1 X175.69 Y226.768 E2.8963
G1 X175.68 Y227.498 E2.94197
G1 X175.628 Y228.4 E2.9985
G1 X175.496 Y229.295 E3.0551
G1 X175.285 Y230.174 E3.11165
G1 X174.998 Y231.031 E3.16819
G1 X174.636 Y231.859 E3.22473
G1 X174.203 Y232.653 E3.28131
G1 X173.701 Y233.404 E3.33782
G1 X173.134 Y234.109 E3.39442
G1 X172.507 Y234.76 E3.45097
G1 X171.826 Y235.354 E3.50751
G1 X171.094 Y235.885 E3.56408
G1 X170.32 Y236.349 E3.62054
G1 X167.957 Y237.626 E3.78858
G1 X165.728 Y238.915 E3.94967
G1 X165.027 Y239.346 E4.00115
G1 X164.162 Y239.863 E4.0642
G1 X163.367 Y240.292 E4.12072
G1 X162.536 Y240.649 E4.1773
G1 X161.677 Y240.931 E4.23386
G1 X160.797 Y241.136 E4.29039
G1 X159.902 Y241.263 E4.34695
G1 X159.23 Y241.305 E4.38907
G1 X158.591 Y241.32 E4.42906
G1 X153.081 Y241.319 E4.77378
G1 X152.376 Y241.308 E4.81789
G1 X151.473 Y241.254 E4.87448
G1 X150.579 Y241.12 E4.93104
G1 X149.7 Y240.908 E4.98761
G1 X148.844 Y240.619 E5.04413
G1 X148.016 Y240.256 E5.10069
G1 X147.184 Y239.796 E5.16017
G1 X146.999 Y239.682 E5.17376
G1 X144.713 Y238.319 E5.34027
G1 X142.504 Y237.087 E5.49851
G1 X142.27 Y236.964 E5.51505
G1 X141.157 Y236.363 E5.59419
G1 X140.234 Y235.799 E5.66186
G1 X139.51 Y235.257 E5.71844
G1 X138.837 Y234.654 E5.77497
G1 X138.22 Y233.993 E5.83154
G1 X137.664 Y233.28 E5.88811
G1 X137.173 Y232.521 E5.94467
G1 X136.751 Y231.722 E6.0012
G1 X136.401 Y230.888 E6.05778
G1 X136.126 Y230.027 E6.11433
G1 X135.929 Y229.145 E6.17087
G1 X135.81 Y228.249 E6.22742
G1 X135.775 Y227.641 E6.26552
G1 X135.762 Y227.034 E6.3035
G1 X135.763 Y222.486 E6.58803
G1 X135.772 Y221.821 E6.62964
G1 X135.824 Y220.918 E6.68623
G1 X135.956 Y220.024 E6.74277
G1 X136.166 Y219.145 E6.79931
G1 X136.453 Y218.287 E6.85591
G1 X136.815 Y217.459 E6.91244
G1 X137.249 Y216.666 E6.969
G1 X137.75 Y215.914 E7.02553
G1 X138.317 Y215.209 E7.08213
G1 X138.943 Y214.558 E7.13864
G1 X139.625 Y213.964 E7.19522
G1 X140.356 Y213.433 E7.25174
M204 S5000
G1 F2400 E4.25174
G1 F600 Z0.8
;MESH:OPENER2.stl
G0 F6000 X153.022 Y227.584 Z0.8
M204 S500
;TYPE:WALL-OUTER
G1 F600 Z0.3
G1 F2400 E7.25174
G1 F900 X158.431 Y227.584 E7.59014
G1 X158.431 Y227.144 E7.61767
G1 X158.431 Y227.059 E7.62299
G1 X158.432 Y222.17 E7.92886
G1 X165.251 Y222.17 E8.35547
G1 X165.251 Y227.144 E8.66665
G1 X158.786 Y227.144 E9.07112
G1 X158.701 Y227.144 E9.07571
G1 X158.701 Y227.584 E9.0926
G1 X158.701 Y230.88 E9.29881
G1 X152.753 Y230.88 E9.67093
G1 X152.753 Y227.584 E9.87713
G1 X152.753 Y227.144 E9.90466
G1 X146.202 Y227.144 E10.31451
G1 X146.202 Y222.17 E10.62569
G1 X153.023 Y222.17 E11.05243
G1 X153.023 Y227.144 E11.36362
G1 X153.022 Y227.584 E11.38048
M204 S5000
G0 F6000 X153.222 Y227.584
G0 X153.222 Y228.068
G0 X153.193 Y228.024
M204 S500
;TYPE:WALL-INNER
G1 F900 X158.261 Y228.024 E11.69754
G1 X158.261 Y230.44 E11.84869
G1 X153.193 Y230.44 E12.16576
G1 X153.193 Y228.024 E12.31691
M204 S5000
G0 F6000 X153.633 Y228.464
M204 S500
G1 F900 X157.821 Y228.464 E12.57892
G1 X157.821 Y230 E12.67502
G1 X153.633 Y230 E12.93703
G1 X153.633 Y228.464 E13.03312
M204 S5000
G0 F6000 X153.072 Y227.853
G0 X152.778 Y226.907
G0 X152.582 Y226.704
M204 S500
G1 F900 X146.642 Y226.704 E13.40474
G1 X146.642 Y222.61 E13.66087
G1 X152.364 Y222.61 E14.01885
G1 X152.583 Y222.61 E14.03255
G1 X152.583 Y222.829 E14.04142
G1 X152.582 Y226.704 E14.28385
M204 S5000
G0 F6000 X152.142 Y226.264
M204 S500
G1 F900 X147.082 Y226.264 E14.60042
G1 X147.082 Y223.05 E14.80149
G1 X151.924 Y223.05 E15.10442
G1 X152.143 Y223.05 E15.11812
G1 X152.143 Y223.269 E15.12699
G1 X152.142 Y226.264 E15.31436
M204 S5000
G0 F6000 X152.754 Y227.177
G0 X158.459 Y227.852
G0 X158.708 Y226.785
G0 X158.871 Y226.704
M204 S500
G1 F900 X158.871 Y226.485 E15.32806
G1 X158.872 Y222.61 E15.57049
G1 X164.811 Y222.61 E15.94205
G1 X164.811 Y226.704 E16.19818
G1 X159.09 Y226.704 E16.5561
G1 X158.871 Y226.704 E16.56497
M204 S5000
G0 F6000 X159.311 Y226.264
M204 S500
G1 F900 X159.311 Y226.045 E16.57867
G1 X159.312 Y223.05 E16.76604
G1 X164.371 Y223.05 E17.08255
G1 X164.371 Y226.264 E17.28362
G1 X159.53 Y226.264 E17.58649
G1 X159.311 Y226.264 E17.59535
M204 S5000
G0 F6000 X159.741 Y225.834
M204 S500
;TYPE:SKIN
G1 F900 X159.742 Y223.48 E17.74263
G1 X163.941 Y223.48 E18.00532
G1 X163.941 Y225.834 E18.1526
G1 X159.741 Y225.834 E18.41536
M204 S5000
G0 F6000 X160.296 Y225.632
M204 S500
G1 F900 X159.941 Y225.277 E18.44677
M204 S5000
G0 F6000 X159.941 Y224.655
M204 S500
G1 F900 X160.918 Y225.632 E18.53321
M204 S5000
G0 F6000 X161.54 Y225.632
M204 S500
G1 F900 X159.941 Y224.033 E18.67468
M204 S5000
G0 F6000 X160.209 Y223.679
M204 S500
G1 F900 X162.162 Y225.632 E18.84748
M204 S5000
G0 F6000 X162.785 Y225.632
M204 S500
G1 F900 X160.832 Y223.679 E19.02027
M204 S5000
G0 F6000 X161.454 Y223.679
M204 S500
G1 F900 X163.407 Y225.632 E19.19307
M204 S5000
G0 F6000 X163.741 Y225.344
M204 S500
G1 F900 X162.076 Y223.679 E19.34038
M204 S5000
G0 F6000 X162.698 Y223.679
M204 S500
G1 F900 X163.741 Y224.722 E19.43266
M204 S5000
G0 F6000 X163.741 Y224.099
M204 S500
G1 F900 X163.321 Y223.679 E19.46982
M204 S5000
G0 F6000 X158.673 Y226.876
G0 X158.432 Y227.897
G0 X157.391 Y228.894
M204 S500
G1 F900 X157.391 Y229.57 E19.51211
G1 X154.063 Y229.57 E19.72032
G1 X154.063 Y228.894 E19.76261
G1 X157.391 Y228.894 E19.97082
M204 S5000
G0 F6000 X157.187 Y229.369
M204 S500
G1 F900 X156.911 Y229.093 E19.99524
M204 S5000
G0 F6000 X156.565 Y229.369
M204 S500
G1 F900 X156.289 Y229.093 E20.01966
M204 S5000
G0 F6000 X155.943 Y229.369
M204 S500
G1 F900 X155.667 Y229.093 E20.04408
M204 S5000
G0 F6000 X155.32 Y229.369
M204 S500
G1 F900 X155.045 Y229.093 E20.06845
M204 S5000
G0 F6000 X154.698 Y229.369
M204 S500
G1 F900 X154.422 Y229.093 E20.09287
M204 S5000
G0 F6000 X152.994 Y227.852
G0 X152.778 Y226.907
G0 X151.712 Y225.834
M204 S500
G1 F900 X147.512 Y225.834 E20.35564
G1 X147.512 Y223.48 E20.50291
G1 X151.713 Y223.48 E20.76573
G1 X151.712 Y225.834 E20.913
M204 S5000
G0 F6000 X151.513 Y224.316
M204 S500
G1 F900 X150.875 Y223.679 E20.96941
M204 S5000
G0 F6000 X150.253 Y223.679
M204 S500
G1 F900 X151.512 Y224.938 E21.0808
M204 S5000
G0 F6000 X151.512 Y225.56
M204 S500
G1 F900 X149.63 Y223.679 E21.24727
M204 S5000
G0 F6000 X149.008 Y223.679
M204 S500
G1 F900 X150.963 Y225.633 E21.42019
M204 S5000
G0 F6000 X150.34 Y225.633
M204 S500
G1 F900 X148.386 Y223.679 E21.59308
M204 S5000
G0 F6000 X147.764 Y223.679
M204 S500
G1 F900 X149.718 Y225.633 E21.76596
M204 S5000
G0 F6000 X149.096 Y225.633
M204 S500
G1 F900 X147.711 Y224.249 E21.88846
M204 S5000
G0 F6000 X147.711 Y224.871
M204 S500
G1 F900 X148.474 Y225.633 E21.95592
M204 S5000
G0 F6000 X147.851 Y225.633
M204 S500
G1 F900 X147.711 Y225.493 E21.96831
M204 S5000
;MESH:NONMESH
G0 F600 X147.711 Y225.493 Z0.5
G0 F6000 X152.748 Y226.661
G0 X152.994 Y227.852
G0 X158.459 Y227.852
G0 X158.721 Y227.164
;TIME_ELAPSED:29.784832
;LAYER:1
M106 S255
M204 S500
;TYPE:WALL-OUTER
;MESH:OPENER2.stl
G1 F2100 X158.721 Y230.815 E22.08367
G1 X152.733 Y230.815 E22.27287
G1 X152.733 Y227.164 E22.38823
G1 X146.182 Y227.164 E22.59522
G1 X146.182 Y222.15 E22.75365
G1 X153.155 Y222.15 E22.97398
G1 X153.355 Y222.15 E22.9803
G1 X153.355 Y222.35 E22.98439
G1 X153.354 Y227.364 E23.14282
G1 X153.354 Y227.564 E23.14914
G1 X153.554 Y227.564 E23.15323
G1 X158.099 Y227.564 E23.29684
G1 X158.1 Y222.15 E23.46791
G1 X165.271 Y222.15 E23.69449
G1 X165.271 Y227.164 E23.85292
G1 X158.721 Y227.164 E24.05988
M204 S5000
G0 F7200 X158.721 Y227.364
G0 X158.698 Y226.764
M204 S500
;TYPE:WALL-INNER
G1 F4200 X158.499 Y226.764 E24.06617
G1 X158.499 Y226.565 E24.07023
G1 X158.5 Y222.55 E24.1971
G1 X164.871 Y222.55 E24.3984
G1 X164.871 Y226.764 E24.53155
G1 X158.698 Y226.764 E24.7266
M204 S5000
G0 F7200 X158.899 Y226.364
M204 S500
G1 F4200 X158.899 Y226.165 E24.73289
G1 X158.9 Y222.95 E24.83447
G1 X164.471 Y222.95 E25.0105
G1 X164.471 Y226.364 E25.11837
G1 X159.098 Y226.364 E25.28815
G1 X158.899 Y226.364 E25.29221
M204 S5000
G0 F7200 X158.321 Y227.964
M204 S500
G1 F4200 X158.321 Y230.415 E25.36966
G1 X153.133 Y230.415 E25.53358
G1 X153.133 Y227.964 E25.61103
G1 X158.321 Y227.964 E25.77495
M204 S5000
G0 F7200 X157.921 Y228.364
M204 S500
G1 F4200 X157.921 Y230.015 E25.82712
G1 X153.533 Y230.015 E25.96577
G1 X153.533 Y228.364 E26.01794
G1 X157.921 Y228.364 E26.15658
M204 S5000
G0 F7200 X153.326 Y227.792
G0 X152.954 Y226.764
M204 S500
G1 F4200 X146.582 Y226.764 E26.35792
G1 X146.582 Y222.55 E26.49107
G1 X152.756 Y222.55 E26.68615
G1 X152.955 Y222.55 E26.69244
G1 X152.955 Y222.749 E26.69651
G1 X152.954 Y226.764 E26.82337
M204 S5000
G0 F7200 X152.554 Y226.364
M204 S500
G1 F4200 X146.982 Y226.364 E26.99943
G1 X146.982 Y222.95 E27.1073
G1 X152.356 Y222.95 E27.27711
G1 X152.555 Y222.95 E27.28339
G1 X152.555 Y223.149 E27.28746
G1 X152.554 Y226.364 E27.38905
M204 S5000
G0 F7200 X152.164 Y225.974
M204 S500
;TYPE:SKIN
G1 F2100 X147.372 Y225.974 E27.54046
G1 X147.372 Y223.34 E27.62369
G1 X152.165 Y223.34 E27.77513
G1 X152.164 Y225.974 E27.85836
M204 S5000
G0 F7200 X151.518 Y225.793
M204 S500
G1 F2100 X151.984 Y225.328 E27.87916
M204 S5000
G0 F7200 X151.984 Y224.762
M204 S500
G1 F2100 X150.953 Y225.793 E27.92523
M204 S5000
G0 F7200 X150.387 Y225.793
M204 S500
G1 F2100 X151.984 Y224.195 E27.99661
M204 S5000
G0 F7200 X151.984 Y223.63
M204 S500
G1 F2100 X149.821 Y225.793 E28.09327
M204 S5000
G0 F7200 X149.256 Y225.793
M204 S500
G1 F2100 X151.53 Y223.519 E28.19488
M204 S5000
G0 F7200 X150.964 Y223.519
M204 S500
G1 F2100 X148.69 Y225.793 E28.2965
M204 S5000
G0 F7200 X148.124 Y225.793
M204 S500
G1 F2100 X150.398 Y223.519 E28.39811
M204 S5000
G0 F7200 X149.833 Y223.519
M204 S500
G1 F2100 X147.559 Y225.793 E28.49972
M204 S5000
G0 F7200 X147.551 Y225.234
M204 S500
G1 F2100 X149.267 Y223.519 E28.57638
M204 S5000
G0 F7200 X148.701 Y223.519
M204 S500
G1 F2100 X147.551 Y224.669 E28.62777
M204 S5000
G0 F7200 X147.551 Y224.103
M204 S500
G1 F2100 X148.136 Y223.519 E28.65389
G1 X148.206 Y223.449
M204 S5000
G0 F7200 X152.761 Y226.936
G0 X153.923 Y228.754
M204 S500
G1 F2100 X157.531 Y228.754 E28.76789
G1 X157.531 Y229.625 E28.79541
G1 X153.923 Y229.625 E28.90941
G1 X153.923 Y228.754 E28.93693
M204 S5000
G0 F7200 X154.103 Y229.431
M204 S500
G1 F2100 X154.601 Y228.932 E28.95921
M204 S5000
G0 F7200 X154.655 Y229.444
M204 S500
G1 F2100 X155.167 Y228.932 E28.98209
M204 S5000
G0 F7200 X155.221 Y229.444
M204 S500
G1 F2100 X155.733 Y228.932 E29.00497
M204 S5000
G0 F7200 X155.786 Y229.444
M204 S500
G1 F2100 X156.298 Y228.932 E29.02785
M204 S5000
G0 F7200 X156.352 Y229.444
M204 S500
G1 F2100 X156.864 Y228.932 E29.05072
M204 S5000
G0 F7200 X157.351 Y229.012
M204 S500
G1 F2100 X156.918 Y229.444 E29.07005
M204 S5000
G0 F7200 X157.897 Y228.107
G0 X159.289 Y225.974
M204 S500
G1 F2100 X159.29 Y223.34 E29.15328
G1 X164.081 Y223.34 E29.30466
G1 X164.081 Y225.974 E29.38789
G1 X159.289 Y225.974 E29.5393
M204 S5000
G0 F7200 X159.469 Y224.065
M204 S500
G1 F2100 X160.015 Y223.519 E29.5637
M204 S5000
G0 F7200 X160.581 Y223.519
M204 S500
G1 F2100 X159.469 Y224.63 E29.61337
M204 S5000
G0 F7200 X159.469 Y225.196
M204 S500
G1 F2100 X161.146 Y223.519 E29.6883
M204 S5000
G0 F7200 X161.712 Y223.519
M204 S500
G1 F2100 X159.469 Y225.762 E29.78853
M204 S5000
G0 F7200 X160.004 Y225.793
M204 S500
G1 F2100 X162.278 Y223.519 E29.89014
M204 S5000
G0 F7200 X162.843 Y223.519
M204 S500
G1 F2100 X160.569 Y225.793 E29.99176
M204 S5000
G0 F7200 X161.135 Y225.793
M204 S500
G1 F2100 X163.409 Y223.519 E30.09337
M204 S5000
G0 F7200 X163.9 Y223.593
M204 S500
G1 F2100 X161.701 Y225.793 E30.19166
M204 S5000
G0 F7200 X162.266 Y225.793
M204 S500
G1 F2100 X163.9 Y224.159 E30.26467
M204 S5000
G0 F7200 X163.9 Y224.724
M204 S500
G1 F2100 X162.832 Y225.793 E30.31242
M204 S5000
G0 F7200 X163.398 Y225.793
M204 S500
G1 F2100 X163.9 Y225.29 E30.33487
M204 S5000
;MESH:NONMESH
G0 F600 X163.9 Y225.29 Z0.7
G0 F7200 X158.693 Y226.936
G0 X158.721 Y227.164
;TIME_ELAPSED:42.411853
;LAYER:2
M204 S500
;TYPE:WALL-OUTER
;MESH:OPENER2.stl
G1 F2100 X158.721 Y230.746 E30.44805
G1 X152.733 Y230.746 E30.63726
G1 X152.733 Y227.164 E30.75044
G1 X146.182 Y227.164 E30.95743
G1 X146.182 Y222.15 E31.11586
G1 X153.405 Y222.15 E31.34409
G1 X153.605 Y222.15 E31.35041
G1 X153.605 Y222.35 E31.3545
G1 X153.604 Y227.364 E31.51292
G1 X153.604 Y227.564 E31.51924
G1 X153.804 Y227.564 E31.52334
G1 X157.849 Y227.564 E31.65115
G1 X157.85 Y222.15 E31.82221
G1 X165.271 Y222.15 E32.0567
G1 X165.271 Y227.164 E32.21512
G1 X158.721 Y227.164 E32.42208
M204 S5000
G0 F7200 X158.721 Y227.364
G0 X158.281 Y227.364
G0 X158.484 Y226.764
M204 S500
;TYPE:WALL-INNER
G1 F4200 X158.321 Y226.764 E32.42724
G1 X158.321 Y227.964 E32.46515
G1 X158.321 Y230.346 E32.54042
G1 X153.133 Y230.346 E32.70434
G1 X153.133 Y227.964 E32.77961
G1 X153.133 Y226.764 E32.81752
G1 X146.582 Y226.764 E33.02452
G1 X146.582 Y222.55 E33.15767
G1 X153.205 Y222.55 E33.36693
G1 X153.205 Y226.764 E33.50008
G1 X153.204 Y227.964 E33.50688
G1 X158.249 Y227.964 E33.66629
G1 X158.249 Y226.764 E33.67313
G1 X158.249 Y226.601 E33.67679
G1 X158.25 Y222.55 E33.80479
G1 X164.871 Y222.55 E34.01399
G1 X164.871 Y226.764 E34.14714
G1 X158.484 Y226.764 E34.34896
M204 S5000
G0 F7200 X158.649 Y226.364
M204 S500
G1 F4200 X158.649 Y226.165 E34.35524
G1 X158.65 Y222.95 E34.45683
G1 X164.471 Y222.95 E34.64075
G1 X164.471 Y226.364 E34.74863
G1 X158.848 Y226.364 E34.9263
G1 X158.649 Y226.364 E34.93037
M204 S5000
G0 F7200 X158.277 Y227.992
G0 X157.921 Y228.364
M204 S500
G1 F4200 X157.921 Y229.946 E34.98035
G1 X153.533 Y229.946 E35.119
G1 X153.533 Y228.364 E35.16899
G1 X157.921 Y228.364 E35.30764
M204 S5000
G0 F7200 X153.176 Y227.992
G0 X153.168 Y226.787
G0 X152.804 Y226.364
M204 S500
G1 F4200 X146.982 Y226.364 E35.49159
G1 X146.982 Y222.95 E35.59947
G1 X152.606 Y222.95 E35.77717
G1 X152.805 Y222.95 E35.78346
G1 X152.805 Y223.149 E35.78753
G1 X152.804 Y226.364 E35.88911
M204 S5000
G0 F7200 X152.414 Y225.974
M204 S500
;TYPE:SKIN
G1 F2100 X147.372 Y225.974 E36.04842
G1 X147.372 Y223.34 E36.13165
G1 X152.415 Y223.34 E36.29099
G1 X152.414 Y225.974 E36.37422
M204 S5000
G0 F7200 X152.234 Y224.076
M204 S500
G1 F2100 X151.677 Y223.519 E36.39911
M204 S5000
G0 F7200 X151.111 Y223.519
M204 S500
G1 F2100 X152.234 Y224.642 E36.44929
M204 S5000
G0 F7200 X152.234 Y225.207
M204 S500
G1 F2100 X150.545 Y223.519 E36.52474
M204 S5000
G0 F7200 X149.98 Y223.519
M204 S500
G1 F2100 X152.234 Y225.773 E36.62546
M204 S5000
G0 F7200 X151.688 Y225.793
M204 S500
G1 F2100 X149.414 Y223.519 E36.72708
M204 S5000
G0 F7200 X148.848 Y223.519
M204 S500
G1 F2100 X151.122 Y225.793 E36.82869
M204 S5000
G0 F7200 X150.557 Y225.793
M204 S500
G1 F2100 X148.283 Y223.519 E36.9303
M204 S5000
G0 F7200 X147.717 Y223.519
M204 S500
