;FLAVOR:Marlin
;TIME:3636
;Filament used: 3.19895m
;Layer height: 0.2
;MINX:137.272
;MINY:104.923
;MINZ:0.3
;MAXX:182.776
;MAXY:205.078
;MAXZ:23
;Generated with Cura_SteamEngine 4.9.1
M140 S85
M105
M190 S85
M104 S235
M105
M109 S235
M82 ;absolute extrusion mode
G28 ;Home
G1 Z15.0 F6000 ;Move the platform down 15mm
;Prime the extruder
G92 E0
G1 F200 E3
G92 E0
G92 E0
G92 E0
G1 F2400 E-3
;LAYER_COUNT:112
;LAYER:0
M107
M204 S5000
M205 X5 Y5
G1 F600 Z0.8
G0 F3600 X139.834 Y128.412 Z0.8
M204 S500
;TYPE:SKIRT
G1 F600 Z0.3
G1 F2400 E0
G1 F1500 X140.461 Y127.761 E0.05655
G1 X141.195 Y127.126 E0.11727
G1 X143.309 Y125.467 E0.28539
G1 X145.265 Y123.841 E0.44452
G1 X147.166 Y122.165 E0.60307
G1 X149.065 Y120.397 E0.7654
G1 X150.813 Y118.673 E0.919
G1 X152.604 Y116.803 E1.08099
G1 X154.281 Y114.95 E1.23734
G1 X155.937 Y113.013 E1.39678
G1 X158.424 Y109.889 E1.64659
G1 X158.704 Y109.549 E1.67415
G1 X159.591 Y108.613 E1.75482
G1 X159.934 Y108.294 E1.78413
G1 X160.791 Y107.58 E1.85392
G1 X160.881 Y107.513 E1.86093
G1 X161.635 Y107.003 E1.91788
G1 X162.042 Y106.753 E1.94777
G1 X163.207 Y106.137 E2.03021
G1 X163.412 Y106.045 E2.04427
G1 X164.166 Y105.742 E2.09511
G1 X164.413 Y105.654 E2.11151
G1 X165.339 Y105.372 E2.17207
G1 X165.62 Y105.301 E2.19021
G1 X166.679 Y105.093 E2.25773
G1 X166.945 Y105.055 E2.27454
G1 X167.453 Y104.995 E2.30654
G1 X167.529 Y104.988 E2.31131
G1 X168.261 Y104.947 E2.35718
G1 X169.36 Y104.925 E2.42595
G1 X169.565 Y104.923 E2.43878
G1 X171.892 Y104.923 E2.58436
G1 X172.702 Y104.934 E2.63504
G1 X173.605 Y104.988 E2.69163
G1 X174.499 Y105.121 E2.74818
G1 X175.378 Y105.333 E2.80475
G1 X176.234 Y105.622 E2.86127
G1 X177.062 Y105.985 E2.91783
G1 X177.855 Y106.42 E2.97442
G1 X178.606 Y106.923 E3.03097
G1 X179.309 Y107.491 E3.08751
G1 X179.96 Y108.118 E3.14406
G1 X180.552 Y108.801 E3.20061
G1 X181.082 Y109.533 E3.25714
G1 X181.545 Y110.31 E3.31373
G1 X181.938 Y111.124 E3.37028
G1 X182.258 Y111.97 E3.42687
G1 X182.501 Y112.84 E3.48338
G1 X182.666 Y113.729 E3.53995
G1 X182.761 Y114.843 E3.6099
G1 X182.776 Y115.482 E3.64989
G1 X182.775 Y194.249 E8.57773
G1 X182.766 Y194.976 E8.62322
G1 X182.715 Y195.878 E8.67974
G1 X182.584 Y196.773 E8.73633
G1 X182.375 Y197.652 E8.79285
G1 X182.089 Y198.509 E8.84938
G1 X181.728 Y199.338 E8.90595
G1 X181.296 Y200.132 E8.9625
G1 X180.794 Y200.885 E9.01911
G1 X180.229 Y201.59 E9.07564
G1 X179.603 Y202.242 E9.13219
G1 X178.922 Y202.837 E9.18876
G1 X178.191 Y203.369 E9.24532
G1 X177.417 Y203.834 E9.30181
G1 X176.603 Y204.229 E9.35842
G1 X175.759 Y204.551 E9.41493
G1 X174.889 Y204.797 E9.4715
G1 X174.001 Y204.965 E9.52804
G1 X172.836 Y205.065 E9.60119
G1 X172.225 Y205.078 E9.63943
G1 X169.217 Y205.076 E9.82761
G1 X168.541 Y205.066 E9.86991
G1 X168.05 Y205.048 E9.90065
G1 X167.184 Y204.972 E9.95504
G1 X166.781 Y204.919 E9.98046
G1 X166.259 Y204.836 E10.01353
G1 X166.194 Y204.824 E10.01767
G1 X165.333 Y204.626 E10.07294
G1 X165.09 Y204.559 E10.08871
G1 X164.297 Y204.306 E10.14079
G1 X164.059 Y204.219 E10.15664
G1 X163.15 Y203.836 E10.21835
G1 X162.883 Y203.708 E10.23687
G1 X162.109 Y203.295 E10.29176
G1 X162.031 Y203.249 E10.29743
G1 X161.343 Y202.805 E10.34865
G1 X161.053 Y202.601 E10.37084
G1 X160.282 Y202.002 E10.43192
G1 X160.03 Y201.786 E10.45268
G1 X159.269 Y201.063 E10.51835
G1 X159.119 Y200.905 E10.53198
G1 X158.508 Y200.199 E10.5904
G1 X157.428 Y198.83 E10.69949
G1 X155.778 Y196.799 E10.8632
G1 X154.134 Y194.887 E11.02096
G1 X152.429 Y193.014 E11.17941
G1 X150.662 Y191.18 E11.33874
G1 X148.834 Y189.387 E11.49894
G1 X146.981 Y187.668 E11.65707
G1 X145.07 Y185.996 E11.81593
G1 X143.121 Y184.385 E11.97412
G1 X141.721 Y183.282 E12.08563
G1 X141.247 Y182.915 E12.12313
G1 X140.557 Y182.331 E12.17969
G1 X139.922 Y181.688 E12.23622
G1 X139.346 Y180.991 E12.29279
G1 X138.834 Y180.247 E12.3493
G1 X138.389 Y179.459 E12.40591
G1 X138.016 Y178.636 E12.46244
G1 X137.717 Y177.783 E12.51899
G1 X137.495 Y176.907 E12.57553
G1 X137.35 Y176.014 E12.63213
G1 X137.29 Y175.228 E12.68145
G1 X137.272 Y174.441 E12.7307
G1 X137.273 Y169.505 E13.0395
G1 X137.284 Y168.84 E13.08111
G1 X137.369 Y167.684 E13.15363
G1 X137.497 Y166.708 E13.21521
G1 X137.797 Y164.121 E13.37815
G1 X138.018 Y161.593 E13.53691
G1 X138.17 Y159.051 E13.69623
G1 X138.247 Y156.529 E13.85408
G1 X138.254 Y153.99 E14.01293
G1 X138.188 Y151.43 E14.17314
G1 X138.053 Y148.923 E14.33021
G1 X137.843 Y146.376 E14.4901
G1 X137.56 Y143.828 E14.65049
G1 X137.364 Y142.289 E14.74755
G1 X137.284 Y141.146 E14.81923
G1 X137.273 Y140.293 E14.8726
G1 X137.274 Y135.723 E15.15851
G1 X137.284 Y135.021 E15.20243
G1 X137.337 Y134.119 E15.25896
G1 X137.469 Y133.225 E15.3155
G1 X137.68 Y132.346 E15.37206
G1 X137.968 Y131.489 E15.42862
G1 X138.33 Y130.661 E15.48515
G1 X138.764 Y129.868 E15.54171
G1 X139.267 Y129.116 E15.59831
G1 X139.834 Y128.412 E15.65486
M204 S5000
G1 F2400 E12.65486
G1 F600 Z0.8
G0 F3600 X147.713 Y135.348 Z0.8
M204 S500
;TYPE:SUPPORT
G1 F600 Z0.3
G1 F2400 E15.65486
G1 F1200 X147.996 Y135.306 E15.67276
G1 X148.387 Y135.331 E15.69727
G1 X149.136 Y135.268 E15.7443
G1 X149.538 Y135.319 E15.76965
G1 X150.271 Y135.267 E15.81562
G1 X150.671 Y135.327 E15.84093
G1 X154.369 Y134.903 E16.0738
G1 X154.778 Y134.729 E16.10161
G1 X155.188 Y134.7 E16.12732
G1 X156.225 Y134.225 E16.19868
G1 X156.633 Y134.136 E16.22481
G1 X159.111 Y132.762 E16.40207
G1 X161.101 Y131.229 E16.55923
G1 X161.408 Y130.873 E16.58864
G1 X161.758 Y130.664 E16.61414
G1 X163.066 Y128.917 E16.75068
G1 X163.065 Y146.368 E17.84245
G1 X163.067 Y152.418 E18.22096
G1 X162.861 Y150.454 E18.3445
G1 X162.387 Y150.145 E18.3799
G1 X162.057 Y149.207 E18.44211
G1 X160.59 Y146.48 E18.63584
G1 X160.254 Y146.246 E18.66146
G1 X160.184 Y146.138 E18.66951
G1 X158.769 Y144.538 E18.80314
G1 X156.924 Y143.124 E18.94856
G1 X156.742 Y142.97 E18.96348
G1 X154.463 Y141.771 E19.12459
G1 X152.477 Y141.147 E19.25482
G1 X150.152 Y140.77 E19.40218
G1 X147.887 Y140.796 E19.5439
G1 X147.713 Y140.786 E19.5548
G1 X147.713 Y135.348 E19.89501
M204 S5000
G1 F2400 E16.89501
G1 F600 Z0.8
G0 F3600 X163.066 Y157.592 Z0.8
M204 S500
G1 F600 Z0.3
G1 F2400 E19.89501
G1 F1200 X163.066 Y181.088 E21.36498
G1 X161.6 Y179.122 E21.51841
G1 X161.208 Y178.9 E21.54659
G1 X159.223 Y177.323 E21.7052
G1 X158.644 Y176.879 E21.75084
G1 X155.037 Y175.233 E21.99889
G1 X154.628 Y175.216 E22.0245
G1 X154.295 Y175.091 E22.04676
G1 X150.675 Y174.672 E22.27474
G1 X150.282 Y174.734 E22.29963
G1 X149.529 Y174.68 E22.34686
G1 X149.129 Y174.735 E22.37212
G1 X148.374 Y174.677 E22.4195
G1 X147.856 Y174.676 E22.45191
G1 X147.712 Y174.652 E22.46104
G1 X147.713 Y169.214 E22.80125
G1 X148.064 Y169.21 E22.82321
G1 X148.461 Y169.307 E22.84878
G1 X151.365 Y169.082 E23.03101
G1 X153.314 Y168.648 E23.15593
G1 X155.635 Y167.668 E23.31355
G1 X157.719 Y166.355 E23.46765
G1 X158.073 Y166.011 E23.49853
G1 X158.444 Y165.829 E23.52438
G1 X160.189 Y163.855 E23.68922
G1 X160.246 Y163.767 E23.69577
G1 X160.578 Y163.534 E23.72115
G1 X162.047 Y160.814 E23.91455
G1 X162.394 Y159.834 E23.97959
G1 X162.864 Y159.525 E24.01478
G1 X163.066 Y157.592 E24.13637
M204 S5000
G1 F2400 E21.13637
G1 F600 Z0.8
G0 F3600 X162.886 Y160 Z0.8
M204 S500
G1 F600 Z0.3
G1 F2400 E24.13637
G1 F1200 X162.527 Y160 E24.15883
M204 S5000
G1 F2400 E21.15883
G1 F600 Z0.8
G0 F3600 X162.886 Y164 Z0.8
M204 S500
G1 F600 Z0.3
G1 F2400 E24.15883
G1 F1200 X160.302 Y164 E24.32049
M204 S5000
G0 F3600 X160 Y164.34
M204 S500
G1 F1200 X160 Y177.71 E25.15695
M204 S5000
G1 F2400 E22.15695
G1 F600 Z0.8
G0 F3600 X157.151 Y176 Z0.8
M204 S500
G1 F600 Z0.3
G1 F2400 E25.15695
G1 F1200 X162.886 Y176 E25.51575
M204 S5000
G1 F2400 E22.51575
G1 F600 Z0.8
G0 F3600 X162.886 Y172 Z0.8
M204 S500
G1 F600 Z0.3
G1 F2400 E25.51575
G1 F1200 X147.893 Y172 E26.45374
M204 S5000
G1 F2400 E23.45374
G1 F600 Z0.8
G0 F3600 X148 Y174.496 Z0.8
M204 S500
G1 F600 Z0.3
G1 F2400 E26.45374
G1 F1200 X148 Y169.39 E26.77319
M204 S5000
G1 F2400 E23.77319
G1 F600 Z0.8
G0 F3600 X152 Y169.124 Z0.8
M204 S500
G1 F600 Z0.3
G1 F2400 E26.77319
G1 F1200 X152 Y174.644 E27.11853
M204 S5000
G1 F2400 E24.11853
G1 F600 Z0.8
G0 F3600 X156 Y175.474 Z0.8
M204 S500
G1 F600 Z0.3
G1 F2400 E27.11853
G1 F1200 X156 Y167.651 E27.60796
M204 S5000
G0 F3600 X155.311 Y168
M204 S500
G1 F1200 X162.886 Y168 E28.08187
M204 S5000
G1 F2400 E25.08187
G1 F600 Z0.8
G0 F3600 X162.886 Y180 Z0.8
M204 S500
G1 F600 Z0.3
G1 F2400 E28.08187
G1 F1200 X162.479 Y180 E28.10733
M204 S5000
G1 F2400 E25.10733
G1 F600 Z0.8
G0 F3600 X162.886 Y148 Z0.8
M204 S500
G1 F600 Z0.3
G1 F2400 E28.10733
G1 F1200 X161.612 Y148 E28.18703
M204 S5000
G1 F2400 E25.18703
G1 F600 Z0.8
G0 F3600 X160 Y145.657 Z0.8
M204 S500
G1 F600 Z0.3
G1 F2400 E28.18703
G1 F1200 X160 Y132.304 E29.02243
M204 S5000
G0 F3600 X160.396 Y132
M204 S500
G1 F1200 X162.886 Y132 E29.17821
M204 S5000
G1 F2400 E26.17821
G1 F600 Z0.8
G0 F3600 X162.886 Y136 Z0.8
M204 S500
G1 F600 Z0.3
G1 F2400 E29.17821
G1 F1200 X147.893 Y136 E30.1162
M204 S5000
G0 F3600 X148 Y135.487
M204 S500
G1 F1200 X148 Y140.614 E30.43696
M204 S5000
G0 F3600 X147.893 Y140
M204 S500
G1 F1200 X162.886 Y140 E31.37496
M204 S5000
G1 F2400 E28.37496
G1 F600 Z0.8
G0 F3600 X162.886 Y144 Z0.8
M204 S500
G1 F600 Z0.3
G1 F2400 E31.37496
G1 F1200 X158.364 Y144 E31.65787
M204 S5000
G1 F2400 E28.65787
G1 F600 Z0.8
G0 F3600 X156 Y142.376 Z0.8
M204 S500
G1 F600 Z0.3
G1 F2400 E31.65787
G1 F1200 X156 Y134.526 E32.14898
M204 S5000
G1 F2400 E29.14898
G1 F600 Z0.8
G0 F3600 X152 Y135.355 Z0.8
M204 S500
G1 F600 Z0.3
G1 F2400 E32.14898
G1 F1200 X152 Y140.886 E32.49501
M204 S5000
G1 F2400 E29.49501
G1 F600 Z0.8
;MESH:e65ddc01-9d3b-4ce5-bff2-09f209c0c47f.stl
G0 F3600 X171.456 Y193.758 Z0.8
M204 S500
;TYPE:WALL-INNER
G1 F600 Z0.3
G1 F2400 E32.49501
G1 F1200 X171.237 Y193.758 E32.50871
G1 X168.755 Y193.757 E32.66399
G1 X168.332 Y193.713 E32.6906
G1 X167.996 Y193.613 E32.71253
G1 X167.7 Y193.456 E32.73349
G1 X167.423 Y193.231 E32.75582
G1 X167.199 Y192.963 E32.77767
G1 X167.04 Y192.664 E32.79886
G1 X166.938 Y192.344 E32.81987
G1 X166.898 Y191.948 E32.84477
G1 X166.897 Y189.866 E32.97503
G1 X166.889 Y189.714 E32.98455
G1 X166.859 Y188.879 E33.03682
G1 X166.742 Y187.765 E33.1069
G1 X166.548 Y186.66 E33.17709
G1 X166.109 Y184.891 E33.29112
G1 X166.032 Y184.536 E33.31384
G1 X165.877 Y183.98 E33.34996
G1 X165.804 Y183.552 E33.37712
G1 X165.806 Y174.146 E33.96558
G1 X165.805 Y126.445 E36.94986
G1 X165.879 Y126.006 E36.97772
G1 X166.026 Y125.484 E37.01164
G1 X166.03 Y125.473 E37.01238
G1 X166.221 Y124.645 E37.06554
G1 X166.323 Y124.252 E37.09094
G1 X166.543 Y123.336 E37.14988
G1 X166.739 Y122.237 E37.21972
G1 X166.858 Y121.12 E37.29
G1 X166.898 Y120.02 E37.35886
G1 X166.898 Y118.059 E37.48154
G1 X166.939 Y117.657 E37.50683
G1 X167.039 Y117.336 E37.52786
G1 X167.202 Y117.035 E37.54927
G1 X167.422 Y116.77 E37.57082
G1 X167.696 Y116.547 E37.59292
G1 X168.003 Y116.386 E37.61461
G1 X168.344 Y116.284 E37.63688
G1 X168.719 Y116.244 E37.66047
G1 X171.237 Y116.243 E37.81801
G1 X171.456 Y116.243 E37.83171
G1 X171.456 Y116.462 E37.84057
G1 X171.456 Y193.539 E42.66269
G1 X171.456 Y193.758 E42.67156
M204 S5000
G0 F3600 X171.896 Y194.198
M204 S500
G1 F1200 X171.677 Y194.198 E42.68526
G1 X168.729 Y194.197 E42.86969
G1 X168.247 Y194.147 E42.90001
G1 X167.83 Y194.023 E42.92723
G1 X167.454 Y193.823 E42.95387
G1 X167.114 Y193.547 E42.98127
G1 X166.862 Y193.244 E43.00593
G1 X166.831 Y193.207 E43.00895
G1 X166.632 Y192.836 E43.03528
G1 X166.505 Y192.433 E43.06172
G1 X166.458 Y191.974 E43.09059
G1 X166.457 Y189.878 E43.22172
G1 X166.449 Y189.73 E43.23099
G1 X166.42 Y188.91 E43.28232
G1 X166.306 Y187.826 E43.35051
G1 X166.117 Y186.751 E43.4188
G1 X165.682 Y184.997 E43.53186
G1 X165.605 Y184.642 E43.55458
G1 X165.447 Y184.078 E43.59123
G1 X165.364 Y183.591 E43.62213
G1 X165.366 Y174.146 E44.21304
G1 X165.365 Y126.406 E47.19976
G1 X165.448 Y125.917 E47.23079
G1 X165.604 Y125.364 E47.26674
G1 X165.795 Y124.534 E47.32002
G1 X165.896 Y124.145 E47.34517
G1 X166.112 Y123.246 E47.40301
G1 X166.303 Y122.175 E47.47107
G1 X166.419 Y121.089 E47.5394
G1 X166.458 Y120.012 E47.60682
G1 X166.458 Y118.035 E47.73051
G1 X166.505 Y117.57 E47.75975
G1 X166.632 Y117.162 E47.78648
G1 X166.834 Y116.79 E47.81297
G1 X167.112 Y116.454 E47.84025
G1 X167.451 Y116.179 E47.86756
G1 X167.839 Y115.975 E47.89498
G1 X168.258 Y115.85 E47.92234
G1 X168.69 Y115.804 E47.94952
G1 X170.548 Y115.802 E48.06576
G1 X171.896 Y115.803 E48.15009
G1 X171.896 Y193.979 E53.04096
G1 X171.896 Y194.198 E53.04983
M204 S5000
G0 F3600 X172.336 Y194.638
M204 S500
;TYPE:WALL-OUTER
G1 F1200 X172.116 Y194.638 E53.0636
G1 X168.703 Y194.637 E53.27712
G1 X168.16 Y194.581 E53.31127
G1 X167.665 Y194.433 E53.3436
G1 X167.208 Y194.19 E53.37598
G1 X166.803 Y193.861 E53.40862
G1 X166.464 Y193.454 E53.44176
G1 X166.224 Y193.007 E53.4735
G1 X166.072 Y192.522 E53.5053
G1 X166.018 Y192 E53.53813
G1 X166.017 Y189.89 E53.67014
G1 X166.009 Y189.745 E53.67922
G1 X165.981 Y188.941 E53.72955
G1 X165.87 Y187.887 E53.79586
G1 X165.686 Y186.842 E53.86224
G1 X165.468 Y185.962 E53.91896
G1 X165.255 Y185.103 E53.97433
G1 X165.178 Y184.748 E53.99706
G1 X165.017 Y184.176 E54.03423
G1 X164.924 Y183.63 E54.06888
G1 X164.926 Y174.146 E54.66223
G1 X164.925 Y126.369 E57.65126
G1 X165.017 Y125.824 E57.68584
G1 X165.178 Y125.255 E57.72284
G1 X165.369 Y124.424 E57.77618
G1 X165.469 Y124.038 E57.80113
G1 X165.681 Y123.156 E57.85788
G1 X165.867 Y122.113 E57.92416
G1 X165.98 Y121.06 E57.99042
G1 X165.984 Y120.896 E58.00068
G1 X166.018 Y120.004 E58.05653
G1 X166.018 Y118.011 E58.18122
G1 X166.071 Y117.483 E58.21442
G1 X166.225 Y116.988 E58.24685
G1 X166.466 Y116.545 E58.2784
G1 X166.802 Y116.138 E58.31142
G1 X167.208 Y115.809 E58.34411
G1 X167.673 Y115.565 E58.37696
G1 X168.171 Y115.416 E58.40948
G1 X168.663 Y115.364 E58.44044
G1 X170.548 Y115.362 E58.55837
G1 X172.336 Y115.363 E58.67023
G1 X172.336 Y194.418 E63.61609
G1 X172.336 Y194.638 E63.62499
M204 S5000
G0 F3600 X172.136 Y194.638
G0 X171.852 Y194.154
G0 X171.796 Y194.154
G0 X171.026 Y193.328
M204 S500
;TYPE:SKIN
G1 F1200 X168.78 Y193.327 E63.76551
G1 X168.414 Y193.289 E63.78853
G1 X168.159 Y193.213 E63.80517
G1 X167.942 Y193.098 E63.82054
G1 X167.724 Y192.921 E63.83811
G1 X167.555 Y192.719 E63.85458
G1 X167.362 Y192.256 E63.88597
G1 X167.328 Y191.925 E63.90678
G1 X167.327 Y189.855 E64.03629
G1 X167.319 Y189.691 E64.04656
G1 X167.289 Y188.849 E64.09927
G1 X167.168 Y187.705 E64.17124
G1 X166.969 Y186.571 E64.24327
G1 X166.527 Y184.787 E64.35826
G1 X166.45 Y184.432 E64.38098
G1 X166.297 Y183.886 E64.41646
G1 X166.234 Y183.516 E64.43994
G1 X166.236 Y174.146 E65.02615
G1 X166.235 Y126.481 E68.00818
G1 X166.299 Y126.102 E68.03223
G1 X166.446 Y125.58 E68.06615
G1 X166.639 Y124.747 E68.11965
G1 X166.74 Y124.356 E68.14491
G1 X166.964 Y123.424 E68.20488
G1 X167.165 Y122.298 E68.27644
G1 X167.288 Y121.151 E68.34861
G1 X167.328 Y120.028 E68.41891
G1 X167.328 Y118.082 E68.54066
G1 X167.363 Y117.741 E68.56211
G1 X167.561 Y117.275 E68.59378
G1 X167.722 Y117.081 E68.60955
G1 X167.936 Y116.907 E68.62681
G1 X168.427 Y116.708 E68.65996
G1 X168.746 Y116.674 E68.68003
G1 X171.026 Y116.673 E68.82267
G1 X171.026 Y193.328 E73.61838
M204 S5000
G0 F3600 X167.978 Y192.869
M204 S500
G1 F1200 X167.756 Y192.646 E73.63807
M204 S5000
G0 F3600 X167.527 Y191.794
M204 S500
G1 F1200 X168.858 Y193.126 E73.75587
M204 S5000
G0 F3600 X169.48 Y193.126
M204 S500
G1 F1200 X167.527 Y191.172 E73.92871
M204 S5000
G0 F3600 X167.527 Y190.55
M204 S500
G1 F1200 X170.103 Y193.126 E74.15663
M204 S5000
G0 F3600 X170.725 Y193.126
M204 S500
G1 F1200 X167.527 Y189.928 E74.43958
M204 S5000
G0 F3600 X167.504 Y189.283
M204 S500
G1 F1200 X170.826 Y192.605 E74.7335
M204 S5000
G0 F3600 X170.826 Y191.983
M204 S500
G1 F1200 X167.466 Y188.622 E75.03082
M204 S5000
G0 F3600 X167.391 Y187.926
M204 S500
G1 F1200 X170.826 Y191.36 E75.33469
M204 S5000
G0 F3600 X170.826 Y190.738
M204 S500
G1 F1200 X167.28 Y187.193 E75.64839
M204 S5000
G0 F3600 X167.139 Y186.429
M204 S500
G1 F1200 X170.826 Y190.116 E75.9746
M204 S5000
G0 F3600 X170.826 Y189.494
M204 S500
G1 F1200 X166.935 Y185.603 E76.31886
M204 S5000
G0 F3600 X166.731 Y184.776
M204 S500
