;FLAVOR:Marlin
;TIME:463
;Filament used: 0.389801m
;Layer height: 0.2
;MINX:135.836
;MINY:137.472
;MINZ:0.3
;MAXX:174.164
;MAXY:172.518
;MAXZ:8.5
;Generated with Cura_SteamEngine 4.8.0
M140 S85
M105
M190 S85
M104 S235
M105
M109 S235
M82 ;absolute extrusion mode
G28 ;Home
G1 Z15.0 F6000 ;Move the platform down 15mm
;Prime the extruder
G92 E0
G1 F200 E3
G92 E0
G92 E0
G92 E0
G1 F2400 E-3
;LAYER_COUNT:42
;LAYER:0
M107
M204 S5000
M205 X5 Y5
G1 F600 Z0.8
G0 F6000 X139.03 Y140.289 Z0.8
M204 S500
;TYPE:SKIRT
G1 F600 Z0.3
G1 F2400 E0
G1 F1200 X139.712 Y139.696 E0.05654
G1 X140.444 Y139.166 E0.11308
G1 X141.22 Y138.703 E0.16961
G1 X142.034 Y138.31 E0.22616
G1 X142.88 Y137.99 E0.28275
G1 X143.751 Y137.747 E0.33932
G1 X144.639 Y137.581 E0.39584
G1 X145.779 Y137.485 E0.46742
G1 X146.386 Y137.472 E0.5054
G1 X163.237 Y137.472 E1.55964
G1 X164.081 Y137.483 E1.61244
G1 X164.984 Y137.536 E1.66903
G1 X165.878 Y137.668 E1.72557
G1 X166.757 Y137.879 E1.78213
G1 X167.614 Y138.167 E1.83869
G1 X168.442 Y138.53 E1.89525
G1 X169.235 Y138.964 E1.95181
G1 X169.987 Y139.466 E2.00837
G1 X170.691 Y140.033 E2.06492
G1 X171.342 Y140.66 E2.12147
G1 X171.935 Y141.342 E2.17801
G1 X172.466 Y142.074 E2.23459
G1 X172.93 Y142.85 E2.29115
G1 X173.323 Y143.664 E2.3477
G1 X173.643 Y144.509 E2.40423
G1 X173.888 Y145.38 E2.46084
G1 X174.054 Y146.268 E2.51736
G1 X174.151 Y147.415 E2.58937
G1 X174.164 Y148.022 E2.62736
G1 X174.163 Y158.306 E3.27075
G1 X174.153 Y159.009 E3.31473
G1 X174.1 Y159.912 E3.37132
G1 X173.968 Y160.806 E3.42786
G1 X173.757 Y161.685 E3.48442
G1 X173.469 Y162.542 E3.54098
G1 X173.107 Y163.37 E3.59751
G1 X172.673 Y164.163 E3.65407
G1 X171.966 Y165.184 E3.73177
G1 X171.761 Y165.439 E3.75223
G1 X171.308 Y165.985 E3.79662
G1 X169.154 Y168.516 E4.00455
G1 X168.697 Y169.037 E4.0479
G1 X168.072 Y169.69 E4.10445
G1 X167.391 Y170.285 E4.16103
G1 X166.66 Y170.817 E4.21759
G1 X165.885 Y171.282 E4.27414
G1 X165.072 Y171.678 E4.33071
G1 X164.227 Y172 E4.38728
G1 X163.358 Y172.246 E4.44379
G1 X162.469 Y172.414 E4.50039
G1 X161.57 Y172.503 E4.55691
G1 X161.014 Y172.518 E4.59171
G1 X160.499 Y172.509 E4.62393
G1 X159.246 Y172.454 E4.7024
G1 X158.73 Y172.425 E4.73473
G1 X156.18 Y172.354 E4.89433
G1 X153.647 Y172.356 E5.0528
G1 X151.04 Y172.431 E5.21596
G1 X149.569 Y172.504 E5.30811
G1 X148.665 Y172.509 E5.36466
G1 X147.765 Y172.435 E5.42116
G1 X146.874 Y172.28 E5.47774
G1 X145.75 Y171.966 E5.55075
G1 X145.639 Y171.928 E5.55809
G1 X144.797 Y171.598 E5.61467
G1 X143.988 Y171.194 E5.67124
G1 X143.218 Y170.721 E5.72778
G1 X142.493 Y170.182 E5.7843
G1 X141.818 Y169.58 E5.84088
G1 X141.309 Y169.047 E5.88699
G1 X140.923 Y168.609 E5.92352
G1 X138.653 Y165.938 E6.14282
G1 X138.187 Y165.374 E6.18859
G1 X137.643 Y164.652 E6.24514
G1 X137.164 Y163.885 E6.30172
G1 X136.756 Y163.079 E6.35824
G1 X136.42 Y162.24 E6.41478
G1 X136.159 Y161.374 E6.47136
G1 X135.976 Y160.489 E6.5279
G1 X135.872 Y159.591 E6.58446
G1 X135.847 Y159.02 E6.62022
G1 X135.836 Y158.208 E6.67102
G1 X135.837 Y148.212 E7.2964
G1 X135.847 Y147.547 E7.338
G1 X135.901 Y146.645 E7.39454
G1 X136.034 Y145.751 E7.45108
G1 X136.245 Y144.872 E7.50764
G1 X136.534 Y144.015 E7.56422
G1 X136.897 Y143.187 E7.62078
G1 X137.332 Y142.395 E7.67731
G1 X137.835 Y141.644 E7.73386
G1 X138.402 Y140.94 E7.79041
G1 X139.03 Y140.289 E7.847
M204 S5000
G1 F2400 E4.847
G1 F600 Z0.8
;MESH:OnePiece_Kailh_switch_opener.stl
G0 F6000 X161.154 Y155.208 Z0.8
M204 S500
;TYPE:WALL-OUTER
G1 F600 Z0.3
G1 F2400 E7.847
G1 F900 X148.846 Y155.208 E8.61702
G1 X148.846 Y161.212 E8.99264
G1 X148.846 Y161.213 E8.99271
G1 X148.846 Y161.81 E9.03006
G1 X148.459 Y161.355 E9.0499
G1 X146.276 Y158.787 E9.26076
G1 X146.276 Y147.912 E9.94113
G1 X163.724 Y147.912 E11.03272
G1 X163.724 Y158.787 E11.71308
G1 X161.541 Y161.356 E11.92399
G1 X161.154 Y161.811 E11.96136
G1 X161.154 Y161.214 E11.9812
G1 X161.154 Y161.213 E11.98126
G1 X161.154 Y155.208 E12.35695
M204 S5000
G0 F6000 X160.954 Y155.208
G0 X160.954 Y154.724
G0 X161.594 Y154.768
M204 S500
;TYPE:WALL-INNER
G1 F900 X148.406 Y154.768 E13.18202
G1 X148.406 Y160.017 E13.51041
G1 X148.406 Y160.018 E13.51047
G1 X148.406 Y160.613 E13.54769
G1 X148.02 Y160.159 E13.56748
G1 X146.716 Y158.626 E13.69339
G1 X146.716 Y148.352 E14.33616
G1 X163.284 Y148.352 E15.37269
G1 X163.284 Y158.626 E16.01545
G1 X161.98 Y160.16 E16.14141
G1 X161.594 Y160.614 E16.17869
G1 X161.594 Y160.019 E16.19845
G1 X161.594 Y160.017 E16.19857
G1 X161.594 Y154.768 E16.52696
M204 S5000
G0 F6000 X162.034 Y154.328
M204 S500
G1 F900 X147.966 Y154.328 E17.40709
G1 X147.966 Y158.82 E17.68812
G1 X147.966 Y158.821 E17.68818
G1 X147.966 Y159.417 E17.72547
G1 X147.58 Y158.962 E17.74528
G1 X147.156 Y158.464 E17.7862
G1 X147.156 Y148.792 E18.3913
G1 X162.844 Y148.792 E19.37278
G1 X162.844 Y158.465 E19.97794
G1 X162.42 Y158.963 E20.01886
G1 X162.034 Y159.417 E20.05614
G1 X162.034 Y158.822 E20.0759
G1 X162.034 Y158.821 E20.07596
G1 X162.034 Y154.328 E20.35705
M204 S5000
G0 F6000 X162.414 Y153.898
M204 S500
;TYPE:SKIN
G1 F900 X147.586 Y153.898 E21.28473
G1 X147.586 Y149.222 E21.57727
G1 X162.414 Y149.222 E22.50494
G1 X162.414 Y153.898 E22.79748
M204 S5000
G0 F6000 X162.213 Y149.768
M204 S500
G1 F900 X161.866 Y149.421 E22.82818
M204 S5000
G0 F6000 X161.244 Y149.421
M204 S500
G1 F900 X162.213 Y150.39 E22.91392
M204 S5000
G0 F6000 X162.213 Y151.012
M204 S500
G1 F900 X160.622 Y149.421 E23.05468
M204 S5000
G0 F6000 X159.999 Y149.421
M204 S500
G1 F900 X162.213 Y151.634 E23.25053
M204 S5000
G0 F6000 X162.213 Y152.257
M204 S500
G1 F900 X159.377 Y149.421 E23.50145
M204 S5000
G0 F6000 X158.755 Y149.421
M204 S500
G1 F900 X162.213 Y152.879 E23.8074
M204 S5000
G0 F6000 X162.213 Y153.501
M204 S500
G1 F900 X158.133 Y149.421 E24.16838
M204 S5000
G0 F6000 X157.51 Y149.421
M204 S500
G1 F900 X161.786 Y153.697 E24.54671
M204 S5000
G0 F6000 X161.164 Y153.697
M204 S500
G1 F900 X156.888 Y149.421 E24.92503
M204 S5000
G0 F6000 X156.266 Y149.421
M204 S500
G1 F900 X160.542 Y153.697 E25.30336
M204 S5000
G0 F6000 X159.919 Y153.697
M204 S500
G1 F900 X155.644 Y149.421 E25.68164
M204 S5000
G0 F6000 X155.021 Y149.421
M204 S500
G1 F900 X159.297 Y153.697 E26.05996
M204 S5000
G0 F6000 X158.675 Y153.697
M204 S500
G1 F900 X154.399 Y149.421 E26.43829
M204 S5000
G0 F6000 X153.777 Y149.421
M204 S500
G1 F900 X158.053 Y153.697 E26.81661
M204 S5000
G0 F6000 X157.43 Y153.697
M204 S500
G1 F900 X153.155 Y149.421 E27.1949
M204 S5000
G0 F6000 X152.532 Y149.421
M204 S500
G1 F900 X156.808 Y153.697 E27.57322
M204 S5000
G0 F6000 X156.186 Y153.697
M204 S500
G1 F900 X151.91 Y149.421 E27.95155
M204 S5000
G0 F6000 X151.288 Y149.421
M204 S500
G1 F900 X155.564 Y153.697 E28.32987
M204 S5000
G0 F6000 X154.941 Y153.697
M204 S500
G1 F900 X150.666 Y149.421 E28.70815
M204 S5000
G0 F6000 X150.043 Y149.421
M204 S500
G1 F900 X154.319 Y153.697 E29.08648
M204 S5000
G0 F6000 X153.697 Y153.697
M204 S500
G1 F900 X149.421 Y149.421 E29.4648
M204 S5000
G0 F6000 X148.799 Y149.421
M204 S500
G1 F900 X153.075 Y153.697 E29.84313
M204 S5000
G0 F6000 X152.452 Y153.697
M204 S500
G1 F900 X148.177 Y149.421 E30.22141
M204 S5000
G0 F6000 X147.786 Y149.652
M204 S500
G1 F900 X151.83 Y153.697 E30.57925
M204 S5000
G0 F6000 X151.208 Y153.697
M204 S500
G1 F900 X147.786 Y150.275 E30.88202
M204 S5000
G0 F6000 X147.786 Y150.897
M204 S500
G1 F900 X150.586 Y153.697 E31.12975
M204 S5000
G0 F6000 X149.963 Y153.697
M204 S500
G1 F900 X147.786 Y151.519 E31.32241
M204 S5000
G0 F6000 X147.786 Y152.141
M204 S500
G1 F900 X149.341 Y153.697 E31.46004
M204 S5000
G0 F6000 X148.719 Y153.697
M204 S500
G1 F900 X147.786 Y152.764 E31.54259
M204 S5000
G0 F6000 X147.786 Y153.386
M204 S500
G1 F900 X148.097 Y153.697 E31.5701
M204 S5000
G0 F6000 X147.607 Y154.112
M204 S500
;TYPE:SKIN
G1 F900 X147.766 Y154.271 E31.5765
M204 S5000
G0 F6000 X147.766 Y154.554
M204 S500
G1 F900 X147.356 Y154.144 E31.59298
M204 S5000
G0 F6000 X147.356 Y154.427
M204 S500
G1 F900 X147.766 Y154.837 E31.60947
M204 S5000
G0 F6000 X147.766 Y155.12
M204 S500
G1 F900 X147.356 Y154.71 E31.62596
M204 S5000
G0 F6000 X147.356 Y154.992
M204 S500
G1 F900 X147.766 Y155.402 E31.64245
M204 S5000
G0 F6000 X147.766 Y155.685
M204 S500
G1 F900 X147.356 Y155.275 E31.65894
M204 S5000
G0 F6000 X147.356 Y155.558
M204 S500
G1 F900 X147.766 Y155.968 E31.67543
M204 S5000
G0 F6000 X147.766 Y156.251
M204 S500
G1 F900 X147.356 Y155.841 E31.69192
M204 S5000
G0 F6000 X147.356 Y156.124
M204 S500
G1 F900 X147.766 Y156.534 E31.70841
M204 S5000
G0 F6000 X147.766 Y156.817
M204 S500
G1 F900 X147.356 Y156.407 E31.7249
M204 S5000
G0 F6000 X147.356 Y156.689
M204 S500
G1 F900 X147.766 Y157.1 E31.7414
M204 S5000
G0 F6000 X147.766 Y157.382
M204 S500
G1 F900 X147.356 Y156.972 E31.75789
M204 S5000
G0 F6000 X147.356 Y157.255
M204 S500
G1 F900 X147.766 Y157.665 E31.77438
M204 S5000
G0 F6000 X147.766 Y157.948
M204 S500
G1 F900 X147.356 Y157.538 E31.79087
M204 S5000
G0 F6000 X147.356 Y157.821
M204 S500
G1 F900 X147.766 Y158.231 E31.80736
M204 S5000
G0 F6000 X147.766 Y158.514
M204 S500
G1 F900 X147.356 Y158.104 E31.82385
M204 S5000
G0 F6000 X147.356 Y158.386
M204 S500
G1 F900 X147.766 Y158.797 E31.84036
M204 S5000
G0 F6000 X148.578 Y154.94
G0 X161.422 Y154.94
G0 X162.232 Y158.555
M204 S500
G1 F900 X162.379 Y158.702 E31.84627
M204 S5000
G0 F6000 X162.508 Y158.548
M204 S500
G1 F900 X162.232 Y158.273 E31.85735
M204 S5000
G0 F6000 X162.232 Y157.99
M204 S500
G1 F900 X162.638 Y158.396 E31.87368
M204 S5000
G0 F6000 X162.643 Y158.118
M204 S500
G1 F900 X162.232 Y157.707 E31.89021
M204 S5000
G0 F6000 X162.232 Y157.424
M204 S500
G1 F900 X162.643 Y157.835 E31.90673
M204 S5000
G0 F6000 X162.643 Y157.552
M204 S500
G1 F900 X162.232 Y157.141 E31.92326
M204 S5000
G0 F6000 X162.232 Y156.858
M204 S500
G1 F900 X162.643 Y157.269 E31.93979
M204 S5000
G0 F6000 X162.643 Y156.986
M204 S500
G1 F900 X162.232 Y156.576 E31.9563
M204 S5000
G0 F6000 X162.232 Y156.293
M204 S500
G1 F900 X162.643 Y156.704 E31.97283
M204 S5000
G0 F6000 X162.643 Y156.421
M204 S500
G1 F900 X162.232 Y156.01 E31.98936
M204 S5000
G0 F6000 X162.232 Y155.727
M204 S500
G1 F900 X162.643 Y156.138 E32.00589
M204 S5000
G0 F6000 X162.643 Y155.855
M204 S500
G1 F900 X162.232 Y155.444 E32.02242
M204 S5000
G0 F6000 X162.232 Y155.161
M204 S500
G1 F900 X162.643 Y155.572 E32.03895
M204 S5000
G0 F6000 X162.643 Y155.289
M204 S500
G1 F900 X162.232 Y154.879 E32.05546
M204 S5000
G0 F6000 X162.232 Y154.596
M204 S500
G1 F900 X162.643 Y155.006 E32.07196
M204 S5000
G0 F6000 X162.643 Y154.724
M204 S500
G1 F900 X162.232 Y154.313 E32.08849
M204 S5000
G0 F6000 X162.315 Y154.113
M204 S500
G1 F900 X162.643 Y154.441 E32.10168
M204 S5000
G0 F6000 X162.643 Y154.158
M204 S500
G1 F900 X162.598 Y154.113 E32.10349
M204 S5000
;MESH:NONMESH
G0 F600 X162.598 Y154.113 Z0.5
G0 F6000 X161.134 Y154.868
G0 X161.134 Y155.228
;TIME_ELAPSED:40.825141
;LAYER:1
M106 S255
M204 S500
;TYPE:WALL-OUTER
;MESH:OnePiece_Kailh_switch_opener.stl
G1 F2100 X148.866 Y155.228 E32.49113
G1 X148.866 Y161.321 E32.68365
G1 X148.866 Y161.322 E32.68368
G1 X148.866 Y161.865 E32.70084
G1 X148.514 Y161.451 E32.70995
G1 X146.256 Y158.794 E32.82013
G1 X146.256 Y147.892 E33.1646
G1 X163.744 Y147.892 E33.71717
G1 X163.744 Y158.794 E34.06164
G1 X161.486 Y161.451 E34.17182
G1 X161.134 Y161.865 E34.18899
G1 X161.134 Y161.322 E34.1981
G1 X161.134 Y161.321 E34.19813
G1 X161.134 Y155.228 E34.39065
M204 S5000
G0 F7200 X160.934 Y155.228
G0 X160.934 Y154.788
G0 X161.534 Y154.828
M204 S500
;TYPE:WALL-INNER
G1 F4200 X148.466 Y154.828 E34.80356
G1 X148.466 Y160.234 E34.97437
G1 X148.466 Y160.235 E34.9744
G1 X148.466 Y160.776 E34.9915
G1 X148.115 Y160.364 E35.00058
G1 X146.656 Y158.647 E35.07177
G1 X146.656 Y148.292 E35.39896
G1 X163.344 Y148.292 E35.92625
G1 X163.344 Y158.647 E36.25344
G1 X161.885 Y160.364 E36.32464
G1 X161.534 Y160.776 E36.34174
G1 X161.534 Y160.235 E36.35081
G1 X161.534 Y160.234 E36.35085
G1 X161.534 Y154.828 E36.52166
M204 S5000
G0 F7200 X161.934 Y154.428
M204 S500
G1 F4200 X148.066 Y154.428 E36.95985
G1 X148.066 Y159.146 E37.10892
G1 X148.066 Y159.688 E37.12605
G1 X147.715 Y159.275 E37.13514
G1 X147.056 Y158.5 E37.16729
G1 X147.056 Y148.692 E37.47719
G1 X162.944 Y148.692 E37.97921
G1 X162.944 Y158.5 E38.28911
G1 X162.285 Y159.275 E38.32125
G1 X161.934 Y159.688 E38.33838
G1 X161.934 Y159.146 E38.34747
G1 X161.934 Y154.428 E38.49655
M204 S5000
G0 F7200 X162.324 Y154.038
M204 S500
;TYPE:SKIN
G1 F2100 X147.676 Y154.038 E38.95938
G1 X147.676 Y158.627 E39.10438
G1 X147.446 Y158.356 E39.11561
G1 X147.446 Y149.082 E39.40864
G1 X162.554 Y149.082 E39.88601
G1 X162.554 Y158.356 E40.17905
G1 X162.324 Y158.627 E40.19028
G1 X162.324 Y154.038 E40.33528
M204 S5000
G0 F7200 X162.372 Y153.279
M204 S500
G1 F2100 X161.794 Y153.857 E40.3611
M204 S5000
G0 F7200 X161.228 Y153.857
M204 S500
G1 F2100 X162.372 Y152.713 E40.41222
M204 S5000
G0 F7200 X162.372 Y152.148
M204 S500
G1 F2100 X160.663 Y153.857 E40.48859
M204 S5000
G0 F7200 X160.097 Y153.857
M204 S500
G1 F2100 X162.372 Y151.582 E40.59025
M204 S5000
G0 F7200 X162.372 Y151.016
M204 S500
G1 F2100 X159.531 Y153.857 E40.7172
M204 S5000
G0 F7200 X158.966 Y153.857
M204 S500
G1 F2100 X162.372 Y150.451 E40.8694
M204 S5000
G0 F7200 X162.372 Y149.885
M204 S500
G1 F2100 X158.4 Y153.857 E41.04689
M204 S5000
G0 F7200 X157.834 Y153.857
M204 S500
G1 F2100 X162.372 Y149.319 E41.24967
M204 S5000
G0 F7200 X161.865 Y149.261
M204 S500
G1 F2100 X157.269 Y153.857 E41.45504
M204 S5000
G0 F7200 X156.703 Y153.857
M204 S500
G1 F2100 X161.3 Y149.261 E41.66043
M204 S5000
G0 F7200 X160.734 Y149.261
M204 S500
G1 F2100 X156.137 Y153.857 E41.86583
M204 S5000
G0 F7200 X155.571 Y153.857
M204 S500
G1 F2100 X160.168 Y149.261 E42.07122
M204 S5000
G0 F7200 X159.603 Y149.261
M204 S500
G1 F2100 X155.006 Y153.857 E42.27662
M204 S5000
G0 F7200 X154.44 Y153.857
M204 S500
G1 F2100 X159.037 Y149.261 E42.48201
M204 S5000
G0 F7200 X158.471 Y149.261
M204 S500
G1 F2100 X153.874 Y153.857 E42.68741
M204 S5000
G0 F7200 X153.309 Y153.857
M204 S500
G1 F2100 X157.906 Y149.261 E42.8928
M204 S5000
G0 F7200 X157.34 Y149.261
M204 S500
G1 F2100 X152.743 Y153.857 E43.0982
M204 S5000
G0 F7200 X152.177 Y153.857
M204 S500
G1 F2100 X156.774 Y149.261 E43.30359
M204 S5000
G0 F7200 X156.209 Y149.261
M204 S500
G1 F2100 X151.612 Y153.857 E43.50899
M204 S5000
G0 F7200 X151.046 Y153.857
M204 S500
G1 F2100 X155.643 Y149.261 E43.71438
M204 S5000
G0 F7200 X155.077 Y149.261
M204 S500
G1 F2100 X150.48 Y153.857 E43.91978
M204 S5000
G0 F7200 X149.915 Y153.857
M204 S500
G1 F2100 X154.512 Y149.261 E44.12517
M204 S5000
G0 F7200 X153.946 Y149.261
M204 S500
G1 F2100 X149.349 Y153.857 E44.33057
M204 S5000
G0 F7200 X148.783 Y153.857
M204 S500
G1 F2100 X153.38 Y149.261 E44.53596
M204 S5000
G0 F7200 X152.814 Y149.261
M204 S500
G1 F2100 X148.218 Y153.857 E44.74134
M204 S5000
G0 F7200 X147.652 Y153.857
M204 S500
G1 F2100 X152.249 Y149.261 E44.94673
M204 S5000
G0 F7200 X151.683 Y149.261
M204 S500
G1 F2100 X147.626 Y153.318 E45.12802
M204 S5000
G0 F7200 X147.626 Y152.752
M204 S500
G1 F2100 X151.117 Y149.261 E45.28401
M204 S5000
G0 F7200 X150.552 Y149.261
M204 S500
G1 F2100 X147.626 Y152.187 E45.41476
M204 S5000
G0 F7200 X147.626 Y151.621
M204 S500
G1 F2100 X149.986 Y149.261 E45.52022
M204 S5000
G0 F7200 X149.42 Y149.261
M204 S500
G1 F2100 X147.626 Y151.055 E45.60039
M204 S5000
G0 F7200 X147.626 Y150.49
M204 S500
G1 F2100 X148.855 Y149.261 E45.6553
M204 S5000
G0 F7200 X148.289 Y149.261
M204 S500
G1 F2100 X147.626 Y149.924 E45.68493
M204 S5000
G0 F7200 X147.626 Y149.358
M204 S500
G1 F2100 X147.723 Y149.261 E45.68926
M204 S5000
;MESH:NONMESH
G0 F600 X147.723 Y149.261 Z0.7
G0 F7200 X161.134 Y154.928
G0 X161.134 Y155.228
;TIME_ELAPSED:56.775744
;LAYER:2
M204 S500
;TYPE:WALL-OUTER
;MESH:OnePiece_Kailh_switch_opener.stl
G1 F2100 X148.866 Y155.228 E46.0769
G1 X148.866 Y161.321 E46.26942
G1 X148.866 Y161.322 E46.26945
G1 X148.866 Y161.865 E46.28661
G1 X148.514 Y161.451 E46.29572
G1 X146.256 Y158.794 E46.4059
G1 X146.256 Y147.892 E46.75037
G1 X163.744 Y147.892 E47.30294
G1 X163.744 Y158.794 E47.64741
G1 X161.486 Y161.451 E47.75759
G1 X161.134 Y161.865 E47.77476
G1 X161.134 Y161.322 E47.78386
G1 X161.134 Y161.321 E47.7839
