;FLAVOR:Marlin
;TIME:6436
;Filament used: 4.13413m
;Layer height: 0.15
;MINX:129.335
;MINY:129.335
;MINZ:0.3
;MAXX:180.653
;MAXY:180.665
;MAXZ:56.1
;Generated with Cura_SteamEngine 4.8.0
M140 S70
M105
M190 S70
M104 S210
M105
M109 S210
M82 ;absolute extrusion mode
G28 ;Home
G1 Z15.0 F6000 ;Move the platform down 15mm
;Prime the extruder
G92 E0
G1 F200 E3
G92 E0
G92 E0
G92 E0
G1 F2700 E-8
;LAYER_COUNT:373
;LAYER:0
M107
;MESH:AIl_In_One_3D_printer_test_micro.stl
G0 F3600 X179.8 Y179.8 Z0.3
;TYPE:WALL-OUTER
G1 F2700 E0
G1 F1800 X130.2 Y179.8 E2.47455
G1 X130.2 Y130.2 E4.94911
G1 X179.8 Y130.2 E7.42366
G1 X179.8 Y179.8 E9.89822
G0 F3600 X179.6 Y179.8
G0 X179.36 Y179.36
G0 X179.4 Y179.4
;TYPE:WALL-INNER
G1 F1800 X130.6 Y179.4 E12.33286
G1 X130.6 Y130.6 E14.7675
G1 X179.4 Y130.6 E17.20214
G1 X179.4 Y179.4 E19.63678
G0 F3600 X179 Y179
G1 F1800 X131 Y179 E22.03151
G1 X131 Y131 E24.42624
G1 X179 Y131 E26.82097
G1 X179 Y179 E29.2157
G0 F3600 X178.61 Y178.61
;TYPE:SKIN
G1 F1800 X131.39 Y178.61 E31.57152
G1 X131.39 Y131.39 E33.92733
G1 X178.61 Y131.39 E36.28315
G1 X178.61 Y178.61 E38.63896
G0 F3600 X178.429 Y132.043
G1 F1800 X177.956 Y131.569 E38.67237
G0 F3600 X177.39 Y131.569
G1 F1800 X178.429 Y132.609 E38.74571
G0 F3600 X178.429 Y133.175
G1 F1800 X176.824 Y131.569 E38.85899
G0 F3600 X176.259 Y131.569
G1 F1800 X178.429 Y133.74 E39.01213
G0 F3600 X178.429 Y134.306
G1 F1800 X175.693 Y131.569 E39.20521
G0 F3600 X175.127 Y131.569
G1 F1800 X178.429 Y134.872 E39.43822
G0 F3600 X178.429 Y135.437
G1 F1800 X174.562 Y131.569 E39.71109
G0 F3600 X173.996 Y131.569
G1 F1800 X178.429 Y136.003 E40.0239
G0 F3600 X178.429 Y136.569
G1 F1800 X173.43 Y131.569 E40.37664
G0 F3600 X172.864 Y131.569
G1 F1800 X178.429 Y137.134 E40.76928
G0 F3600 X178.429 Y137.7
G1 F1800 X172.299 Y131.569 E41.20182
G0 F3600 X171.733 Y131.569
G1 F1800 X178.429 Y138.266 E41.67429
G0 F3600 X178.429 Y138.831
G1 F1800 X171.167 Y131.569 E42.18667
G0 F3600 X170.602 Y131.569
G1 F1800 X178.429 Y139.397 E42.73894
G0 F3600 X178.429 Y139.963
G1 F1800 X170.036 Y131.569 E43.33115
G0 F3600 X169.47 Y131.569
G1 F1800 X178.429 Y140.528 E43.96325
G0 F3600 X178.429 Y141.094
G1 F1800 X168.905 Y131.569 E44.63526
G0 F3600 X168.339 Y131.569
G1 F1800 X178.429 Y141.66 E45.3472
G0 F3600 X178.429 Y142.226
G1 F1800 X167.773 Y131.569 E46.09907
G0 F3600 X167.208 Y131.569
G1 F1800 X178.429 Y142.791 E46.89081
G0 F3600 X178.429 Y143.357
G1 F1800 X166.642 Y131.569 E47.72248
G0 F3600 X166.076 Y131.569
G1 F1800 X178.429 Y143.923 E48.59408
G0 F3600 X178.429 Y144.488
G1 F1800 X165.511 Y131.569 E49.50555
G0 F3600 X164.945 Y131.569
G1 F1800 X178.429 Y145.054 E50.45696
G0 F3600 X178.429 Y145.62
G1 F1800 X164.379 Y131.569 E51.4483
G0 F3600 X163.814 Y131.569
G1 F1800 X178.429 Y146.185 E52.4795
G0 F3600 X178.429 Y146.751
G1 F1800 X163.248 Y131.569 E53.55064
G0 F3600 X162.682 Y131.569
G1 F1800 X178.429 Y147.317 E54.66171
G0 F3600 X178.429 Y147.882
G1 F1800 X162.116 Y131.569 E55.81268
G0 F3600 X161.551 Y131.569
G1 F1800 X178.429 Y148.448 E57.00355
G0 F3600 X178.429 Y149.014
G1 F1800 X160.985 Y131.569 E58.23435
G0 F3600 X160.419 Y131.569
G1 F1800 X178.429 Y149.579 E59.50505
G0 F3600 X178.429 Y150.145
G1 F1800 X159.854 Y131.569 E60.81566
G0 F3600 X159.288 Y131.569
G1 F1800 X178.429 Y150.711 E62.16619
G0 F3600 X178.429 Y151.277
G1 F1800 X158.722 Y131.569 E63.55666
G0 F3600 X158.157 Y131.569
G1 F1800 X178.429 Y151.842 E64.987
G0 F3600 X178.429 Y152.408
G1 F1800 X157.591 Y131.569 E66.45727
G0 F3600 X157.025 Y131.569
G1 F1800 X178.429 Y152.974 E67.96747
G0 F3600 X178.429 Y153.539
G1 F1800 X156.46 Y131.569 E69.51754
G0 F3600 X155.894 Y131.569
G1 F1800 X178.429 Y154.105 E71.10754
G0 F3600 X178.429 Y154.671
G1 F1800 X155.328 Y131.569 E72.73747
G0 F3600 X154.763 Y131.569
G1 F1800 X178.429 Y155.236 E74.40727
G0 F3600 X178.429 Y155.802
G1 F1800 X154.197 Y131.569 E76.11701
G0 F3600 X153.631 Y131.569
G1 F1800 X178.429 Y156.368 E77.86667
G0 F3600 X178.429 Y156.933
G1 F1800 X153.065 Y131.569 E79.65624
G0 F3600 X152.5 Y131.569
G1 F1800 X178.429 Y157.499 E81.48571
G0 F3600 X178.429 Y158.065
G1 F1800 X151.934 Y131.569 E83.35511
G0 F3600 X151.368 Y131.569
G1 F1800 X178.429 Y158.63 E85.26441
G0 F3600 X178.429 Y159.196
G1 F1800 X150.803 Y131.569 E87.21361
G0 F3600 X150.237 Y131.569
G1 F1800 X178.429 Y159.762 E89.20274
G0 F3600 X178.429 Y160.327
G1 F1800 X149.671 Y131.569 E91.23177
G0 F3600 X149.106 Y131.569
G1 F1800 X178.429 Y160.893 E93.3007
G0 F3600 X178.429 Y161.459
G1 F1800 X148.54 Y131.569 E95.40957
G0 F3600 X147.974 Y131.569
G1 F1800 X178.429 Y162.025 E97.55837
G0 F3600 X178.429 Y162.59
G1 F1800 X147.409 Y131.569 E99.74703
G0 F3600 X146.843 Y131.569
G1 F1800 X178.429 Y163.156 E101.97563
G0 F3600 X178.429 Y163.722
G1 F1800 X146.277 Y131.569 E104.24416
G0 F3600 X145.712 Y131.569
G1 F1800 X178.429 Y164.287 E106.55256
G0 F3600 X178.429 Y164.853
G1 F1800 X145.146 Y131.569 E108.90089
G0 F3600 X144.58 Y131.569
G1 F1800 X178.429 Y165.419 E111.28916
G0 F3600 X178.429 Y165.984
G1 F1800 X144.015 Y131.569 E113.71728
G0 F3600 X143.449 Y131.569
G1 F1800 X178.429 Y166.55 E116.18535
G0 F3600 X178.429 Y167.116
G1 F1800 X142.883 Y131.569 E118.69334
G0 F3600 X142.317 Y131.569
G1 F1800 X178.429 Y167.681 E121.24124
G0 F3600 X178.429 Y168.247
G1 F1800 X141.752 Y131.569 E123.82904
G0 F3600 X141.186 Y131.569
G1 F1800 X178.429 Y168.813 E126.45677
G0 F3600 X178.429 Y169.378
G1 F1800 X140.62 Y131.569 E129.1244
G0 F3600 X140.055 Y131.569
G1 F1800 X178.429 Y169.944 E131.83192
G0 F3600 X178.429 Y170.51
G1 F1800 X139.489 Y131.569 E134.57939
G0 F3600 X138.923 Y131.569
G1 F1800 X178.429 Y171.076 E137.36678
G0 F3600 X178.429 Y171.641
G1 F1800 X138.358 Y131.569 E140.19404
G0 F3600 X137.792 Y131.569
G1 F1800 X178.429 Y172.207 E143.06124
G0 F3600 X178.429 Y172.773
G1 F1800 X137.226 Y131.569 E145.96837
G0 F3600 X136.661 Y131.569
G1 F1800 X178.429 Y173.338 E148.91536
G0 F3600 X178.429 Y173.904
G1 F1800 X136.095 Y131.569 E151.90229
G0 F3600 X135.529 Y131.569
G1 F1800 X178.429 Y174.47 E154.92915
G0 F3600 X178.429 Y175.035
G1 F1800 X134.964 Y131.569 E157.99588
G0 F3600 X134.398 Y131.569
G1 F1800 X178.429 Y175.601 E161.10254
G0 F3600 X178.429 Y176.167
G1 F1800 X133.832 Y131.569 E164.24913
G0 F3600 X133.267 Y131.569
G1 F1800 X178.429 Y176.732 E167.43559
G0 F3600 X178.429 Y177.298
G1 F1800 X132.701 Y131.569 E170.66198
G0 F3600 X132.135 Y131.569
G1 F1800 X178.429 Y177.864 E173.92831
G0 F3600 X178.429 Y178.429
G1 F1800 X131.569 Y131.569 E177.23454
G0 F3600 X131.569 Y132.135
G1 F1800 X177.864 Y178.429 E180.50086
G0 F3600 X177.298 Y178.429
G1 F1800 X131.569 Y132.701 E183.72726
G0 F3600 X131.569 Y133.267
G1 F1800 X176.732 Y178.429 E186.91371
G0 F3600 X176.167 Y178.429
G1 F1800 X131.569 Y133.832 E190.06031
G0 F3600 X131.569 Y134.398
G1 F1800 X175.601 Y178.429 E193.16697
G0 F3600 X175.035 Y178.429
G1 F1800 X131.569 Y134.964 E196.2337
G0 F3600 X131.569 Y135.529
G1 F1800 X174.47 Y178.429 E199.26056
G0 F3600 X173.904 Y178.429
G1 F1800 X131.569 Y136.095 E202.24748
G0 F3600 X131.569 Y136.661
G1 F1800 X173.338 Y178.429 E205.19448
G0 F3600 X172.773 Y178.429
G1 F1800 X131.569 Y137.226 E208.10161
G0 F3600 X131.569 Y137.792
G1 F1800 X172.207 Y178.429 E210.9688
G0 F3600 X171.641 Y178.429
G1 F1800 X131.569 Y138.358 E213.79606
G0 F3600 X131.569 Y138.923
G1 F1800 X171.076 Y178.429 E216.58346
G0 F3600 X170.51 Y178.429
G1 F1800 X131.569 Y139.489 E219.33092
G0 F3600 X131.569 Y140.055
G1 F1800 X169.944 Y178.429 E222.03845
G0 F3600 X169.378 Y178.429
G1 F1800 X131.569 Y140.62 E224.70608
G0 F3600 X131.569 Y141.186
G1 F1800 X168.813 Y178.429 E227.33381
G0 F3600 X168.247 Y178.429
G1 F1800 X131.569 Y141.752 E229.92161
G0 F3600 X131.569 Y142.317
G1 F1800 X167.681 Y178.429 E232.4695
G0 F3600 X167.116 Y178.429
G1 F1800 X131.569 Y142.883 E234.9775
G0 F3600 X131.569 Y143.449
G1 F1800 X166.55 Y178.429 E237.44556
G0 F3600 X165.984 Y178.429
G1 F1800 X131.569 Y144.015 E239.87369
G0 F3600 X131.569 Y144.58
G1 F1800 X165.419 Y178.429 E242.26196
G0 F3600 X164.853 Y178.429
G1 F1800 X131.569 Y145.146 E244.61029
G0 F3600 X131.569 Y145.712
G1 F1800 X164.287 Y178.429 E246.91868
G0 F3600 X163.722 Y178.429
G1 F1800 X131.569 Y146.277 E249.18722
G0 F3600 X131.569 Y146.843
G1 F1800 X163.156 Y178.429 E251.41582
G0 F3600 X162.59 Y178.429
G1 F1800 X131.569 Y147.409 E253.60448
G0 F3600 X131.569 Y147.974
G1 F1800 X162.025 Y178.429 E255.75328
G0 F3600 X161.459 Y178.429
G1 F1800 X131.569 Y148.54 E257.86214
G0 F3600 X131.569 Y149.106
G1 F1800 X160.893 Y178.429 E259.93108
G0 F3600 X160.327 Y178.429
G1 F1800 X131.569 Y149.671 E261.96011
G0 F3600 X131.569 Y150.237
G1 F1800 X159.762 Y178.429 E263.94924
G0 F3600 X159.196 Y178.429
G1 F1800 X131.569 Y150.803 E265.89844
G0 F3600 X131.569 Y151.368
G1 F1800 X158.63 Y178.429 E267.80774
G0 F3600 X158.065 Y178.429
G1 F1800 X131.569 Y151.934 E269.67714
G0 F3600 X131.569 Y152.5
G1 F1800 X157.499 Y178.429 E271.50661
G0 F3600 X156.933 Y178.429
G1 F1800 X131.569 Y153.065 E273.29617
G0 F3600 X131.569 Y153.631
G1 F1800 X156.368 Y178.429 E275.04584
G0 F3600 X155.802 Y178.429
G1 F1800 X131.569 Y154.197 E276.75558
G0 F3600 X131.569 Y154.763
G1 F1800 X155.236 Y178.429 E278.42538
G0 F3600 X154.671 Y178.429
G1 F1800 X131.569 Y155.328 E280.05531
G0 F3600 X131.569 Y155.894
G1 F1800 X154.105 Y178.429 E281.64531
G0 F3600 X153.539 Y178.429
G1 F1800 X131.569 Y156.46 E283.19538
G0 F3600 X131.569 Y157.025
G1 F1800 X152.974 Y178.429 E284.70558
G0 F3600 X152.408 Y178.429
G1 F1800 X131.569 Y157.591 E286.17585
G0 F3600 X131.569 Y158.157
G1 F1800 X151.842 Y178.429 E287.60619
G0 F3600 X151.277 Y178.429
G1 F1800 X131.569 Y158.722 E288.99666
G0 F3600 X131.569 Y159.288
G1 F1800 X150.711 Y178.429 E290.34719
G0 F3600 X150.145 Y178.429
G1 F1800 X131.569 Y159.854 E291.65779
G0 F3600 X131.569 Y160.419
G1 F1800 X149.579 Y178.429 E292.9285
G0 F3600 X149.014 Y178.429
G1 F1800 X131.569 Y160.985 E294.1593
G0 F3600 X131.569 Y161.551
G1 F1800 X148.448 Y178.429 E295.35017
G0 F3600 X147.882 Y178.429
G1 F1800 X131.569 Y162.116 E296.50114
G0 F3600 X131.569 Y162.682
G1 F1800 X147.317 Y178.429 E297.61221
G0 F3600 X146.751 Y178.429
G1 F1800 X131.569 Y163.248 E298.68335
G0 F3600 X131.569 Y163.814
G1 F1800 X146.185 Y178.429 E299.71455
G0 F3600 X145.62 Y178.429
G1 F1800 X131.569 Y164.379 E300.70589
G0 F3600 X131.569 Y164.945
G1 F1800 X145.054 Y178.429 E301.65729
G0 F3600 X144.488 Y178.429
G1 F1800 X131.569 Y165.511 E302.56876
G0 F3600 X131.569 Y166.076
G1 F1800 X143.923 Y178.429 E303.44037
G0 F3600 X143.357 Y178.429
G1 F1800 X131.569 Y166.642 E304.27204
G0 F3600 X131.569 Y167.208
G1 F1800 X142.791 Y178.429 E305.06378
G0 F3600 X142.226 Y178.429
G1 F1800 X131.569 Y167.773 E305.81565
G0 F3600 X131.569 Y168.339
G1 F1800 X141.66 Y178.429 E306.52759
G0 F3600 X141.094 Y178.429
G1 F1800 X131.569 Y168.905 E307.1996
G0 F3600 X131.569 Y169.47
G1 F1800 X140.528 Y178.429 E307.8317
G0 F3600 X139.963 Y178.429
G1 F1800 X131.569 Y170.036 E308.42391
G0 F3600 X131.569 Y170.602
G1 F1800 X139.397 Y178.429 E308.97618
G0 F3600 X138.831 Y178.429
G1 F1800 X131.569 Y171.167 E309.48855
G0 F3600 X131.569 Y171.733
G1 F1800 X138.266 Y178.429 E309.96103
G0 F3600 X137.7 Y178.429
G1 F1800 X131.569 Y172.299 E310.39357
G0 F3600 X131.569 Y172.864
G1 F1800 X137.134 Y178.429 E310.78621
G0 F3600 X136.569 Y178.429
G1 F1800 X131.569 Y173.43 E311.13895
G0 F3600 X131.569 Y173.996
G1 F1800 X136.003 Y178.429 E311.45176
G0 F3600 X135.437 Y178.429
G1 F1800 X131.569 Y174.562 E311.72463
G0 F3600 X131.569 Y175.127
G1 F1800 X134.872 Y178.429 E311.95764
G0 F3600 X134.306 Y178.429
G1 F1800 X131.569 Y175.693 E312.15072
G0 F3600 X131.569 Y176.259
G1 F1800 X133.74 Y178.429 E312.30386
G0 F3600 X133.175 Y178.429
G1 F1800 X131.569 Y176.824 E312.41713
G0 F3600 X131.569 Y177.39
G1 F1800 X132.609 Y178.429 E312.49048
G0 F3600 X132.043 Y178.429
G1 F1800 X131.569 Y177.956 E312.52388
;MESH:NONMESH
G0 F600 X131.569 Y177.956 Z0.45
G0 F3600 X179.33 Y179.33
G0 X179.8 Y179.8
;TIME_ELAPSED:219.692763
;LAYER:1
M106 S255
;TYPE:WALL-OUTER
;MESH:AIl_In_One_3D_printer_test_micro.stl
G1 F1800 X130.2 Y179.8 E313.76116
G1 X130.2 Y130.2 E314.99844
G1 X179.8 Y130.2 E316.23571
G1 X179.8 Y179.8 E317.47299
G0 F5400 X179.6 Y179.8
G0 X179.36 Y179.36
G0 X179.4 Y179.4
;TYPE:WALL-INNER
G1 F2700 X130.6 Y179.4 E318.69031
G1 X130.6 Y130.6 E319.90763
G1 X179.4 Y130.6 E321.12495
G1 X179.4 Y179.4 E322.34228
G0 F5400 X179 Y179
G1 F2700 X131 Y179 E323.53964
G1 X131 Y131 E324.73701
G1 X179 Y131 E325.93437
G1 X179 Y179 E327.13173
G0 F5400 X178.61 Y178.61
;TYPE:SKIN
G1 F1800 X131.39 Y178.61 E328.30964
G1 X131.39 Y131.39 E329.48755
G1 X178.61 Y131.39 E330.66546
G1 X178.61 Y178.61 E331.84337
G0 F5400 X177.951 Y178.429
G1 F1800 X178.429 Y177.951 E331.86023
G0 F5400 X178.429 Y177.386
G1 F1800 X177.386 Y178.429 E331.89702
G0 F5400 X176.82 Y178.429
G1 F1800 X178.429 Y176.82 E331.95378
G0 F5400 X178.429 Y176.254
G1 F1800 X176.254 Y178.429 E332.03051
G0 F5400 X175.689 Y178.429
G1 F1800 X178.429 Y175.689 E332.12717
G0 F5400 X178.429 Y175.123
G1 F1800 X175.123 Y178.429 E332.2438
G0 F5400 X174.557 Y178.429
G1 F1800 X178.429 Y174.557 E332.3804
G0 F5400 X178.429 Y173.992
G1 F1800 X173.992 Y178.429 E332.53693
G0 F5400 X173.426 Y178.429
G1 F1800 X178.429 Y173.426 E332.71342
G0 F5400 X178.429 Y172.86
G1 F1800 X172.86 Y178.429 E332.90988
G0 F5400 X172.295 Y178.429
G1 F1800 X178.429 Y172.295 E333.12627
G0 F5400 X178.429 Y171.729
G1 F1800 X171.729 Y178.429 E333.36264
G0 F5400 X171.163 Y178.429
G1 F1800 X178.429 Y171.163 E333.61896
G0 F5400 X178.429 Y170.597
G1 F1800 X170.597 Y178.429 E333.89526
G0 F5400 X170.032 Y178.429
G1 F1800 X178.429 Y170.032 E334.19148
G0 F5400 X178.429 Y169.466
G1 F1800 X169.466 Y178.429 E334.50768
G0 F5400 X168.9 Y178.429
G1 F1800 X178.429 Y168.9 E334.84384
G0 F5400 X178.429 Y168.335
G1 F1800 X168.335 Y178.429 E335.19993
G0 F5400 X167.769 Y178.429
G1 F1800 X178.429 Y167.769 E335.57599
G0 F5400 X178.429 Y167.203
G1 F1800 X167.203 Y178.429 E335.97202
G0 F5400 X166.638 Y178.429
G1 F1800 X178.429 Y166.638 E336.38798
G0 F5400 X178.429 Y166.072
G1 F1800 X166.072 Y178.429 E336.82391
G0 F5400 X165.506 Y178.429
G1 F1800 X178.429 Y165.506 E337.2798
G0 F5400 X178.429 Y164.941
G1 F1800 X164.941 Y178.429 E337.75563
G0 F5400 X164.375 Y178.429
G1 F1800 X178.429 Y164.375 E338.25142
G0 F5400 X178.429 Y163.809
G1 F1800 X163.809 Y178.429 E338.76718
G0 F5400 X163.244 Y178.429
G1 F1800 X178.429 Y163.244 E339.30287
G0 F5400 X178.429 Y162.678
G1 F1800 X162.678 Y178.429 E339.85853
G0 F5400 X162.112 Y178.429
G1 F1800 X178.429 Y162.112 E340.43416
G0 F5400 X178.429 Y161.547
G1 F1800 X161.547 Y178.429 E341.02971
G0 F5400 X160.981 Y178.429
G1 F1800 X178.429 Y160.981 E341.64524
G0 F5400 X178.429 Y160.415
G1 F1800 X160.415 Y178.429 E342.28073
G0 F5400 X159.849 Y178.429
G1 F1800 X178.429 Y159.849 E342.93619
G0 F5400 X178.429 Y159.284
G1 F1800 X159.284 Y178.429 E343.61158
G0 F5400 X158.718 Y178.429
G1 F1800 X178.429 Y158.718 E344.30694
G0 F5400 X178.429 Y158.152
G1 F1800 X158.152 Y178.429 E345.02227
G0 F5400 X157.587 Y178.429
G1 F1800 X178.429 Y157.587 E345.75753
G0 F5400 X178.429 Y157.021
G1 F1800 X157.021 Y178.429 E346.51275
G0 F5400 X156.455 Y178.429
G1 F1800 X178.429 Y156.455 E347.28794
G0 F5400 X178.429 Y155.89
G1 F1800 X155.89 Y178.429 E348.08307
G0 F5400 X155.324 Y178.429
G1 F1800 X178.429 Y155.324 E348.89816
G0 F5400 X178.429 Y154.758
G1 F1800 X154.758 Y178.429 E349.73322
G0 F5400 X154.193 Y178.429
G1 F1800 X178.429 Y154.193 E350.58821
G0 F5400 X178.429 Y153.627
G1 F1800 X153.627 Y178.429 E351.46316
G0 F5400 X153.061 Y178.429
G1 F1800 X178.429 Y153.061 E352.35809
G0 F5400 X178.429 Y152.496
G1 F1800 X152.496 Y178.429 E353.27295
