;FLAVOR:Marlin
;TIME:7627
;Filament used: 6.10244m
;Layer height: 0.15
;MINX:46.044
;MINY:80.257
;MINZ:0.3
;MAXX:263.956
;MAXY:229.743
;MAXZ:7.95
;Generated with Cura_SteamEngine 4.8.0
M140 S55
M105
M190 S55
M104 S195
M105
M109 S195
M82 ;absolute extrusion mode
G28 ;Home
G1 Z15.0 F6000 ;Move the platform down 15mm
;Prime the extruder
G92 E0
G1 F200 E3
G92 E0
G92 E0
G92 E0
G1 F1800 E-10
;LAYER_COUNT:52
;LAYER:0
M107
M204 S500
M205 X5 Y5
;MESH:S8_Spool_Rest.stl
G0 F3600 X56.044 Y136.957 Z0.3
;TYPE:WALL-OUTER
G1 F1800 E0
G1 F2100 X56.044 Y134.666 E0.1143
G1 X56.044 Y134.665 E0.11435
G1 X56.044 Y134.457 E0.12473
G1 X56.252 Y134.465 E0.13138
G1 X56.253 Y134.466 E0.13145
G1 X56.659 Y134.485 E0.15173
G1 X56.965 Y134.57 E0.16757
G1 X57.246 Y134.702 E0.18306
G1 X57.504 Y134.883 E0.19878
G1 X57.727 Y135.107 E0.21455
G1 X57.904 Y135.361 E0.23
G1 X58.036 Y135.649 E0.2458
G1 X58.115 Y135.95 E0.26133
G1 X58.144 Y136.264 E0.27706
G1 X58.143 Y139.76 E0.45148
G1 X58.099 Y140.251 E0.47607
G1 X57.975 Y140.714 E0.49998
G1 X57.764 Y141.163 E0.52474
G1 X57.485 Y141.56 E0.54894
G1 X57.145 Y141.9 E0.57293
G1 X56.736 Y142.184 E0.59777
G1 X56.3 Y142.388 E0.62179
G1 X55.821 Y142.515 E0.64651
G1 X55.339 Y142.557 E0.67065
G1 X53.344 Y142.557 E0.77018
G1 X53.144 Y142.557 E0.78016
G1 X53.144 Y142.757 E0.78662
G1 X53.145 Y149.585 E1.12727
G1 X53.218 Y149.979 E1.14726
G1 X53.431 Y150.339 E1.16813
G1 X53.753 Y150.603 E1.18891
G1 X54.127 Y150.739 E1.20876
G1 X54.335 Y150.757 E1.21918
G1 X61.953 Y150.757 E1.59924
G1 X62.281 Y150.706 E1.6158
G1 X62.575 Y150.569 E1.63198
G1 X62.926 Y150.33 E1.65317
G1 X63.254 Y150.257 E1.66993
G1 X93.294 Y150.257 E3.16863
G1 X93.295 Y143.054 E3.52799
G1 X93.338 Y142.563 E3.55258
G1 X93.463 Y142.1 E3.57651
G1 X93.674 Y141.651 E3.60126
G1 X93.951 Y141.257 E3.62529
G1 X94.295 Y140.912 E3.64959
G1 X94.702 Y140.63 E3.6743
G1 X95.138 Y140.426 E3.69831
G1 X95.616 Y140.3 E3.72297
G1 X96.101 Y140.257 E3.74727
G1 X174.293 Y140.256 E7.64828
G1 X175.289 Y140.206 E7.69803
G1 X176.278 Y140.057 E7.74793
G1 X177.231 Y139.818 E7.79695
G1 X178.174 Y139.481 E7.84691
G1 X179.095 Y139.044 E7.89777
G1 X179.937 Y138.538 E7.94678
G1 X180.741 Y137.942 E7.99671
G1 X181.495 Y137.257 E8.04753
G1 X182.156 Y136.528 E8.09663
G1 X182.752 Y135.724 E8.14656
G1 X183.275 Y134.849 E8.19742
G1 X183.694 Y133.961 E8.2464
G1 X184.032 Y133.018 E8.29638
G1 X184.274 Y132.047 E8.34631
G1 X184.422 Y131.038 E8.39718
G1 X184.47 Y130.062 E8.44593
G1 X184.47 Y82.064 E10.84056
G1 X184.506 Y81.703 E10.85866
G1 X184.569 Y81.498 E10.86936
G1 X184.735 Y81.497 E10.87765
G1 X189.27 Y81.511 E11.1039
G1 X193.971 Y81.497 E11.33843
G1 X194.035 Y81.705 E11.34929
G1 X194.07 Y82.066 E11.36739
G1 X194.07 Y140.14 E14.26471
G1 X261.091 Y207.161 E18.9934
G1 X261.728 Y207.864 E19.04073
G1 X262.306 Y208.642 E19.08909
G1 X262.804 Y209.477 E19.13759
G1 X263.214 Y210.344 E19.18544
G1 X263.532 Y211.231 E19.23245
G1 X263.767 Y212.173 E19.28089
G1 X263.909 Y213.141 E19.3297
G1 X263.956 Y214.085 E19.37685
G1 X263.956 Y227.942 E20.06818
G1 X263.928 Y228.259 E20.08406
G1 X263.845 Y228.562 E20.09973
G1 X263.71 Y228.847 E20.11546
G1 X263.527 Y229.107 E20.13133
G1 X263.31 Y229.324 E20.14664
G1 X263.052 Y229.503 E20.1623
G1 X262.765 Y229.635 E20.17806
G1 X262.462 Y229.716 E20.19371
G1 X262.15 Y229.743 E20.20933
G1 X261.157 Y229.743 E20.25888
G1 X260.841 Y229.715 E20.2747
G1 X260.535 Y229.63 E20.29055
G1 X260.254 Y229.498 E20.30604
G1 X259.996 Y229.317 E20.32176
G1 X259.771 Y229.091 E20.33767
G1 X259.596 Y228.839 E20.35298
G1 X259.464 Y228.551 E20.36878
G1 X259.385 Y228.25 E20.38431
G1 X259.356 Y227.931 E20.40029
G1 X259.355 Y219.919 E20.80001
G1 X259.304 Y218.911 E20.85036
G1 X259.148 Y217.89 E20.90189
G1 X258.883 Y216.871 E20.95442
G1 X258.53 Y215.92 E21.00503
G1 X258.075 Y214.993 E21.05655
G1 X257.517 Y214.1 E21.10908
G1 X256.896 Y213.299 E21.15965
G1 X256.184 Y212.55 E21.2112
G1 X255.384 Y211.866 E21.26372
G1 X254.552 Y211.286 E21.31432
G1 X253.648 Y210.785 E21.36588
G1 X252.698 Y210.377 E21.41746
G1 X251.695 Y210.064 E21.46988
G1 X250.701 Y209.86 E21.52051
G1 X249.673 Y209.756 E21.57205
G1 X248.64 Y209.756 E21.62359
G1 X247.612 Y209.86 E21.67514
G1 X246.582 Y210.073 E21.72761
G1 X245.613 Y210.377 E21.77828
G1 X244.664 Y210.785 E21.82982
G1 X243.761 Y211.286 E21.88134
G1 X242.898 Y211.889 E21.93386
G1 X242.129 Y212.55 E21.98445
G1 X241.417 Y213.299 E22.03601
G1 X240.775 Y214.132 E22.08848
G1 X240.238 Y214.993 E22.1391
G1 X239.783 Y215.92 E22.19062
G1 X239.419 Y216.907 E22.24311
G1 X239.165 Y217.89 E22.29376
G1 X239.009 Y218.911 E22.34529
G1 X238.956 Y219.938 E22.39659
G1 X238.956 Y227.942 E22.79591
G1 X238.928 Y228.259 E22.81179
G1 X238.845 Y228.562 E22.82746
G1 X238.71 Y228.847 E22.8432
G1 X238.527 Y229.107 E22.85906
G1 X238.31 Y229.324 E22.87437
G1 X238.052 Y229.503 E22.89004
G1 X237.765 Y229.635 E22.9058
G1 X237.462 Y229.716 E22.92145
G1 X237.15 Y229.743 E22.93707
G1 X236.157 Y229.743 E22.98661
G1 X235.841 Y229.715 E23.00244
G1 X235.535 Y229.63 E23.01828
G1 X235.254 Y229.498 E23.03377
G1 X234.996 Y229.317 E23.04949
G1 X234.771 Y229.091 E23.0654
G1 X234.596 Y228.839 E23.08071
G1 X234.464 Y228.551 E23.09652
G1 X234.385 Y228.25 E23.11204
G1 X234.356 Y227.931 E23.12802
G1 X234.355 Y214.062 E23.81995
G1 X234.305 Y213.067 E23.86965
G1 X234.156 Y212.077 E23.9196
G1 X233.918 Y211.124 E23.96861
G1 X233.58 Y210.181 E24.01858
G1 X233.143 Y209.26 E24.06944
G1 X232.637 Y208.418 E24.11845
G1 X232.041 Y207.614 E24.16838
G1 X231.372 Y206.876 E24.21808
G1 X182.21 Y157.715 E27.68669
G1 X181.485 Y157.058 E27.7355
G1 X180.681 Y156.461 E27.78546
G1 X179.806 Y155.939 E27.83629
G1 X178.918 Y155.519 E27.8853
G1 X177.975 Y155.182 E27.93526
G1 X177.004 Y154.939 E27.9852
G1 X175.995 Y154.791 E28.03608
G1 X175.019 Y154.743 E28.08483
G1 X94.156 Y154.743 E32.1191
G1 X49.844 Y154.845 E34.32984
G1 X49.246 Y154.798 E34.35977
G1 X48.668 Y154.658 E34.38944
G1 X48.124 Y154.434 E34.41879
G1 X47.607 Y154.117 E34.44904
G1 X47.161 Y153.735 E34.47834
G1 X46.765 Y153.271 E34.50877
G1 X46.46 Y152.774 E34.53787
G1 X46.227 Y152.208 E34.5684
G1 X46.091 Y151.641 E34.59749
G1 X46.044 Y151.046 E34.62727
G1 X46.045 Y140.746 E35.14114
G1 X46.091 Y140.162 E35.17037
G1 X46.233 Y139.577 E35.2004
G1 X46.46 Y139.029 E35.22999
G1 X46.776 Y138.516 E35.26005
G1 X47.156 Y138.072 E35.28921
G1 X47.622 Y137.676 E35.31972
G1 X48.118 Y137.372 E35.34874
G1 X48.683 Y137.14 E35.37921
G1 X49.249 Y137.004 E35.40825
G1 X49.847 Y136.957 E35.43818
G1 X56.044 Y136.957 E35.74735
G0 F3600 X56.044 Y136.757
G0 X56.484 Y136.757
G0 X56.444 Y137.357
;TYPE:WALL-INNER
G1 F2100 X56.444 Y134.961 E35.86689
G1 X56.444 Y134.945 E35.86768
G1 X56.444 Y134.876 E35.87113
G1 X56.824 Y134.945 E35.88511
G1 X56.837 Y134.953 E35.88586
G1 X57.247 Y135.191 E35.90951
G1 X57.554 Y135.558 E35.93338
G1 X57.72 Y136.023 E35.95801
G1 X57.724 Y136.074 E35.96057
G1 X57.741 Y136.256 E35.96969
G1 X57.744 Y136.279 E35.97084
G1 X57.743 Y139.746 E36.14381
G1 X57.704 Y140.182 E36.16565
G1 X57.599 Y140.574 E36.1859
G1 X57.416 Y140.962 E36.2073
G1 X57.179 Y141.3 E36.2279
G1 X56.888 Y141.591 E36.24843
G1 X56.855 Y141.613 E36.25041
G1 X56.534 Y141.837 E36.26993
G1 X56.166 Y142.009 E36.2902
G1 X55.747 Y142.12 E36.31183
G1 X55.351 Y142.154 E36.33166
G1 X55.327 Y142.157 E36.33286
G1 X52.943 Y142.157 E36.4518
G1 X52.744 Y142.157 E36.46173
G1 X52.744 Y142.356 E36.46815
G1 X52.745 Y149.622 E36.83065
G1 X52.838 Y150.122 E36.85603
G1 X53.123 Y150.604 E36.88396
G1 X53.552 Y150.956 E36.91165
G1 X54.04 Y151.133 E36.93755
G1 X54.318 Y151.157 E36.95147
G1 X61.984 Y151.157 E37.33393
G1 X62.399 Y151.093 E37.35488
G1 X62.773 Y150.918 E37.37548
G1 X63.089 Y150.703 E37.39454
G1 X63.165 Y150.687 E37.39842
G1 X63.296 Y150.657 E37.40512
G1 X93.694 Y150.657 E38.92169
G1 X93.695 Y143.066 E39.3004
G1 X93.733 Y142.634 E39.32204
G1 X93.84 Y142.239 E39.34246
G1 X94.022 Y141.852 E39.36379
G1 X94.259 Y141.514 E39.38439
G1 X94.52 Y141.253 E39.4028
G1 X94.549 Y141.223 E39.40488
G1 X94.904 Y140.977 E39.42643
G1 X95.273 Y140.804 E39.44676
G1 X95.689 Y140.695 E39.46822
G1 X96.113 Y140.657 E39.48946
G1 X174.303 Y140.656 E43.39037
G1 X175.329 Y140.604 E43.44162
G1 X176.357 Y140.45 E43.49348
G1 X177.347 Y140.201 E43.54441
G1 X178.327 Y139.851 E43.59633
G1 X179.284 Y139.397 E43.64918
G1 X180.16 Y138.871 E43.70015
G1 X180.995 Y138.251 E43.75204
G1 X181.778 Y137.54 E43.80481
G1 X182.466 Y136.782 E43.85588
G1 X183.085 Y135.946 E43.90777
G1 X183.628 Y135.037 E43.9606
G1 X184.064 Y134.114 E44.01153
G1 X184.415 Y133.134 E44.06346
G1 X184.667 Y132.125 E44.11535
G1 X184.821 Y131.077 E44.16819
G1 X184.87 Y130.072 E44.21839
G1 X184.87 Y82.19 E46.60723
G1 X184.87 Y82.084 E46.61252
G1 X184.889 Y81.897 E46.6219
G1 X184.995 Y81.897 E46.62719
G1 X189.27 Y81.911 E46.84047
G1 X193.546 Y81.898 E47.0538
G1 X193.652 Y81.898 E47.05909
G1 X193.67 Y82.084 E47.06841
G1 X193.67 Y82.19 E47.0737
G1 X193.67 Y140.306 E49.97312
G1 X260.808 Y207.444 E54.71007
G1 X261.417 Y208.116 E54.75531
G1 X261.971 Y208.862 E54.80167
G1 X262.436 Y209.642 E54.84698
G1 X262.451 Y209.666 E54.84839
G1 X262.843 Y210.497 E54.89423
G1 X262.852 Y210.523 E54.8956
G1 X263.141 Y211.328 E54.93827
G1 X263.15 Y211.352 E54.93955
G1 X263.153 Y211.367 E54.94032
G1 X263.373 Y212.248 E54.98562
G1 X263.51 Y213.177 E55.03247
G1 X263.556 Y214.105 E55.07882
G1 X263.556 Y227.93 E55.76855
G1 X263.467 Y228.427 E55.79374
G1 X263.221 Y228.847 E55.81803
G1 X262.849 Y229.156 E55.84215
G1 X262.398 Y229.32 E55.8661
G1 X262.128 Y229.343 E55.87962
G1 X261.169 Y229.343 E55.92746
G1 X260.676 Y229.255 E55.95245
G1 X260.253 Y229.009 E55.97686
G1 X259.946 Y228.641 E56.00077
G1 X259.78 Y228.177 E56.02535
G1 X259.776 Y228.124 E56.02801
G1 X259.759 Y227.941 E56.03717
G1 X259.756 Y227.917 E56.03838
G1 X259.755 Y219.909 E56.4379
G1 X259.702 Y218.871 E56.48976
G1 X259.54 Y217.809 E56.54335
G1 X259.265 Y216.751 E56.59789
G1 X258.898 Y215.762 E56.65052
G1 X258.425 Y214.798 E56.70409
G1 X257.846 Y213.871 E56.75862
G1 X257.2 Y213.038 E56.81121
G1 X256.46 Y212.259 E56.86481
G1 X255.629 Y211.549 E56.91934
G1 X254.764 Y210.946 E56.97195
G1 X253.824 Y210.425 E57.02557
G1 X252.837 Y210.001 E57.07916
G1 X251.795 Y209.676 E57.13362
G1 X250.761 Y209.464 E57.18628
G1 X249.693 Y209.356 E57.23983
G1 X248.62 Y209.356 E57.29336
G1 X247.551 Y209.464 E57.34697
G1 X246.481 Y209.685 E57.40148
G1 X245.474 Y210.001 E57.45413
G1 X244.488 Y210.425 E57.50768
G1 X243.549 Y210.946 E57.56125
G1 X242.652 Y211.573 E57.61585
G1 X241.853 Y212.26 E57.66843
G1 X241.113 Y213.038 E57.72199
G1 X240.446 Y213.904 E57.77653
G1 X239.888 Y214.799 E57.82915
G1 X239.415 Y215.762 E57.88267
G1 X239.037 Y216.787 E57.93718
G1 X238.773 Y217.81 E57.98989
G1 X238.611 Y218.87 E58.04339
G1 X238.556 Y219.928 E58.09624
G1 X238.556 Y227.93 E58.49546
G1 X238.467 Y228.427 E58.52065
G1 X238.221 Y228.847 E58.54494
G1 X237.849 Y229.156 E58.56906
G1 X237.398 Y229.32 E58.593
G1 X237.128 Y229.343 E58.60652
G1 X236.169 Y229.343 E58.65437
G1 X235.676 Y229.255 E58.67935
G1 X235.253 Y229.009 E58.70377
G1 X234.946 Y228.641 E58.72767
G1 X234.78 Y228.177 E58.75226
G1 X234.776 Y228.124 E58.75491
G1 X234.759 Y227.941 E58.76408
G1 X234.756 Y227.917 E58.76529
G1 X234.755 Y214.052 E59.45702
G1 X234.703 Y213.027 E59.50822
G1 X234.549 Y211.999 E59.56008
G1 X234.301 Y211.008 E59.61104
G1 X233.95 Y210.027 E59.66303
G1 X233.496 Y209.071 E59.71583
G1 X232.97 Y208.195 E59.7668
G1 X232.351 Y207.36 E59.81866
G1 X231.662 Y206.6 E59.86984
G1 X182.486 Y157.425 E63.33943
G1 X181.739 Y156.748 E63.38973
G1 X180.903 Y156.128 E63.44166
G1 X179.994 Y155.586 E63.49446
G1 X179.071 Y155.149 E63.54541
G1 X178.091 Y154.799 E63.59732
G1 X177.082 Y154.546 E63.64922
G1 X176.034 Y154.392 E63.70207
G1 X175.029 Y154.343 E63.75227
G1 X94.156 Y154.343 E67.78704
G1 X49.862 Y154.445 E69.99688
G1 X49.309 Y154.402 E70.02455
G1 X48.791 Y154.276 E70.05115
G1 X48.306 Y154.076 E70.07732
G1 X47.843 Y153.793 E70.10439
G1 X47.445 Y153.452 E70.13054
G1 X47.089 Y153.035 E70.1579
G1 X46.818 Y152.592 E70.18381
G1 X46.609 Y152.084 E70.21121
G1 X46.488 Y151.58 E70.23707
G1 X46.444 Y151.028 E70.2647
G1 X46.445 Y140.764 E70.77677
G1 X46.487 Y140.225 E70.80374
G1 X46.614 Y139.703 E70.83054
G1 X46.817 Y139.212 E70.85705
G1 X47.102 Y138.75 E70.88413
G1 X47.439 Y138.357 E70.90996
G1 X47.858 Y138 E70.93742
G1 X48.299 Y137.73 E70.96322
G1 X48.807 Y137.522 E70.99061
G1 X49.31 Y137.401 E71.01642
G1 X49.865 Y137.357 E71.0442
G1 X56.444 Y137.357 E71.37242
G0 F3600 X56.844 Y137.757
G1 F2100 X56.844 Y135.881 E71.46602
G1 X56.844 Y135.761 E71.472
G1 X56.844 Y135.501 E71.48498
G1 X56.844 Y135.42 E71.48902
G1 X56.985 Y135.501 E71.49272
G1 X57.201 Y135.761 E71.5043
G1 X57.241 Y135.874 E71.50997
G1 X57.327 Y136.112 E71.52259
G1 X57.344 Y136.295 E71.53176
G1 X57.343 Y139.732 E71.70324
G1 X57.309 Y140.113 E71.72232
G1 X57.224 Y140.431 E71.73874
G1 X57.069 Y140.759 E71.75684
G1 X56.87 Y141.043 E71.77414
G1 X56.627 Y141.286 E71.79129
G1 X56.334 Y141.489 E71.80907
G1 X56.033 Y141.63 E71.82565
G1 X55.674 Y141.725 E71.84418
G1 X55.315 Y141.757 E71.86216
G1 X52.543 Y141.757 E72.00046
G1 X52.344 Y141.757 E72.01039
G1 X52.344 Y141.956 E72.01681
G1 X52.345 Y149.659 E72.40111
G1 X52.458 Y150.265 E72.43187
G1 X52.815 Y150.868 E72.46683
G1 X53.351 Y151.309 E72.50146
G1 X53.953 Y151.527 E72.5334
G1 X54.301 Y151.557 E72.55083
G1 X62.015 Y151.557 E72.93568
G1 X62.517 Y151.48 E72.96102
G1 X62.972 Y151.267 E72.98608
G1 X63.252 Y151.076 E73.00299
G1 X63.338 Y151.057 E73.00739
G1 X94.094 Y151.057 E74.54181
G1 X94.095 Y143.078 E74.93988
G1 X94.128 Y142.707 E74.95847
G1 X94.217 Y142.377 E74.97552
G1 X94.368 Y142.057 E74.99317
G1 X94.571 Y141.767 E75.01083
G1 X94.803 Y141.534 E75.02724
G1 X95.106 Y141.324 E75.04563
G1 X95.41 Y141.182 E75.06237
G1 X95.76 Y141.09 E75.08042
G1 X96.127 Y141.057 E75.09881
G1 X174.313 Y141.056 E78.99952
G1 X175.369 Y141.002 E79.05227
G1 X176.436 Y140.843 E79.10609
G1 X177.463 Y140.584 E79.15894
G1 X178.48 Y140.221 E79.21281
G1 X179.473 Y139.75 E79.26764
G1 X180.383 Y139.204 E79.32059
G1 X181.249 Y138.56 E79.37443
G1 X182.061 Y137.823 E79.42914
G1 X182.776 Y137.036 E79.48219
G1 X183.418 Y136.168 E79.53605
G1 X183.97 Y135.242 E79.58983
G1 X183.981 Y135.225 E79.59084
G1 X184.434 Y134.267 E79.64371
G1 X184.798 Y133.25 E79.6976
G1 X185.06 Y132.203 E79.75145
G1 X185.22 Y131.116 E79.80626
G1 X185.27 Y130.082 E79.85791
G1 X185.27 Y82.498 E82.23188
G1 X185.27 Y82.298 E82.24186
G1 X185.47 Y82.298 E82.24832
G1 X189.27 Y82.311 E82.43791
G1 X193.07 Y82.299 E82.62749
G1 X193.27 Y82.299 E82.63747
G1 X193.27 Y82.499 E82.64393
G1 X193.27 Y140.472 E85.53621
G1 X260.525 Y207.727 E90.28142
G1 X261.11 Y208.373 E90.3249
G1 X261.638 Y209.084 E90.36908
G1 X262.094 Y209.847 E90.41343
G1 X262.477 Y210.658 E90.45817
G1 X262.766 Y211.464 E90.50089
G1 X262.979 Y212.323 E90.54504
G1 X263.111 Y213.213 E90.58993
G1 X263.156 Y214.125 E90.63549
G1 X263.156 Y227.893 E91.32238
G1 X263.085 Y228.288 E91.3424
G1 X262.913 Y228.583 E91.35944
G1 X262.646 Y228.804 E91.37673
G1 X262.312 Y228.925 E91.39445
G1 X262.106 Y228.943 E91.40477
G1 X261.205 Y228.943 E91.44972
G1 X260.816 Y228.873 E91.46944
G1 X260.514 Y228.698 E91.48685
G1 X260.3 Y228.441 E91.50354
G1 X260.173 Y228.087 E91.5223
G1 X260.156 Y227.902 E91.53157
G1 X260.155 Y219.899 E91.93084
G1 X260.1 Y218.831 E91.98419
G1 X259.932 Y217.728 E92.03986
G1 X259.647 Y216.631 E92.0964
G1 X259.266 Y215.604 E92.15105
G1 X258.775 Y214.603 E92.20668
G1 X258.175 Y213.642 E92.2632
G1 X257.504 Y212.777 E92.31781
G1 X256.736 Y211.968 E92.37347
G1 X255.874 Y211.232 E92.43002
G1 X254.976 Y210.606 E92.48463
