;FLAVOR:Marlin
;TIME:711
;Filament used: 0.219413m
;Layer height: 0.15
;MINX:123.997
;MINY:106.109
;MINZ:0.3
;MAXX:200.237
;MAXY:196.562
;MAXZ:12
;Generated with Cura_SteamEngine 4.8.0
M140 S60
M105
M190 S60
M104 S200
M105
M109 S200
M82 ;absolute extrusion mode
G28 ;Home
G1 Z15.0 F6000 ;Move the platform down 15mm
;Prime the extruder
G92 E0
G1 F200 E3
G92 E0
G92 E0
G92 E0
G1 F1500 E-10
;LAYER_COUNT:45
;LAYER:0
M107
M204 S500
M205 X5 Y5
;MESH:clip175-v1.STL(1)
G0 F3600 X192.973 Y107.884 Z0.3
;TYPE:WALL-OUTER
G1 F1500 E0
G1 F1800 X192.618 Y108.128 E0.02149
G1 X192.371 Y108.48 E0.04294
G1 X192.266 Y108.89 E0.06406
G1 X192.29 Y109.494 E0.09422
G1 X192.369 Y110.012 E0.12036
G1 X192.55 Y110.669 E0.15436
G1 X192.735 Y111.12 E0.17868
G1 X192.756 Y111.25 E0.18525
G1 X192.767 Y111.32 E0.18878
G1 X192.719 Y111.44 E0.19523
G1 X192.714 Y111.453 E0.19593
G1 X192.607 Y111.543 E0.2029
G1 X192.536 Y111.545 E0.20645
G1 X192.354 Y111.552 E0.21553
G1 X192.341 Y111.545 E0.21627
G1 X191.918 Y111.316 E0.24027
G1 X191.518 Y110.994 E0.26588
G1 X191.19 Y110.614 E0.29093
G1 X190.931 Y110.172 E0.31649
G1 X190.759 Y109.696 E0.34174
G1 X190.674 Y109.197 E0.36699
G1 X190.681 Y108.687 E0.39244
G1 X190.779 Y108.192 E0.41761
G1 X190.969 Y107.715 E0.44323
G1 X191.235 Y107.291 E0.4682
G1 X191.579 Y106.915 E0.49363
G1 X191.987 Y106.606 E0.51916
G1 X192.441 Y106.378 E0.54451
G1 X192.927 Y106.236 E0.56977
G1 X193.435 Y106.185 E0.59524
G1 X193.94 Y106.224 E0.62051
G1 X194.501 Y106.35 E0.64919
G1 X195.117 Y106.419 E0.68012
G1 X195.745 Y106.397 E0.71147
G1 X196.353 Y106.283 E0.74233
G1 X196.892 Y106.148 E0.77005
G1 X197.402 Y106.11 E0.79557
G1 X197.917 Y106.162 E0.82139
G1 X198.412 Y106.306 E0.84711
G1 X198.873 Y106.537 E0.87283
G1 X199.285 Y106.843 E0.89844
G1 X199.635 Y107.222 E0.92418
G1 X199.915 Y107.66 E0.95011
G1 X200.108 Y108.131 E0.97551
G1 X200.218 Y108.639 E1.00144
G1 X200.234 Y109.152 E1.02704
G1 X200.157 Y109.665 E1.05292
G1 X199.992 Y110.149 E1.07844
G1 X199.742 Y110.598 E1.10407
G1 X199.413 Y111 E1.12999
G1 X199.019 Y111.333 E1.15573
G1 X198.574 Y111.59 E1.18137
G1 X198.088 Y111.764 E1.20712
G1 X197.582 Y111.849 E1.23272
G1 X197.064 Y111.842 E1.25856
G1 X196.561 Y111.744 E1.28413
G1 X196.079 Y111.555 E1.30996
G1 X195.644 Y111.285 E1.3355
G1 X195.258 Y110.937 E1.36143
G1 X194.943 Y110.531 E1.38707
G1 X194.705 Y110.07 E1.41295
G1 X194.553 Y109.579 E1.43859
G1 X194.538 Y109.498 E1.4427
G1 X194.651 Y109.18 E1.45954
G1 X194.645 Y108.75 E1.481
G1 X194.488 Y108.35 E1.50243
G1 X194.199 Y108.03 E1.52395
G1 X193.818 Y107.833 E1.54534
G1 X193.391 Y107.782 E1.5668
G1 X192.973 Y107.884 E1.58827
G0 F3600 X192.808 Y107.997
G0 X192.56 Y107.634
G0 X196.655 Y107.577
G0 X196.828 Y107.822
G1 F1800 X196.453 Y108.088 E1.6112
G1 X196.195 Y108.467 E1.63408
G1 X196.088 Y108.914 E1.65701
G1 X196.146 Y109.37 E1.67994
G1 X196.361 Y109.775 E1.70282
G1 X196.705 Y110.078 E1.72569
G1 X197.127 Y110.238 E1.7482
G1 X197.372 Y110.259 E1.76047
G1 X197.774 Y110.194 E1.78079
G1 X198.175 Y109.972 E1.80365
G1 X198.472 Y109.623 E1.82652
G1 X198.626 Y109.19 E1.84945
G1 X198.617 Y108.731 E1.87235
G1 X198.448 Y108.304 E1.89526
G1 X198.138 Y107.965 E1.91818
G1 X197.729 Y107.758 E1.94105
G1 X197.273 Y107.708 E1.96394
G1 X196.828 Y107.822 E1.98685
G0 F3600 X196.665 Y107.937
G0 X196.657 Y107.453
;TYPE:WALL-INNER
G1 F1800 X196.163 Y107.803 E2.01706
G1 X195.823 Y108.303 E2.04722
G1 X195.682 Y108.892 E2.07744
G1 X195.758 Y109.493 E2.10766
G1 X196.042 Y110.027 E2.13784
G1 X196.495 Y110.426 E2.16795
G1 X197.037 Y110.632 E2.19688
G1 X197.387 Y110.662 E2.21441
G1 X197.907 Y110.578 E2.24069
G1 X198.432 Y110.287 E2.27063
G1 X198.824 Y109.826 E2.30082
G1 X199.027 Y109.255 E2.33106
G1 X199.016 Y108.651 E2.3612
G1 X198.793 Y108.088 E2.39141
G1 X198.384 Y107.641 E2.42163
G1 X197.845 Y107.368 E2.45178
G1 X197.244 Y107.302 E2.48194
G1 X196.657 Y107.453 E2.51218
G0 F3600 X192.807 Y107.513
G1 F1800 X192.332 Y107.839 E2.54092
G1 X192.002 Y108.31 E2.56962
G1 X191.864 Y108.847 E2.59728
G1 X191.891 Y109.532 E2.63148
G1 X191.977 Y110.096 E2.65994
G1 X192.083 Y110.479 E2.67977
G1 X192.119 Y110.613 E2.68669
G1 X192.171 Y110.798 E2.69628
G1 X192.276 Y111.055 E2.71013
G1 X192.086 Y110.916 E2.71179
G1 X191.795 Y110.703 E2.72457
G1 X191.704 Y110.598 E2.73097
G1 X191.516 Y110.38 E2.74533
G1 X191.295 Y110.002 E2.76718
G1 X191.147 Y109.593 E2.78888
G1 X191.074 Y109.168 E2.81039
G1 X191.081 Y108.724 E2.83254
G1 X191.163 Y108.309 E2.85365
G1 X191.327 Y107.897 E2.87577
G1 X191.556 Y107.532 E2.89727
G1 X191.85 Y107.211 E2.91899
G1 X192.199 Y106.947 E2.94082
G1 X192.587 Y106.752 E2.96248
G1 X193.004 Y106.63 E2.98416
G1 X193.439 Y106.587 E3.00597
G1 X193.883 Y106.621 E3.02818
G1 X194.435 Y106.745 E3.05641
G1 X195.102 Y106.82 E3.0899
G1 X195.789 Y106.796 E3.12419
G1 X196.439 Y106.674 E3.15719
G1 X196.955 Y106.545 E3.18372
G1 X197.397 Y106.512 E3.20583
G1 X197.84 Y106.556 E3.22804
G1 X198.264 Y106.68 E3.25008
G1 X198.663 Y106.879 E3.27233
G1 X199.018 Y107.143 E3.2944
G1 X199.318 Y107.468 E3.31647
G1 X199.558 Y107.844 E3.33872
G1 X199.724 Y108.249 E3.36056
G1 X199.819 Y108.687 E3.38292
G1 X199.833 Y109.127 E3.40488
G1 X199.766 Y109.57 E3.42723
G1 X199.624 Y109.989 E3.4493
G1 X199.411 Y110.371 E3.47113
G1 X199.127 Y110.718 E3.4935
G1 X198.785 Y111.006 E3.5158
G1 X198.409 Y111.224 E3.53749
G1 X197.981 Y111.377 E3.56016
G1 X197.554 Y111.449 E3.58177
G1 X197.107 Y111.443 E3.60407
G1 X196.67 Y111.357 E3.62629
G1 X196.262 Y111.197 E3.64815
G1 X195.885 Y110.964 E3.67026
G1 X195.551 Y110.663 E3.6927
G1 X195.28 Y110.313 E3.71478
G1 X195.077 Y109.92 E3.73685
G1 X194.954 Y109.522 E3.75763
G1 X195.052 Y109.246 E3.77224
G1 X195.044 Y108.672 E3.80088
G1 X194.834 Y108.136 E3.8296
G1 X194.447 Y107.708 E3.85839
G1 X193.937 Y107.444 E3.88704
G1 X193.367 Y107.376 E3.91568
G1 X192.807 Y107.513 E3.94444
G0 F3600 X192.475 Y107.256
G1 F1800 X192.417 Y107.296 E3.94796
G1 X192.244 Y107.414 E3.95841
G1 X192.411 Y107.288 E3.95854
G1 X192.475 Y107.256 E3.95861
G0 F3600 X192.877 Y107.084
G1 F1800 X193.081 Y107.024 E3.96922
G1 X193.148 Y107.018 E3.97257
G1 X193.084 Y107.033
G1 X192.877 Y107.084 E3.97272
G0 F3600 X193.6 Y107.001
G1 F1800 X193.826 Y107.018 E3.98402
G1 X193.917 Y107.038 E3.98867
G1 X193.825 Y107.028
G1 X193.6 Y107.001 E3.98879
G0 F3600 X194.106 Y107.081
G1 F1800 X194.369 Y107.14 E4.00224
G1 X194.718 Y107.179 E4.01976
G1 X195.087 Y107.221 E4.03828
G1 X195.833 Y107.195 E4.07552
G1 X196.483 Y107.073 E4.10852
G1 X196.524 Y107.065 E4.1106
G1 X197.018 Y106.942 E4.136
G1 X197.047 Y106.939 E4.13746
G1 X197.02 Y106.946
G1 X196.527 Y107.073 E4.13789
G1 X196.486 Y107.084 E4.13796
G1 X195.999 Y107.429 E4.14846
G1 X195.873 Y107.518 E4.15526
G1 X195.467 Y108.116 E4.19132
G1 X195.451 Y108.139 E4.19272
G1 X195.38 Y108.434 E4.20785
G1 X195.29 Y108.203 E4.20991
G1 X195.18 Y107.922 E4.22218
G1 X194.695 Y107.386 E4.25825
G1 X194.338 Y107.201 E4.26623
G1 X194.106 Y107.081 E4.26725
G0 F3600 X191.93 Y107.716
G1 F1800 X191.886 Y107.779 E4.27108
G1 X191.77 Y107.945 E4.28119
G1 X191.877 Y107.773 E4.28131
G1 X191.93 Y107.716 E4.28136
G0 F3600 X191.581 Y108.341
G1 F1800 X191.559 Y108.428 E4.28584
G1 X191.508 Y108.627 E4.29609
G1 X191.547 Y108.426 E4.29619
G1 X191.581 Y108.341 E4.29631
G0 F3600 X192.873 Y107.663
G0 X195.47 Y107.789
;TYPE:SKIN
G1 F1800 X195.082 Y107.401 E4.32369
G0 F3600 X195.629 Y107.382
G1 F1800 X195.698 Y107.451 E4.32855
G0 F3600 X195.442 Y108.61
G0 X195.485 Y108.652
;TYPE:SKIN
G1 F1800 X195.364 Y108.814 E4.33707
G1 X195.426 Y109.442 E4.36366
G0 F3600 X195.252 Y109.834
G1 F1800 X196.499 Y111.08 E4.40763
G0 F3600 X196.964 Y110.98
G1 F1800 X197.31 Y111.043 E4.42812
G1 X198.049 Y110.933 E4.47163
G1 X198.758 Y110.511 E4.51969
G1 X199.231 Y109.853 E4.56688
G1 X199.407 Y109.18 E4.6074
G1 X199.354 Y108.561 E4.64358
G0 F3600 X199.446 Y108.088
G1 F1800 X198.247 Y106.889 E4.68588
G0 F3600 X197.777 Y106.985
G1 F1800 X197.445 Y106.936 E4.71345
G1 X197.292 Y107.065 E4.72989
G0 F3600 X197.83 Y106.755
G1 F1800 X199.579 Y108.504 E4.79159
G0 F3600 X198.328 Y110.159
G0 X196.905 Y111.203
G1 F1800 X195.177 Y109.475 E4.85255
G0 F3600 X194.696 Y108.223
G0 X193.888 Y107.6
G0 X192.873 Y107.663
G0 X192.149 Y108.381
G0 X191.858 Y110.399
G0 X191.731 Y110.272
G1 F1800 X191.566 Y109.825 E4.87477
G1 X191.479 Y109.172 E4.90549
G1 X191.525 Y108.935 E4.91674
G0 F3600 X191.372 Y108.782
;MESH:NONMESH
G0 F600 X191.372 Y108.782 Z0.45
G0 F3600 X192.903 Y107.593
G0 X192.973 Y107.884
;TIME_ELAPSED:12.887849
;LAYER:1
M106 S255
;TYPE:WALL-OUTER
;MESH:clip175-v1.STL(1)
G1 F1143.2 X192.618 Y108.128 E4.92749
G1 X192.371 Y108.48 E4.93821
G1 X192.266 Y108.89 E4.94877
G1 X192.29 Y109.488 E4.9637
G1 X192.369 Y110.012 E4.97692
G1 X192.548 Y110.664 E4.99379
G1 X192.738 Y111.126 E5.00625
G1 X192.771 Y111.295 E5.01054
G1 X192.727 Y111.432 E5.01413
G1 X192.726 Y111.435 E5.01421
G1 X192.623 Y111.534 E5.01777
G1 X192.479 Y111.575 E5.02151
G1 X192.349 Y111.549 E5.02482
G1 X192.346 Y111.548 E5.02489
G1 X191.919 Y111.317 E5.03701
G1 X191.523 Y111 E5.04966
G1 X191.189 Y110.613 E5.06241
G1 X190.934 Y110.18 E5.07495
G1 X190.76 Y109.7 E5.08768
G1 X190.674 Y109.2 E5.10034
G1 X190.681 Y108.691 E5.11304
G1 X190.778 Y108.195 E5.12564
G1 X190.967 Y107.718 E5.13844
G1 X191.232 Y107.295 E5.15089
G1 X191.58 Y106.914 E5.16376
G1 X191.98 Y106.611 E5.17628
G1 X192.436 Y106.381 E5.18902
G1 X192.924 Y106.237 E5.20171
G1 X193.432 Y106.185 E5.21445
G1 X193.936 Y106.223 E5.22706
G1 X194.501 Y106.349 E5.2415
G1 X195.112 Y106.419 E5.25684
G1 X195.74 Y106.397 E5.27252
G1 X196.348 Y106.285 E5.28794
G1 X196.888 Y106.15 E5.30182
G1 X197.399 Y106.11 E5.31461
G1 X197.913 Y106.161 E5.32749
G1 X198.408 Y106.305 E5.34035
G1 X198.869 Y106.534 E5.35319
G1 X199.283 Y106.842 E5.36607
G1 X199.636 Y107.222 E5.379
G1 X199.911 Y107.652 E5.39174
G1 X200.107 Y108.127 E5.40456
G1 X200.217 Y108.636 E5.41755
G1 X200.234 Y109.149 E5.43035
G1 X200.158 Y109.662 E5.44329
G1 X199.995 Y110.143 E5.45595
G1 X199.744 Y110.596 E5.46887
G1 X199.415 Y110.998 E5.48183
G1 X199.023 Y111.331 E5.49466
G1 X198.578 Y111.588 E5.50748
G1 X198.092 Y111.763 E5.52037
G1 X197.586 Y111.849 E5.53317
G1 X197.067 Y111.842 E5.54612
G1 X196.565 Y111.745 E5.55887
G1 X196.083 Y111.556 E5.57179
G1 X195.648 Y111.288 E5.58453
G1 X195.261 Y110.94 E5.59751
G1 X194.943 Y110.531 E5.61044
G1 X194.708 Y110.08 E5.62312
G1 X194.554 Y109.583 E5.6361
G1 X194.538 Y109.498 E5.63826
G1 X194.651 Y109.18 E5.64668
G1 X194.645 Y108.75 E5.65741
G1 X194.488 Y108.35 E5.66813
G1 X194.199 Y108.03 E5.67888
G1 X193.818 Y107.833 E5.68958
G1 X193.391 Y107.782 E5.70031
G1 X192.973 Y107.884 E5.71104
G0 F5400 X192.808 Y107.997
G0 X192.56 Y107.634
G0 X196.655 Y107.577
G0 X196.828 Y107.822
G1 F1143.2 X196.453 Y108.088 E5.72251
G1 X196.195 Y108.467 E5.73395
G1 X196.088 Y108.914 E5.74541
G1 X196.146 Y109.37 E5.75688
G1 X196.361 Y109.775 E5.76832
G1 X196.705 Y110.078 E5.77975
G1 X197.127 Y110.238 E5.79101
G1 X197.372 Y110.259 E5.79714
G1 X197.774 Y110.194 E5.8073
G1 X198.175 Y109.972 E5.81874
G1 X198.472 Y109.623 E5.83017
G1 X198.626 Y109.19 E5.84163
G1 X198.617 Y108.731 E5.85308
G1 X198.448 Y108.304 E5.86454
G1 X198.138 Y107.965 E5.876
G1 X197.729 Y107.758 E5.88743
G1 X197.273 Y107.708 E5.89888
G1 X196.828 Y107.822 E5.91033
G0 F5400 X196.665 Y107.937
G0 X196.657 Y107.453
;TYPE:WALL-INNER
G1 F1714.9 X196.163 Y107.803 E5.92544
G1 X195.823 Y108.303 E5.94052
G1 X195.682 Y108.892 E5.95563
G1 X195.758 Y109.493 E5.97074
G1 X196.042 Y110.027 E5.98583
G1 X196.495 Y110.426 E6.00089
G1 X197.037 Y110.632 E6.01535
G1 X197.387 Y110.662 E6.02411
G1 X197.907 Y110.578 E6.03725
G1 X198.432 Y110.287 E6.05222
G1 X198.824 Y109.826 E6.06732
G1 X199.027 Y109.255 E6.08244
G1 X199.016 Y108.651 E6.09751
G1 X198.793 Y108.088 E6.11261
G1 X198.384 Y107.641 E6.12773
G1 X197.845 Y107.368 E6.1428
G1 X197.244 Y107.302 E6.15788
G1 X196.657 Y107.453 E6.173
G0 F5400 X192.807 Y107.513
G1 F1714.9 X192.332 Y107.839 E6.18737
G1 X192.002 Y108.31 E6.20172
G1 X191.864 Y108.848 E6.21557
G1 X191.891 Y109.526 E6.2325
G1 X191.977 Y110.095 E6.24685
G1 X192.083 Y110.479 E6.25679
G1 X192.122 Y110.623 E6.26051
G1 X192.169 Y110.794 E6.26493
G1 X192.276 Y111.055 E6.27197
G1 X192.082 Y110.915 E6.27285
G1 X191.802 Y110.711 E6.27902
G1 X191.704 Y110.598 E6.28244
G1 X191.517 Y110.381 E6.28959
G1 X191.296 Y110.007 E6.30042
G1 X191.148 Y109.597 E6.3113
G1 X191.074 Y109.17 E6.32211
G1 X191.08 Y108.735 E6.33296
G1 X191.165 Y108.303 E6.34394
G1 X191.326 Y107.899 E6.35479
G1 X191.551 Y107.538 E6.3654
G1 X191.849 Y107.213 E6.3764
G1 X192.195 Y106.95 E6.38724
G1 X192.581 Y106.755 E6.39803
G1 X193.003 Y106.631 E6.409
G1 X193.437 Y106.587 E6.41988
G1 X193.881 Y106.62 E6.43099
G1 X194.435 Y106.744 E6.44515
G1 X195.096 Y106.82 E6.46175
G1 X195.783 Y106.796 E6.4789
G1 X196.433 Y106.676 E6.49538
G1 X196.951 Y106.546 E6.50871
G1 X197.397 Y106.512 E6.51986
G1 X197.836 Y106.555 E6.53087
G1 X198.263 Y106.679 E6.54196
G1 X198.657 Y106.875 E6.55294
G1 X199.017 Y107.143 E6.56413
G1 X199.317 Y107.466 E6.57513
G1 X199.554 Y107.837 E6.58611
G1 X199.724 Y108.249 E6.59723
G1 X199.818 Y108.684 E6.60833
G1 X199.833 Y109.125 E6.61934
G1 X199.767 Y109.57 E6.63056
G1 X199.629 Y109.977 E6.64128
G1 X199.411 Y110.371 E6.65251
G1 X199.128 Y110.717 E6.66366
G1 X198.789 Y111.004 E6.67474
G1 X198.41 Y111.224 E6.68567
G1 X197.989 Y111.375 E6.69683
G1 X197.557 Y111.449 E6.70776
G1 X197.109 Y111.443 E6.71894
G1 X196.673 Y111.358 E6.73002
G1 X196.267 Y111.199 E6.7409
G1 X195.884 Y110.963 E6.75212
G1 X195.559 Y110.671 E6.76302
G1 X195.281 Y110.313 E6.77433
G1 X195.078 Y109.925 E6.78525
G1 X194.954 Y109.523 E6.79574
G1 X195.052 Y109.246 E6.80307
G1 X195.044 Y108.672 E6.81739
G1 X194.834 Y108.136 E6.83175
G1 X194.447 Y107.708 E6.84615
G1 X193.937 Y107.444 E6.86047
G1 X193.367 Y107.376 E6.87479
G1 X192.807 Y107.513 E6.88917
G0 F5400 X192.471 Y107.258
G1 F1714.9 X192.413 Y107.298 E6.89093
G1 X192.25 Y107.41 E6.89586
G1 X192.407 Y107.291 E6.89592
G1 X192.471 Y107.258 E6.89596
G0 F5400 X192.9 Y107.078
G1 F1714.9 X193.082 Y107.025 E6.90069
G1 X193.143 Y107.019 E6.90222
G1 X193.085 Y107.033
G1 X192.9 Y107.078 E6.90228
G0 F5400 X193.592 Y107
G1 F1714.9 X193.826 Y107.017 E6.90813
G1 X193.925 Y107.039 E6.91066
G1 X193.825 Y107.028 E6.91069
G1 X193.592 Y107 E6.91075
G0 F5400 X194.103 Y107.08
G1 F1714.9 X194.368 Y107.139 E6.91753
G1 X194.718 Y107.179 E6.92631
G1 X195.08 Y107.221 E6.93541
G1 X195.827 Y107.195 E6.95405
G1 X196.484 Y107.074 E6.97072
G1 X196.518 Y107.067 E6.97158
G1 X197.014 Y106.942 E6.98434
G1 X197.043 Y106.94 E6.98507
G1 X197.016 Y106.947
G1 X196.521 Y107.075 E6.98529
G1 X196.486 Y107.084 E6.98533
G1 X195.995 Y107.431 E6.99066
G1 X195.873 Y107.518 E6.9944
G1 X195.467 Y108.116 E7.01243
G1 X195.451 Y108.139 E7.01313
G1 X195.38 Y108.434 E7.0207
G1 X195.29 Y108.203 E7.02172
G1 X195.18 Y107.922 E7.02786
G1 X194.787 Y107.487 E7.04199
G1 X194.695 Y107.386 E7.04394
G1 X194.337 Y107.201 E7.04793
G1 X194.121 Y107.09 E7.04832
G1 X194.103 Y107.08
G0 F5400 X191.928 Y107.719
G1 F1714.9 X191.881 Y107.787 E7.05038
G1 X191.76 Y107.959 E7.05563
G1 X191.871 Y107.781 E7.05569
G1 X191.928 Y107.719 E7.05574
G0 F5400 X191.582 Y108.338
G1 F1714.9 X191.56 Y108.423 E7.05793
G1 X191.51 Y108.617 E7.06293
G1 X191.549 Y108.421 E7.06297
G1 X191.582 Y108.338 E7.06303
G0 F5400 X192.873 Y107.663
G0 X197.255 Y107.466
G0 X199.203 Y108.037
G1 F1714.9 X199.341 Y108.371 E7.07204
G1 X199.348 Y108.401 E7.07281
G1 X199.337 Y108.373 E7.07282
G1 X199.203 Y108.037 E7.07285
G0 F5400 X197.798 Y107.525
G0 X195.348 Y107.859
;TYPE:SKIN
G1 F1143.2 X195.581 Y107.625 E7.08109
G0 F5400 X195.247 Y107.394
