;FLAVOR:Marlin
;TIME:10918
;Filament used: 9.15486m
;Layer height: 0.15
;MINX:46.044
;MINY:80.222
;MINZ:0.3
;MAXX:263.956
;MAXY:229.778
;MAXZ:7.95
;Generated with Cura_SteamEngine 4.8.0
M140 S60
M105
M190 S60
M104 S195
M105
M109 S195
M82 ;absolute extrusion mode
G28 ;Home
G1 Z15.0 F6000 ;Move the platform down 15mm
;Prime the extruder
G92 E0
G1 F200 E3
G92 E0
G92 E0
G92 E0
G1 F1800 E-10
;LAYER_COUNT:52
;LAYER:0
M107
M204 S500
M205 X5 Y5
;MESH:16f4d3d5-2496-4bf7-a82d-8c1981c28a21.stl
G0 F3600 X128.19 Y140.292 Z0.3
;TYPE:WALL-OUTER
G1 F1800 E0
G1 X194.189 Y140.292 E3.2927
G1 X261.091 Y207.196 E8.01307
G1 X261.728 Y207.899 E8.0604
G1 X262.306 Y208.677 E8.10875
G1 X262.804 Y209.512 E8.15726
G1 X263.214 Y210.379 E8.20511
G1 X263.532 Y211.266 E8.25212
G1 X263.767 Y212.208 E8.30055
G1 X263.909 Y213.176 E8.34937
G1 X263.956 Y214.12 E8.39652
G1 X263.956 Y227.977 E9.08785
G1 X263.928 Y228.294 E9.10373
G1 X263.845 Y228.597 E9.1194
G1 X263.71 Y228.882 E9.13513
G1 X263.527 Y229.142 E9.15099
G1 X263.31 Y229.359 E9.1663
G1 X263.052 Y229.538 E9.18197
G1 X262.764 Y229.67 E9.19778
G1 X262.464 Y229.749 E9.21325
G1 X262.132 Y229.778 E9.22988
G1 X261.157 Y229.778 E9.27852
G1 X260.841 Y229.749 E9.29436
G1 X260.534 Y229.665 E9.31023
G1 X260.254 Y229.533 E9.32568
G1 X259.996 Y229.352 E9.3414
G1 X259.771 Y229.126 E9.35731
G1 X259.596 Y228.874 E9.37262
G1 X259.464 Y228.586 E9.38842
G1 X259.386 Y228.291 E9.40365
G1 X259.356 Y227.815 E9.42744
G1 X259.355 Y219.954 E9.81963
G1 X259.304 Y218.946 E9.86998
G1 X259.148 Y217.925 E9.92151
G1 X258.883 Y216.906 E9.97404
G1 X258.53 Y215.955 E10.02465
G1 X258.075 Y215.028 E10.07617
G1 X257.517 Y214.135 E10.1287
G1 X256.896 Y213.334 E10.17927
G1 X256.184 Y212.585 E10.23083
G1 X255.384 Y211.901 E10.28334
G1 X254.552 Y211.321 E10.33394
G1 X253.648 Y210.82 E10.3855
G1 X252.698 Y210.412 E10.43708
G1 X251.695 Y210.099 E10.4895
G1 X250.701 Y209.895 E10.54013
G1 X249.673 Y209.791 E10.59168
G1 X248.64 Y209.791 E10.64321
G1 X247.612 Y209.895 E10.69476
G1 X246.582 Y210.108 E10.74723
G1 X245.613 Y210.412 E10.7979
G1 X244.664 Y210.82 E10.84944
G1 X243.761 Y211.321 E10.90096
G1 X242.898 Y211.924 E10.95348
G1 X242.129 Y212.585 E11.00407
G1 X241.417 Y213.334 E11.05563
G1 X240.775 Y214.167 E11.1081
G1 X240.238 Y215.028 E11.15872
G1 X239.783 Y215.955 E11.21024
G1 X239.419 Y216.942 E11.26273
G1 X239.165 Y217.925 E11.31338
G1 X239.009 Y218.946 E11.36491
G1 X238.956 Y219.973 E11.41621
G1 X238.956 Y227.977 E11.81554
G1 X238.928 Y228.294 E11.83141
G1 X238.845 Y228.597 E11.84709
G1 X238.71 Y228.882 E11.86282
G1 X238.527 Y229.142 E11.87868
G1 X238.31 Y229.359 E11.89399
G1 X238.052 Y229.538 E11.90966
G1 X237.764 Y229.67 E11.92546
G1 X237.464 Y229.749 E11.94094
G1 X237.132 Y229.778 E11.95757
G1 X236.157 Y229.778 E12.00621
G1 X235.841 Y229.749 E12.02204
G1 X235.534 Y229.665 E12.03792
G1 X235.254 Y229.533 E12.05337
G1 X234.996 Y229.352 E12.06909
G1 X234.771 Y229.126 E12.085
G1 X234.596 Y228.874 E12.10031
G1 X234.464 Y228.586 E12.11611
G1 X234.386 Y228.291 E12.13133
G1 X234.356 Y227.708 E12.16046
G1 X234.355 Y214.097 E12.83951
G1 X234.305 Y213.102 E12.88922
G1 X234.156 Y212.112 E12.93917
G1 X233.918 Y211.159 E12.98817
G1 X233.58 Y210.216 E13.03815
G1 X233.143 Y209.295 E13.08901
G1 X232.637 Y208.453 E13.13802
G1 X232.041 Y207.649 E13.18795
G1 X231.372 Y206.911 E13.23764
G1 X182.21 Y157.75 E16.70625
G1 X181.485 Y157.093 E16.75507
G1 X180.681 Y156.496 E16.80503
G1 X179.806 Y155.974 E16.85586
G1 X178.918 Y155.554 E16.90487
G1 X177.975 Y155.216 E16.95484
G1 X177.004 Y154.974 E17.00477
G1 X175.995 Y154.826 E17.05565
G1 X175.019 Y154.778 E17.1044
G1 X94.156 Y154.778 E21.13867
G1 X49.844 Y154.879 E23.34941
G1 X49.246 Y154.832 E23.37934
G1 X48.671 Y154.694 E23.40884
G1 X48.124 Y154.467 E23.43838
G1 X47.605 Y154.15 E23.46872
G1 X47.161 Y153.77 E23.49788
G1 X46.765 Y153.306 E23.52831
G1 X46.46 Y152.809 E23.55741
G1 X46.227 Y152.243 E23.58794
G1 X46.091 Y151.676 E23.61703
G1 X46.044 Y151.08 E23.64686
G1 X46.045 Y140.781 E24.16068
G1 X46.091 Y140.197 E24.18991
G1 X46.233 Y139.612 E24.21994
G1 X46.46 Y139.064 E24.24953
G1 X46.776 Y138.551 E24.27959
G1 X47.156 Y138.107 E24.30875
G1 X47.622 Y137.711 E24.33926
G1 X48.118 Y137.407 E24.36828
G1 X48.683 Y137.175 E24.39875
G1 X49.249 Y137.039 E24.42779
G1 X49.847 Y136.992 E24.45772
G1 X56.044 Y136.992 E24.76689
G1 X56.044 Y134.701 E24.88119
G1 X56.044 Y134.7 E24.88124
G1 X56.044 Y134.492 E24.89162
G1 X56.252 Y134.5 E24.89827
G1 X56.253 Y134.501 E24.89834
G1 X56.659 Y134.52 E24.91862
G1 X56.965 Y134.605 E24.93446
G1 X57.246 Y134.737 E24.94995
G1 X57.508 Y134.921 E24.96592
G1 X57.725 Y135.138 E24.98123
G1 X57.904 Y135.396 E24.9969
G1 X58.036 Y135.684 E25.01271
G1 X58.115 Y135.985 E25.02823
G1 X58.144 Y136.357 E25.04685
G1 X58.143 Y139.795 E25.21837
G1 X58.099 Y140.286 E25.24296
G1 X57.975 Y140.749 E25.26688
G1 X57.764 Y141.198 E25.29163
G1 X57.485 Y141.595 E25.31584
G1 X57.145 Y141.935 E25.33982
G1 X56.736 Y142.219 E25.36467
G1 X56.3 Y142.423 E25.38868
G1 X55.822 Y142.549 E25.41334
G1 X55.337 Y142.592 E25.43764
G1 X53.144 Y142.592 E25.54704
G1 X53.144 Y149.613 E25.89732
G1 X53.214 Y150.007 E25.91729
G1 X53.425 Y150.368 E25.93815
G1 X53.746 Y150.635 E25.95898
G1 X54.133 Y150.775 E25.97951
G1 X54.481 Y150.792 E25.99689
G1 X61.947 Y150.792 E26.36937
G1 X62.275 Y150.742 E26.38593
G1 X62.579 Y150.6 E26.40267
G1 X62.92 Y150.367 E26.42327
G1 X63.266 Y150.292 E26.44093
G1 X93.294 Y150.292 E27.93904
G1 X93.295 Y143.089 E28.2984
G1 X93.338 Y142.598 E28.32299
G1 X93.463 Y142.135 E28.34691
G1 X93.674 Y141.686 E28.37166
G1 X93.951 Y141.292 E28.39569
G1 X94.295 Y140.947 E28.42
G1 X94.702 Y140.665 E28.4447
G1 X95.138 Y140.461 E28.46872
G1 X95.616 Y140.335 E28.49338
G1 X96.101 Y140.292 E28.51767
G1 X98.567 Y140.291 E28.6407
G1 X98.587 Y140.214 E28.64467
G1 X99.43 Y140.171 E28.68678
G1 X100.42 Y140.022 E28.73673
G1 X101.373 Y139.784 E28.78573
G1 X102.316 Y139.446 E28.83571
G1 X103.237 Y139.009 E28.88657
G1 X104.079 Y138.503 E28.93558
G1 X104.883 Y137.907 E28.98551
G1 X105.637 Y137.221 E29.03637
G1 X106.297 Y136.493 E29.08539
G1 X106.894 Y135.689 E29.13535
G1 X107.416 Y134.814 E29.18618
G1 X107.836 Y133.926 E29.23519
G1 X108.173 Y132.983 E29.28515
G1 X108.416 Y132.012 E29.33509
G1 X108.564 Y131.003 E29.38597
G1 X108.612 Y130.027 E29.43472
G1 X108.612 Y82.028 E31.8294
G1 X108.647 Y81.668 E31.84744
G1 X108.71 Y81.463 E31.85814
G1 X108.876 Y81.462 E31.86643
G1 X113.412 Y81.476 E32.09273
G1 X118.113 Y81.462 E32.32726
G1 X118.177 Y81.672 E32.33822
G1 X118.212 Y82.031 E32.35621
G1 X118.212 Y130.031 E34.75094
G1 X118.365 Y131.792 E34.83913
G1 X118.824 Y133.507 E34.9277
G1 X119.574 Y135.116 E35.01627
G1 X120.591 Y136.572 E35.10487
G1 X121.846 Y137.829 E35.19349
G1 X123.299 Y138.849 E35.28206
G1 X124.907 Y139.602 E35.37064
G1 X126.622 Y140.065 E35.45927
G1 X128.19 Y140.206 E35.53781
G1 X128.19 Y140.292 E35.5421
G0 F3600 X128.39 Y140.292
G0 X128.39 Y140.732
G0 X127.79 Y140.571
;TYPE:WALL-INNER
G1 F1800 X127.79 Y140.692 E35.54814
G1 X194.023 Y140.692 E38.85252
G1 X260.808 Y207.479 E43.56463
G1 X261.417 Y208.151 E43.60988
G1 X261.971 Y208.897 E43.65623
G1 X262.436 Y209.677 E43.70154
G1 X262.451 Y209.701 E43.70295
G1 X262.843 Y210.532 E43.74879
G1 X262.852 Y210.558 E43.75016
G1 X263.141 Y211.363 E43.79284
G1 X263.15 Y211.387 E43.79411
G1 X263.153 Y211.402 E43.79488
G1 X263.373 Y212.283 E43.84018
G1 X263.51 Y213.212 E43.88703
G1 X263.556 Y214.14 E43.93338
G1 X263.556 Y227.965 E44.62312
G1 X263.467 Y228.462 E44.64831
G1 X263.221 Y228.882 E44.67259
G1 X262.854 Y229.188 E44.69643
G1 X262.391 Y229.354 E44.72097
G1 X262.337 Y229.358 E44.72367
G1 X262.145 Y229.375 E44.73329
G1 X262.12 Y229.378 E44.73454
G1 X261.172 Y229.378 E44.78184
G1 X260.674 Y229.288 E44.80709
G1 X260.253 Y229.044 E44.83136
G1 X259.946 Y228.676 E44.85527
G1 X259.782 Y228.224 E44.87926
G1 X259.779 Y228.167 E44.88211
G1 X259.758 Y227.823 E44.8993
G1 X259.756 Y227.806 E44.90016
G1 X259.755 Y219.944 E45.29239
G1 X259.702 Y218.906 E45.34425
G1 X259.54 Y217.844 E45.39784
G1 X259.265 Y216.786 E45.45238
G1 X258.898 Y215.797 E45.50501
G1 X258.425 Y214.833 E45.55858
G1 X257.846 Y213.906 E45.61311
G1 X257.2 Y213.073 E45.6657
G1 X256.46 Y212.294 E45.71931
G1 X255.629 Y211.584 E45.77384
G1 X254.764 Y210.981 E45.82644
G1 X253.824 Y210.46 E45.88006
G1 X252.837 Y210.036 E45.93365
G1 X251.795 Y209.711 E45.98811
G1 X250.761 Y209.499 E46.04077
G1 X249.693 Y209.391 E46.09432
G1 X248.62 Y209.391 E46.14785
G1 X247.551 Y209.499 E46.20146
G1 X246.481 Y209.72 E46.25597
G1 X245.474 Y210.036 E46.30862
G1 X244.488 Y210.46 E46.36217
G1 X243.549 Y210.981 E46.41575
G1 X242.652 Y211.608 E46.47035
G1 X241.853 Y212.295 E46.52292
G1 X241.113 Y213.073 E46.57649
G1 X240.446 Y213.939 E46.63102
G1 X239.888 Y214.834 E46.68364
G1 X239.415 Y215.797 E46.73717
G1 X239.037 Y216.822 E46.79167
G1 X238.773 Y217.845 E46.84438
G1 X238.611 Y218.905 E46.89788
G1 X238.556 Y219.963 E46.95073
G1 X238.556 Y227.965 E47.34995
G1 X238.467 Y228.462 E47.37514
G1 X238.221 Y228.882 E47.39943
G1 X237.854 Y229.188 E47.42327
G1 X237.391 Y229.354 E47.44781
G1 X237.337 Y229.358 E47.45051
G1 X237.145 Y229.375 E47.46012
G1 X237.12 Y229.378 E47.46138
G1 X236.172 Y229.378 E47.50868
G1 X235.674 Y229.288 E47.53392
G1 X235.253 Y229.044 E47.5582
G1 X234.946 Y228.676 E47.58211
G1 X234.783 Y228.226 E47.60599
G1 X234.758 Y227.729 E47.63081
G1 X234.756 Y227.708 E47.63187
G1 X234.755 Y214.087 E48.31142
G1 X234.703 Y213.062 E48.36262
G1 X234.549 Y212.034 E48.41448
G1 X234.301 Y211.043 E48.46545
G1 X233.95 Y210.062 E48.51743
G1 X233.496 Y209.106 E48.57023
G1 X232.97 Y208.23 E48.62121
G1 X232.351 Y207.395 E48.67306
G1 X231.662 Y206.635 E48.72424
G1 X182.486 Y157.46 E52.19384
G1 X181.739 Y156.783 E52.24414
G1 X180.903 Y156.163 E52.29606
G1 X179.994 Y155.621 E52.34886
G1 X179.071 Y155.184 E52.39981
G1 X178.091 Y154.833 E52.45174
G1 X177.082 Y154.581 E52.50363
G1 X176.034 Y154.427 E52.55648
G1 X175.029 Y154.378 E52.60668
G1 X94.156 Y154.378 E56.64145
G1 X49.862 Y154.479 E58.85129
G1 X49.307 Y154.435 E58.87906
G1 X48.792 Y154.312 E58.90548
G1 X48.309 Y154.111 E58.93158
G1 X47.841 Y153.826 E58.95892
G1 X47.445 Y153.486 E58.98496
G1 X47.089 Y153.07 E59.01227
G1 X46.818 Y152.627 E59.03818
G1 X46.609 Y152.119 E59.06559
G1 X46.488 Y151.615 E59.09145
G1 X46.444 Y151.062 E59.11912
G1 X46.445 Y140.799 E59.63115
G1 X46.487 Y140.26 E59.65812
G1 X46.614 Y139.738 E59.68492
G1 X46.817 Y139.247 E59.71143
G1 X47.102 Y138.785 E59.73851
G1 X47.439 Y138.392 E59.76434
G1 X47.858 Y138.035 E59.7918
G1 X48.299 Y137.765 E59.8176
G1 X48.807 Y137.557 E59.84499
G1 X49.31 Y137.436 E59.8708
G1 X49.865 Y137.392 E59.89857
G1 X56.444 Y137.392 E60.2268
G1 X56.444 Y134.996 E60.34634
G1 X56.444 Y134.98 E60.34714
G1 X56.444 Y134.911 E60.35058
G1 X56.824 Y134.98 E60.36456
G1 X56.837 Y134.988 E60.36531
G1 X57.248 Y135.227 E60.38903
G1 X57.293 Y135.282 E60.39257
G1 X57.554 Y135.594 E60.41287
G1 X57.577 Y135.66 E60.41636
G1 X57.719 Y136.052 E60.43716
G1 X57.744 Y136.375 E60.45332
G1 X57.743 Y139.781 E60.62325
G1 X57.704 Y140.217 E60.64508
G1 X57.599 Y140.609 E60.66533
G1 X57.416 Y140.997 E60.68673
G1 X57.179 Y141.335 E60.70733
G1 X56.888 Y141.626 E60.72786
G1 X56.855 Y141.648 E60.72984
G1 X56.534 Y141.872 E60.74937
G1 X56.165 Y142.045 E60.7697
G1 X55.749 Y142.154 E60.79115
G1 X55.325 Y142.192 E60.81239
G1 X52.744 Y142.192 E60.94116
G1 X52.744 Y149.648 E61.31314
G1 X52.833 Y150.147 E61.33843
G1 X53.115 Y150.631 E61.36638
G1 X53.544 Y150.987 E61.39419
G1 X54.053 Y151.172 E61.42121
G1 X54.471 Y151.192 E61.44209
G1 X61.977 Y151.192 E61.81656
G1 X62.392 Y151.129 E61.8375
G1 X62.778 Y150.949 E61.85875
G1 X63.081 Y150.742 E61.87706
G1 X63.309 Y150.692 E61.8887
G1 X93.694 Y150.692 E63.40462
G1 X93.695 Y143.101 E63.78333
G1 X93.733 Y142.669 E63.80497
G1 X93.84 Y142.274 E63.82539
G1 X94.022 Y141.887 E63.84672
G1 X94.259 Y141.549 E63.86732
G1 X94.52 Y141.288 E63.88573
G1 X94.549 Y141.258 E63.88781
G1 X94.904 Y141.012 E63.90936
G1 X95.273 Y140.839 E63.92969
G1 X95.689 Y140.73 E63.95115
G1 X96.113 Y140.692 E63.97239
G1 X98.876 Y140.691 E64.11023
G1 X98.9 Y140.598 E64.11503
G1 X99.193 Y140.584 E64.12966
G1 X99.47 Y140.569 E64.1435
G1 X100.498 Y140.415 E64.19536
G1 X101.489 Y140.167 E64.24633
G1 X102.47 Y139.816 E64.29831
G1 X103.426 Y139.362 E64.35111
G1 X104.302 Y138.836 E64.40208
G1 X105.137 Y138.216 E64.45397
G1 X105.92 Y137.504 E64.50677
G1 X106.606 Y136.747 E64.55774
G1 X107.227 Y135.911 E64.60969
G1 X107.769 Y135.002 E64.66249
G1 X108.206 Y134.079 E64.71344
G1 X108.556 Y133.099 E64.76536
G1 X108.809 Y132.09 E64.81726
G1 X108.963 Y131.042 E64.8701
G1 X109.012 Y130.037 E64.9203
G1 X109.012 Y82.153 E67.30925
G1 X109.012 Y82.046 E67.31458
G1 X109.03 Y81.862 E67.32381
G1 X109.137 Y81.862 E67.32915
G1 X113.412 Y81.876 E67.54243
G1 X117.688 Y81.863 E67.75576
G1 X117.794 Y81.863 E67.76105
G1 X117.812 Y82.049 E67.77037
G1 X117.812 Y82.155 E67.77566
G1 X117.812 Y130.048 E70.16505
G1 X117.97 Y131.862 E70.25589
G1 X118.447 Y133.644 E70.34793
G1 X119.226 Y135.317 E70.44
G1 X120.283 Y136.83 E70.53208
G1 X121.588 Y138.136 E70.62419
G1 X123.098 Y139.196 E70.71623
G1 X124.769 Y139.979 E70.8083
G1 X126.551 Y140.46 E70.90038
G1 X127.79 Y140.571 E70.96244
G0 F3600 X127.39 Y140.936
G1 F1800 X127.39 Y141.092 E70.97023
G1 X193.857 Y141.092 E74.28628
G1 X260.525 Y207.762 E78.99014
G1 X261.11 Y208.408 E79.03362
G1 X261.638 Y209.119 E79.0778
G1 X262.094 Y209.882 E79.12215
G1 X262.477 Y210.693 E79.16689
G1 X262.766 Y211.499 E79.20961
G1 X262.979 Y212.358 E79.25376
G1 X263.111 Y213.248 E79.29865
G1 X263.156 Y214.16 E79.34421
G1 X263.156 Y227.928 E80.0311
G1 X263.085 Y228.323 E80.05112
G1 X262.911 Y228.62 E80.06829
G1 X262.654 Y228.834 E80.08498
G1 X262.301 Y228.961 E80.10369
G1 X262.108 Y228.978 E80.11336
G1 X261.21 Y228.978 E80.15816
G1 X260.814 Y228.906 E80.17824
G1 X260.514 Y228.733 E80.19552
G1 X260.298 Y228.474 E80.21234
G1 X260.177 Y228.142 E80.22997
G1 X260.156 Y227.797 E80.24722
G1 X260.155 Y219.934 E80.6395
G1 X260.1 Y218.866 E80.69286
G1 X259.932 Y217.763 E80.74852
G1 X259.647 Y216.666 E80.80507
G1 X259.266 Y215.639 E80.85972
G1 X258.775 Y214.638 E80.91534
G1 X258.175 Y213.677 E80.97186
G1 X257.504 Y212.812 E81.02648
G1 X256.736 Y212.003 E81.08213
G1 X255.874 Y211.267 E81.13868
G1 X254.976 Y210.641 E81.19329
G1 X254 Y210.1 E81.24897
G1 X252.976 Y209.66 E81.30457
G1 X251.895 Y209.323 E81.36106
G1 X250.821 Y209.103 E81.41576
G1 X249.713 Y208.991 E81.47132
G1 X248.6 Y208.991 E81.52684
G1 X247.49 Y209.103 E81.5825
G1 X246.38 Y209.332 E81.63905
G1 X245.335 Y209.66 E81.69369
G1 X244.312 Y210.1 E81.74925
G1 X243.337 Y210.641 E81.80488
G1 X242.406 Y211.292 E81.86155
G1 X241.577 Y212.005 E81.91611
G1 X240.809 Y212.812 E81.97169
G1 X240.117 Y213.711 E82.02829
G1 X239.538 Y214.64 E82.0829
G1 X239.047 Y215.639 E82.13843
G1 X238.663 Y216.683 E82.19393
G1 X238.655 Y216.703 E82.19501
G1 X238.651 Y216.722 E82.19597
G1 X238.387 Y217.744 E82.24864
G1 X238.381 Y217.765 E82.24973
G1 X238.379 Y217.784 E82.25068
G1 X238.217 Y218.844 E82.30418
G1 X238.213 Y218.864 E82.30519
G1 X238.156 Y219.953 E82.3596
G1 X238.156 Y227.928 E82.75747
G1 X238.085 Y228.323 E82.7775
G1 X237.911 Y228.62 E82.79467
G1 X237.654 Y228.834 E82.81135
G1 X237.301 Y228.961 E82.83007
G1 X237.108 Y228.978 E82.83974
G1 X236.21 Y228.978 E82.88454
G1 X235.814 Y228.906 E82.90462
G1 X235.514 Y228.733 E82.92189
G1 X235.298 Y228.474 E82.93872
G1 X235.179 Y228.145 E82.95617
G1 X235.156 Y227.708 E82.97801
G1 X235.155 Y214.077 E83.65806
G1 X235.101 Y213.022 E83.71076
G1 X234.942 Y211.956 E83.76453
G1 X234.684 Y210.927 E83.81746
