;FLAVOR:Marlin
;TIME:4742
;Filament used: 3.46463m
;Layer height: 0.15
;MINX:91.708
;MINY:140.202
;MINZ:0.3
;MAXX:218.292
;MAXY:169.798
;MAXZ:6.9
;Generated with Cura_SteamEngine 4.8.0
M140 S70
M105
M190 S70
M104 S210
M105
M109 S210
M82 ;absolute extrusion mode
G28 ;Home
G1 Z15.0 F6000 ;Move the platform down 15mm
;Prime the extruder
G92 E0
G1 F200 E3
G92 E0
G92 E0
G92 E0
G1 F1500 E-6
;LAYER_COUNT:45
;LAYER:0
M107
M204 S500
M205 X5 Y5
;MESH:The_Ultimate_Spool_Holder_v2.stl
G0 F3600 X140 Y159.297 Z0.3
;TYPE:WALL-OUTER
G1 F1500 E0
G1 F1800 X133.809 Y160.435 E0.31404
G1 X127.701 Y161.959 E0.62812
G1 X121.703 Y163.863 E0.94207
G1 X115.834 Y166.141 E1.25616
G1 X110.126 Y168.78 E1.5699
G1 X109.452 Y169.034 E1.60583
G1 X108.315 Y169.38 E1.66513
G1 X107.142 Y169.626 E1.72492
G1 X105.953 Y169.765 E1.78464
G1 X104.767 Y169.798 E1.84384
G1 X103.57 Y169.721 E1.90368
G1 X102.388 Y169.54 E1.96334
G1 X101.234 Y169.254 E2.02265
G1 X100.103 Y168.864 E2.08234
G1 X99.018 Y168.377 E2.14167
G1 X97.978 Y167.794 E2.20115
G1 X96.989 Y167.114 E2.26103
G1 X96.076 Y166.359 E2.32014
G1 X95.225 Y165.515 E2.37993
G1 X94.458 Y164.604 E2.43935
G1 X93.768 Y163.617 E2.49943
G1 X93.18 Y162.591 E2.55843
G1 X92.678 Y161.497 E2.61848
G1 X92.285 Y160.388 E2.67718
G1 X91.983 Y159.215 E2.73761
G1 X91.793 Y158.045 E2.79674
G1 X91.708 Y156.861 E2.85597
G1 X91.716 Y141.589 E3.61789
G1 X91.744 Y141.241 E3.63531
G1 X91.858 Y140.923 E3.65216
G1 X92.055 Y140.64 E3.66936
G1 X92.315 Y140.421 E3.68632
G1 X92.621 Y140.278 E3.70317
G1 X92.959 Y140.215 E3.72033
G1 X216.95 Y140.202 E9.90626
G1 X217.304 Y140.234 E9.924
G1 X217.624 Y140.349 E9.94096
G1 X217.896 Y140.537 E9.95746
G1 X218.115 Y140.794 E9.9743
G1 X218.259 Y141.098 E9.99109
G1 X218.292 Y141.348 E10.00367
G1 X218.292 Y156.496 E10.7594
G1 X218.277 Y157.335 E10.80127
G1 X218.147 Y158.528 E10.86114
G1 X217.916 Y159.685 E10.92
G1 X217.575 Y160.84 E10.98008
G1 X217.137 Y161.946 E11.03943
G1 X216.598 Y163.013 E11.09907
G1 X215.966 Y164.03 E11.15881
G1 X215.247 Y164.982 E11.21833
G1 X214.454 Y165.857 E11.27724
G1 X213.572 Y166.672 E11.33715
G1 X212.621 Y167.402 E11.39697
G1 X211.62 Y168.036 E11.45608
G1 X210.548 Y168.589 E11.51626
G1 X209.45 Y169.035 E11.57539
G1 X208.315 Y169.38 E11.63457
G1 X207.142 Y169.626 E11.69436
G1 X205.953 Y169.765 E11.75409
G1 X204.767 Y169.798 E11.81328
G1 X203.57 Y169.721 E11.87312
G1 X202.388 Y169.54 E11.93278
G1 X201.234 Y169.254 E11.99209
G1 X200.103 Y168.864 E12.05178
G1 X199.012 Y168.374 E12.11145
G1 X195.42 Y166.681 E12.30956
G1 X189.584 Y164.324 E12.62357
G1 X183.61 Y162.338 E12.93765
G1 X177.524 Y160.732 E13.25168
G1 X171.349 Y159.511 E13.56572
G1 X165.109 Y158.679 E13.87979
G1 X158.83 Y158.241 E14.19381
G1 X152.535 Y158.198 E14.50787
G1 X146.251 Y158.551 E14.82188
G1 X140 Y159.297 E15.13595
G0 F3600 X139.804 Y159.333
G0 X139.726 Y158.901
G0 X139.94 Y158.901
;TYPE:WALL-INNER
G1 F1800 X133.724 Y160.044 E15.45127
G1 X127.592 Y161.574 E15.76658
G1 X121.57 Y163.486 E16.0818
G1 X115.678 Y165.773 E16.39712
G1 X109.968 Y168.413 E16.71096
G1 X109.349 Y168.645 E16.74394
G1 X109.33 Y168.653 E16.74497
G1 X108.208 Y168.994 E16.80348
G1 X107.099 Y169.226 E16.86
G1 X107.079 Y169.231 E16.86103
G1 X107.063 Y169.232 E16.86183
G1 X105.93 Y169.365 E16.91874
G1 X104.771 Y169.398 E16.97659
G1 X103.611 Y169.323 E17.03458
G1 X102.467 Y169.148 E17.09232
G1 X101.348 Y168.87 E17.14985
G1 X100.255 Y168.493 E17.20753
G1 X99.199 Y168.02 E17.26526
G1 X98.192 Y167.455 E17.32286
G1 X97.224 Y166.79 E17.38146
G1 X96.348 Y166.065 E17.43819
G1 X95.52 Y165.244 E17.49636
G1 X94.774 Y164.358 E17.55414
G1 X94.106 Y163.402 E17.61233
G1 X93.539 Y162.412 E17.66925
G1 X93.048 Y161.342 E17.72798
G1 X92.667 Y160.267 E17.78488
G1 X92.376 Y159.138 E17.84305
G1 X92.191 Y157.997 E17.90072
G1 X92.108 Y156.846 E17.95829
G1 X92.116 Y141.609 E18.71847
G1 X92.139 Y141.327 E18.73258
G1 X92.218 Y141.107 E18.74425
G1 X92.353 Y140.913 E18.75604
G1 X92.535 Y140.759 E18.76793
G1 X92.743 Y140.662 E18.77938
G1 X92.994 Y140.615 E18.79212
G1 X216.936 Y140.602 E24.97561
G1 X217.218 Y140.627 E24.98974
G1 X217.439 Y140.707 E25.00146
G1 X217.627 Y140.837 E25.01287
G1 X217.777 Y141.013 E25.0244
G1 X217.87 Y141.21 E25.03527
G1 X217.892 Y141.376 E25.04363
G1 X217.892 Y156.489 E25.79762
G1 X217.877 Y157.307 E25.83843
G1 X217.75 Y158.474 E25.897
G1 X217.529 Y159.583 E25.95342
G1 X217.195 Y160.712 E26.01215
G1 X216.771 Y161.784 E26.06967
G1 X216.251 Y162.814 E26.12723
G1 X215.634 Y163.807 E26.18556
G1 X214.94 Y164.725 E26.24297
G1 X214.169 Y165.576 E26.30026
G1 X213.316 Y166.365 E26.35823
G1 X212.392 Y167.074 E26.41634
G1 X211.415 Y167.693 E26.47404
G1 X210.392 Y168.22 E26.53145
G1 X209.312 Y168.659 E26.58961
G1 X208.208 Y168.994 E26.64717
G1 X207.099 Y169.226 E26.7037
G1 X207.079 Y169.231 E26.70473
G1 X207.063 Y169.232 E26.70553
G1 X205.93 Y169.365 E26.76244
G1 X204.771 Y169.398 E26.82029
G1 X203.611 Y169.323 E26.87828
G1 X202.467 Y169.148 E26.93602
G1 X201.348 Y168.87 E26.99354
G1 X200.255 Y168.494 E27.05121
G1 X199.183 Y168.012 E27.10985
G1 X195.58 Y166.314 E27.30857
G1 X189.722 Y163.948 E27.62376
G1 X183.724 Y161.954 E27.9391
G1 X177.614 Y160.342 E28.25436
G1 X171.414 Y159.116 E28.56967
G1 X165.149 Y158.281 E28.885
G1 X158.845 Y157.841 E29.20027
G1 X152.525 Y157.798 E29.51558
G1 X146.216 Y158.152 E29.83084
G1 X139.94 Y158.901 E30.14617
G0 F3600 X139.88 Y158.505
G1 F1800 X133.639 Y159.653 E30.46276
G1 X127.483 Y161.189 E30.7793
G1 X121.437 Y163.109 E31.09578
G1 X115.522 Y165.405 E31.41233
G1 X109.81 Y168.045 E31.72627
G1 X109.208 Y168.272 E31.75837
G1 X108.101 Y168.608 E31.81608
G1 X107.016 Y168.836 E31.8714
G1 X105.907 Y168.965 E31.9271
G1 X104.775 Y168.998 E31.9836
G1 X103.651 Y168.925 E32.03979
G1 X102.547 Y168.756 E32.09551
G1 X101.462 Y168.486 E32.1513
G1 X100.407 Y168.122 E32.20697
G1 X99.38 Y167.663 E32.2631
G1 X98.401 Y167.113 E32.31912
G1 X97.464 Y166.47 E32.37581
G1 X96.62 Y165.771 E32.43049
G1 X95.815 Y164.973 E32.48704
G1 X95.09 Y164.112 E32.54319
G1 X94.444 Y163.187 E32.59948
G1 X93.898 Y162.233 E32.65432
G1 X93.418 Y161.187 E32.71174
G1 X93.049 Y160.146 E32.76684
G1 X92.769 Y159.061 E32.82274
G1 X92.589 Y157.949 E32.87894
G1 X92.508 Y156.831 E32.93487
G1 X92.516 Y141.63 E33.69325
G1 X92.576 Y141.292 E33.71038
G1 X92.75 Y141.101 E33.72327
G1 X93.031 Y141.015 E33.73793
G1 X216.924 Y141.002 E39.91897
G1 X217.251 Y141.064 E39.93558
G1 X217.436 Y141.229 E39.94795
G1 X217.492 Y141.406 E39.95721
G1 X217.492 Y156.482 E40.70935
G1 X217.477 Y157.279 E40.74912
G1 X217.353 Y158.42 E40.80638
G1 X217.142 Y159.481 E40.86035
G1 X216.815 Y160.584 E40.91775
G1 X216.405 Y161.622 E40.97343
G1 X215.904 Y162.615 E41.02892
G1 X215.302 Y163.584 E41.08583
G1 X214.633 Y164.468 E41.14114
G1 X213.889 Y165.29 E41.19645
G1 X213.054 Y166.062 E41.25319
G1 X212.163 Y166.746 E41.30923
G1 X211.218 Y167.344 E41.36502
G1 X210.227 Y167.855 E41.42065
G1 X209.174 Y168.283 E41.47736
G1 X208.101 Y168.608 E41.53329
G1 X207.016 Y168.836 E41.5886
G1 X205.907 Y168.965 E41.6443
G1 X204.775 Y168.998 E41.7008
G1 X203.651 Y168.925 E41.757
G1 X202.547 Y168.756 E41.81272
G1 X201.462 Y168.486 E41.8685
G1 X200.407 Y168.123 E41.92416
G1 X199.354 Y167.65 E41.98175
G1 X195.74 Y165.947 E42.18107
G1 X189.86 Y163.572 E42.49745
G1 X183.838 Y161.57 E42.81406
G1 X177.704 Y159.952 E43.13055
G1 X171.479 Y158.721 E43.44713
G1 X165.189 Y157.883 E43.76372
G1 X165.177 Y157.883 E43.76432
G1 X158.86 Y157.441 E44.08024
G1 X152.515 Y157.398 E44.3968
G1 X146.181 Y157.753 E44.7133
G1 X139.88 Y158.505 E45.02989
G0 F3600 X139.822 Y158.119
;TYPE:SKIN
G1 F1800 X133.557 Y159.271 E45.34769
G1 X127.376 Y160.813 E45.66552
G1 X121.307 Y162.741 E45.98321
G1 X115.37 Y165.046 E46.30095
G1 X109.66 Y167.684 E46.61476
G1 X109.076 Y167.905 E46.64591
G1 X108.01 Y168.228 E46.70148
G1 X106.957 Y168.45 E46.75517
G1 X105.874 Y168.575 E46.80956
G1 X104.788 Y168.608 E46.86376
G1 X103.69 Y168.535 E46.91866
G1 X102.613 Y168.371 E46.97302
G1 X101.581 Y168.114 E47.02607
G1 X100.55 Y167.758 E47.08049
G1 X99.555 Y167.314 E47.13485
G1 X98.612 Y166.785 E47.18879
G1 X97.695 Y166.155 E47.2443
G1 X96.886 Y165.486 E47.29667
G1 X96.096 Y164.702 E47.3522
G1 X95.406 Y163.883 E47.40563
G1 X94.769 Y162.97 E47.46117
G1 X94.246 Y162.056 E47.51371
G1 X93.782 Y161.045 E47.5692
G1 X93.421 Y160.027 E47.62309
G1 X93.15 Y158.977 E47.67719
G1 X92.977 Y157.904 E47.73142
G1 X92.898 Y156.817 E47.78579
G1 X92.906 Y141.664 E48.54178
G1 X92.966 Y141.443 E48.5532
G1 X93.091 Y141.405 E48.55972
G1 X216.888 Y141.392 E54.73598
G1 X217.096 Y141.448 E54.74672
G1 X217.102 Y141.468 E54.74777
G1 X217.102 Y156.474 E55.49642
G1 X217.087 Y157.251 E55.53519
G1 X216.965 Y158.371 E55.5914
G1 X216.766 Y159.376 E55.64251
G1 X216.447 Y160.454 E55.6986
G1 X216.053 Y161.452 E55.75213
G1 X215.559 Y162.431 E55.80684
G1 X214.982 Y163.36 E55.8614
G1 X214.33 Y164.222 E55.91532
G1 X213.612 Y165.015 E55.96869
G1 X212.81 Y165.757 E56.0232
G1 X211.937 Y166.426 E56.07807
G1 X211.022 Y167.006 E56.13212
G1 X210.057 Y167.504 E56.18629
G1 X209.043 Y167.916 E56.2409
G1 X208.012 Y168.228 E56.29464
G1 X206.957 Y168.45 E56.34843
G1 X205.874 Y168.575 E56.40282
G1 X204.788 Y168.608 E56.45702
G1 X203.69 Y168.535 E56.51192
G1 X202.613 Y168.371 E56.56627
G1 X201.581 Y168.114 E56.61933
G1 X200.54 Y167.756 E56.67425
G1 X199.52 Y167.297 E56.73006
G1 X195.896 Y165.59 E56.92991
G1 X189.995 Y163.206 E57.24743
G1 X183.949 Y161.196 E57.5653
G1 X177.792 Y159.572 E57.88298
G1 X171.543 Y158.336 E58.20078
G1 X165.228 Y157.495 E58.51862
G1 X158.875 Y157.051 E58.83635
G1 X152.505 Y157.008 E59.15416
G1 X146.147 Y157.365 E59.47186
G1 X139.822 Y158.119 E59.78965
G0 F3600 X98.804 Y166.686
G1 F1800 X94.828 Y162.71 E60.07018
G1 X94.758 Y162.64
G0 F3600 X94.192 Y161.508
G1 F1800 X99.995 Y167.312 E60.47964
G1 X100.065 Y167.382
G0 F3600 X100.955 Y167.706
G1 F1800 X93.795 Y160.546 E60.98482
G1 X93.725 Y160.476
G0 F3600 X93.525 Y159.71
G1 F1800 X101.795 Y167.98 E61.56831
G0 F3600 X102.549 Y168.169
G1 F1800 X93.328 Y158.947 E62.21894
G0 F3600 X93.217 Y158.271
G1 F1800 X103.227 Y168.281 E62.9252
G0 F3600 X103.877 Y168.365
G1 F1800 X93.136 Y157.624 E63.68304
G0 F3600 X93.092 Y157.015
G1 F1800 X104.483 Y168.405 E64.4867
G0 F3600 X105.061 Y168.418
G1 F1800 X93.078 Y156.435 E65.33216
G0 F3600 X93.078 Y155.869
G1 F1800 X105.61 Y168.401 E66.21636
G0 F3600 X106.136 Y168.362
G1 F1800 X93.078 Y155.303 E67.13771
G0 F3600 X93.079 Y154.739
G1 F1800 X106.644 Y168.304 E68.09479
G0 F3600 X107.133 Y168.227
G1 F1800 X93.079 Y154.173 E69.08638
G0 F3600 X93.08 Y153.608
G1 F1800 X107.6 Y168.128 E70.11084
G0 F3600 X108.06 Y168.023
G1 F1800 X93.08 Y153.042 E71.1678
G0 F3600 X93.08 Y152.476
G1 F1800 X108.495 Y167.892 E72.25545
G0 F3600 X108.929 Y167.761
G1 F1800 X93.08 Y151.911 E73.37371
G0 F3600 X93.08 Y151.346
G1 F1800 X109.344 Y167.609 E74.52119
G0 F3600 X109.745 Y167.445
G1 F1800 X93.08 Y150.78 E75.697
G0 F3600 X93.081 Y150.215
G1 F1800 X110.131 Y167.266 E76.9
G0 F3600 X110.518 Y167.087
G1 F1800 X93.081 Y149.649 E78.13031
G0 F3600 X93.082 Y149.084
G1 F1800 X110.905 Y166.908 E79.38786
G0 F3600 X111.292 Y166.73
G1 F1800 X93.082 Y148.519 E80.67271
G0 F3600 X93.082 Y147.953
G1 F1800 X111.679 Y166.551 E81.98486
G0 F3600 X112.066 Y166.372
G1 F1800 X93.082 Y147.388 E83.32428
G0 F3600 X93.082 Y146.822
G1 F1800 X112.454 Y166.194 E84.69108
G0 F3600 X112.84 Y166.015
G1 F1800 X93.082 Y146.257 E86.08512
G0 F3600 X93.083 Y145.692
G1 F1800 X113.227 Y165.836 E87.50638
G0 F3600 X113.614 Y165.657
G1 F1800 X93.083 Y145.126 E88.95496
G0 F3600 X93.084 Y144.561
G1 F1800 X114.001 Y165.479 E90.4308
G0 F3600 X114.388 Y165.3
G1 F1800 X93.084 Y143.995 E91.93395
G0 F3600 X93.084 Y143.43
G1 F1800 X114.775 Y165.121 E93.46436
G0 F3600 X115.162 Y164.943
G1 F1800 X93.084 Y142.865 E95.02209
G0 F3600 X93.084 Y142.299
G1 F1800 X115.563 Y164.777 E96.60807
G0 F3600 X115.97 Y164.619
G1 F1800 X93.084 Y141.733 E98.2228
G0 F3600 X93.501 Y141.584
G1 F1800 X116.377 Y164.461 E99.83686
G0 F3600 X116.785 Y164.302
G1 F1800 X94.067 Y141.584 E101.43974
G0 F3600 X94.632 Y141.584
G1 F1800 X117.192 Y164.144 E103.03146
G0 F3600 X117.6 Y163.986
G1 F1800 X95.198 Y141.584 E104.61205
G0 F3600 X95.764 Y141.584
G1 F1800 X118.007 Y163.828 E106.18145
G0 F3600 X118.414 Y163.669
G1 F1800 X96.329 Y141.584 E107.73966
G0 F3600 X96.895 Y141.584
G1 F1800 X118.822 Y163.511 E109.28673
G0 F3600 X119.229 Y163.352
G1 F1800 X97.461 Y141.584 E110.82258
G0 F3600 X98.026 Y141.584
G1 F1800 X119.637 Y163.195 E112.34735
G0 F3600 X120.044 Y163.036
G1 F1800 X98.592 Y141.584 E113.86091
G0 F3600 X99.158 Y141.584
G1 F1800 X120.452 Y162.878 E115.36331
G0 F3600 X120.859 Y162.72
G1 F1800 X99.723 Y141.584 E116.85457
G0 F3600 X100.288 Y141.583
G1 F1800 X121.268 Y162.563 E118.33483
G0 F3600 X121.697 Y162.426
G1 F1800 X100.854 Y141.583 E119.80541
G0 F3600 X101.42 Y141.583
G1 F1800 X122.126 Y162.29 E121.26637
G0 F3600 X122.555 Y162.153
G1 F1800 X101.986 Y141.583 E122.71766
G0 F3600 X102.551 Y141.583
G1 F1800 X122.984 Y162.017 E124.15935
G0 F3600 X123.414 Y161.88
G1 F1800 X103.117 Y141.583 E125.59141
G0 F3600 X103.683 Y141.583
G1 F1800 X123.843 Y161.744 E127.01385
G0 F3600 X124.273 Y161.608
G1 F1800 X104.248 Y141.583 E128.42672
G0 F3600 X104.814 Y141.583
G1 F1800 X124.702 Y161.472 E129.82996
G0 F3600 X125.131 Y161.335
G1 F1800 X105.38 Y141.583 E131.22353
G0 F3600 X105.945 Y141.583
G1 F1800 X125.56 Y161.199 E132.60751
G0 F3600 X125.99 Y161.062
G1 F1800 X106.511 Y141.583 E133.98186
G0 F3600 X107.076 Y141.583
G1 F1800 X126.419 Y160.926 E135.34661
G0 F3600 X126.848 Y160.789
G1 F1800 X107.642 Y141.583 E136.7017
G0 F3600 X108.207 Y141.583
G1 F1800 X127.277 Y160.653 E138.04719
G0 F3600 X127.728 Y160.537
G1 F1800 X108.773 Y141.583 E139.38454
G0 F3600 X109.339 Y141.583
G1 F1800 X128.18 Y160.424 E140.71387
G0 F3600 X128.633 Y160.311
G1 F1800 X109.904 Y141.583 E142.03527
G0 F3600 X110.47 Y141.583
G1 F1800 X129.085 Y160.198 E143.34866
G0 F3600 X129.539 Y160.086
G1 F1800 X111.036 Y141.583 E144.65414
G0 F3600 X111.601 Y141.583
G1 F1800 X129.991 Y159.973 E145.95166
G0 F3600 X130.444 Y159.859
G1 F1800 X112.167 Y141.583 E147.24116
G0 F3600 X112.733 Y141.583
G1 F1800 X130.896 Y159.746 E148.52266
G0 F3600 X131.35 Y159.634
G1 F1800 X113.299 Y141.583 E149.79626
G0 F3600 X113.863 Y141.582
G1 F1800 X131.802 Y159.521 E151.06195
G0 F3600 X132.255 Y159.408
G1 F1800 X114.429 Y141.582 E152.31967
G0 F3600 X114.995 Y141.582
G1 F1800 X132.707 Y159.294 E153.56935
G0 F3600 X133.16 Y159.182
G1 F1800 X115.561 Y141.582 E154.81109
G0 F3600 X116.126 Y141.582
G1 F1800 X133.619 Y159.074 E156.04528
G0 F3600 X134.097 Y158.987
G1 F1800 X116.692 Y141.582 E157.27329
G0 F3600 X117.258 Y141.582
G1 F1800 X134.575 Y158.899 E158.4951
G0 F3600 X135.053 Y158.811
G1 F1800 X117.823 Y141.582 E159.71074
G0 F3600 X118.389 Y141.582
G1 F1800 X135.53 Y158.723 E160.92013
G0 F3600 X136.008 Y158.635
G1 F1800 X118.955 Y141.582 E162.12331
G0 F3600 X119.52 Y141.582
G1 F1800 X136.486 Y158.548 E163.32035
G0 F3600 X136.964 Y158.46
G1 F1800 X120.086 Y141.582 E164.51118
G0 F3600 X120.651 Y141.581
G1 F1800 X137.441 Y158.372 E165.69584
G0 F3600 X137.919 Y158.284
G1 F1800 X121.217 Y141.581 E166.8743
G0 F3600 X121.782 Y141.581
G1 F1800 X138.397 Y158.196 E168.04657
G0 F3600 X138.875 Y158.109
G1 F1800 X122.348 Y141.581 E169.21268
G0 F3600 X122.914 Y141.581
G1 F1800 X139.353 Y158.02 E170.37254
G0 F3600 X139.833 Y157.935
G1 F1800 X123.479 Y141.581 E171.5264
G0 F3600 X124.045 Y141.581
G1 F1800 X140.338 Y157.875 E172.676
G0 F3600 X140.844 Y157.814
G1 F1800 X124.611 Y141.581 E173.82132
G0 F3600 X125.176 Y141.581
G1 F1800 X141.349 Y157.754 E174.96241
G0 F3600 X141.855 Y157.694
