;FLAVOR:Marlin
;TIME:1022
;Filament used: 0.670224m
;Layer height: 0.2
;MINX:130.095
;MINY:131.971
;MINZ:0.3
;MAXX:189.906
;MAXY:178.03
;MAXZ:7.2
;Generated with Cura_SteamEngine 4.8.0
M140 S85
M105
M190 S85
M104 S235
M105
M109 S235
M82 ;absolute extrusion mode
G28 ;Home
G1 Z15.0 F6000 ;Move the platform down 15mm
;Prime the extruder
G92 E0
G1 F200 E3
G92 E0
G92 E0
G92 E0
G1 F2400 E-3
;LAYER_COUNT:33
;LAYER:0
M107
M204 S5000
M205 X5 Y5
G1 F600 Z0.8
G0 F3600 X133.231 Y135.152 Z0.8
M204 S500
;TYPE:SKIRT
G1 F600 Z0.3
G1 F2400 E0
G1 F1200 X133.402 Y134.984 E0.015
G1 X134.074 Y134.379 E0.07157
G1 X134.797 Y133.837 E0.1281
G1 X135.565 Y133.36 E0.18466
G1 X136.372 Y132.953 E0.2412
G1 X137.604 Y132.492 E0.3235
G1 X137.832 Y132.423 E0.3384
G1 X138.708 Y132.2 E0.39496
G1 X139.6 Y132.055 E0.45149
G1 X140.622 Y131.986 E0.51558
G1 X141.524 Y131.971 E0.57202
G1 X178.647 Y131.972 E2.89452
G1 X179.35 Y131.983 E2.93851
G1 X180.252 Y132.037 E2.99504
G1 X181.146 Y132.171 E3.05159
G1 X181.913 Y132.351 E3.10088
G1 X182.159 Y132.419 E3.11685
G1 X183.019 Y132.699 E3.17343
G1 X183.851 Y133.053 E3.23
G1 X184.648 Y133.479 E3.28654
G1 X185.404 Y133.974 E3.34307
G1 X186.114 Y134.534 E3.39965
G1 X186.748 Y135.13 E3.45408
G1 X186.914 Y135.3 E3.46895
G1 X187.516 Y135.974 E3.52549
G1 X187.982 Y136.589 E3.57376
G1 X188.467 Y137.352 E3.63032
G1 X188.883 Y138.155 E3.6869
G1 X189.226 Y138.991 E3.74344
G1 X189.436 Y139.642 E3.78623
G1 X189.498 Y139.859 E3.80035
G1 X189.707 Y140.739 E3.85694
G1 X189.839 Y141.633 E3.91347
G1 X189.89 Y142.499 E3.96775
G1 X189.904 Y143.351 E4.02106
G1 X189.904 Y143.656 E4.04014
G1 X189.895 Y144.325 E4.082
G1 X189.872 Y144.973 E4.12256
G1 X189.865 Y145.132 E4.13252
G1 X189.752 Y147.11 E4.25647
G1 X189.681 Y149.638 E4.41469
G1 X189.681 Y152.171 E4.57316
G1 X189.754 Y154.756 E4.73495
G1 X189.82 Y156.074 E4.81751
G1 X189.879 Y157.101 E4.88186
G1 X189.901 Y157.707 E4.9198
G1 X189.906 Y158.021 E4.93945
G1 X189.904 Y160.611 E5.10149
G1 X189.894 Y161.302 E5.14472
G1 X189.841 Y162.204 E5.20125
G1 X189.708 Y163.099 E5.25786
G1 X189.579 Y163.678 E5.29497
G1 X189.526 Y163.886 E5.3084
G1 X189.264 Y164.751 E5.36494
G1 X188.927 Y165.59 E5.42151
G1 X188.517 Y166.395 E5.47803
G1 X188.037 Y167.162 E5.53463
G1 X187.546 Y167.817 E5.58585
G1 X187.423 Y167.968 E5.59803
G1 X186.821 Y168.642 E5.65457
G1 X186.163 Y169.262 E5.71113
G1 X185.452 Y169.82 E5.76768
G1 X184.695 Y170.314 E5.82423
G1 X184.117 Y170.63 E5.86544
G1 X183.888 Y170.746 E5.8815
G1 X183.065 Y171.118 E5.938
G1 X182.186 Y171.424 E5.99623
G1 X181.686 Y171.572 E6.02886
G1 X179.973 Y172.06 E6.14029
G1 X177.519 Y172.833 E6.30125
G1 X175.142 Y173.657 E6.45865
G1 X172.748 Y174.564 E6.61881
G1 X170.46 Y175.505 E6.77359
G1 X167.831 Y176.694 E6.9541
G1 X166.996 Y177.066 E7.01129
G1 X166.155 Y177.397 E7.06783
G1 X165.577 Y177.577 E7.10571
G1 X165.347 Y177.641 E7.12064
G1 X164.466 Y177.845 E7.17722
G1 X163.571 Y177.969 E7.23375
G1 X162.777 Y178.014 E7.2835
G1 X161.874 Y178.029 E7.34
G1 X159.392 Y178.03 E7.49528
G1 X158.546 Y178.019 E7.54822
G1 X157.644 Y177.966 E7.60474
G1 X156.749 Y177.834 E7.66134
G1 X156.006 Y177.661 E7.70907
G1 X155.738 Y177.588 E7.72645
G1 X154.982 Y177.35 E7.77603
G1 X154.881 Y177.314 E7.78274
G1 X152.489 Y176.5 E7.94082
G1 X150.037 Y175.743 E8.10136
G1 X147.562 Y175.055 E8.26208
G1 X145.093 Y174.442 E8.42123
G1 X142.645 Y173.91 E8.57796
G1 X140.104 Y173.431 E8.73973
G1 X139.217 Y173.282 E8.796
G1 X138.939 Y173.231 E8.81368
G1 X137.921 Y172.99 E8.87913
G1 X137.705 Y172.927 E8.89321
G1 X136.85 Y172.636 E8.94971
G1 X136.023 Y172.27 E9.00629
G1 X135.232 Y171.833 E9.06283
G1 X134.482 Y171.327 E9.11943
G1 X133.781 Y170.757 E9.17596
G1 X133.298 Y170.3 E9.21756
G1 X133.127 Y170.127 E9.23278
G1 X132.521 Y169.457 E9.28929
G1 X131.976 Y168.736 E9.34584
G1 X131.497 Y167.969 E9.40241
G1 X131.088 Y167.163 E9.45896
G1 X130.751 Y166.324 E9.51552
G1 X130.594 Y165.836 E9.5476
G1 X130.527 Y165.609 E9.5624
G1 X130.31 Y164.732 E9.61892
G1 X130.171 Y163.838 E9.67553
G1 X130.11 Y162.884 E9.73533
G1 X130.095 Y161.97 E9.79252
G1 X130.095 Y143.386 E10.95518
G1 X130.106 Y142.539 E11.00818
G1 X130.159 Y141.636 E11.06477
G1 X130.291 Y140.742 E11.1213
G1 X130.486 Y139.919 E11.17422
G1 X130.554 Y139.677 E11.18995
G1 X130.837 Y138.819 E11.24647
G1 X131.194 Y137.988 E11.30305
G1 X131.624 Y137.193 E11.3596
G1 X132.122 Y136.439 E11.41613
G1 X132.685 Y135.731 E11.47272
G1 X133.231 Y135.152 E11.52251
M204 S5000
G1 F2400 E8.52251
G1 F600 Z0.8
;MESH:05669543-43e7-4d4f-8ef3-174b9a24d505.stl
G0 F3600 X141.294 Y143.97 Z0.8
M204 S500
;TYPE:WALL-OUTER
G1 F600 Z0.3
G1 F2400 E11.52251
G1 F900 X141.294 Y157.91 E12.39463
G1 X179.246 Y157.91 E14.769
G1 X179.466 Y157.91 E14.78276
G1 X179.466 Y158.13 E14.79166
G1 X179.465 Y161.128 E14.97922
G1 X179.43 Y161.265 E14.98807
G1 X179.35 Y161.363 E14.99598
G1 X179.227 Y161.421 E15.00449
G1 X172.631 Y162.975 E15.42845
G1 X162.865 Y162.975 E16.03943
G1 X162.864 Y167.284 E16.30901
G1 X162.818 Y167.449 E16.31973
G1 X162.718 Y167.546 E16.32844
G1 X162.554 Y167.59 E16.33907
G1 X158.715 Y167.59 E16.57924
G1 X158.546 Y167.543 E16.59022
G1 X158.449 Y167.443 E16.59893
G1 X158.405 Y167.279 E16.60956
G1 X158.405 Y162.975 E16.87883
G1 X140.839 Y162.974 E17.9778
G1 X140.675 Y162.928 E17.98845
G1 X140.578 Y162.828 E17.99717
G1 X140.534 Y162.664 E18.00779
G1 X140.535 Y142.715 E19.25585
G1 X140.581 Y142.551 E19.2665
G1 X140.681 Y142.454 E19.27522
G1 X140.845 Y142.41 E19.28584
G1 X179.16 Y142.411 E21.68292
G1 X179.325 Y142.457 E21.69363
G1 X179.422 Y142.557 E21.70235
G1 X179.466 Y142.721 E21.71297
G1 X179.466 Y143.97 E21.79111
G1 X141.294 Y143.97 E24.17924
M204 S5000
G0 F3600 X141.294 Y144.17
G1 F2400 E21.17924
G0 F3600 X141.194 Y144.17
G0 X141.266 Y158.178
G0 X170.66 Y158.895
G0 X170.746 Y159.223
M204 S500
G1 F2400 E24.17924
G1 F900 X170.461 Y159.298 E24.19768
G1 X170.203 Y159.437 E24.21601
G1 X169.984 Y159.634 E24.23444
G1 X169.82 Y159.876 E24.25273
G1 X169.719 Y160.143 E24.27059
G1 X169.684 Y160.446 E24.28967
G1 X169.722 Y160.738 E24.30809
G1 X169.831 Y161.012 E24.32654
G1 X169.999 Y161.252 E24.34487
G1 X170.222 Y161.446 E24.36336
G1 X170.485 Y161.579 E24.3818
G1 X170.77 Y161.647 E24.40013
G1 X171.065 Y161.645 E24.41859
G1 X171.35 Y161.57 E24.43703
G1 X171.608 Y161.431 E24.45536
G1 X171.827 Y161.234 E24.47379
G1 X171.991 Y160.991 E24.49213
G1 X172.093 Y160.714 E24.5106
G1 X172.126 Y160.422 E24.52898
G1 X172.088 Y160.131 E24.54734
G1 X171.98 Y159.856 E24.56583
G1 X171.81 Y159.615 E24.58428
G1 X171.588 Y159.422 E24.60268
G1 X171.327 Y159.289 E24.62101
G1 X171.041 Y159.221 E24.6394
G1 X170.746 Y159.223 E24.65786
M204 S5000
G0 F3600 X170.553 Y159.274
G0 X170.298 Y158.886
M204 S500
;TYPE:WALL-INNER
G1 F900 X169.948 Y159.075 E24.68274
G1 X169.65 Y159.343 E24.70782
G1 X169.427 Y159.672 E24.73268
G1 X169.288 Y160.038 E24.75717
G1 X169.241 Y160.449 E24.78306
G1 X169.293 Y160.849 E24.80829
G1 X169.441 Y161.222 E24.8334
G1 X169.669 Y161.549 E24.85834
G1 X169.975 Y161.814 E24.88366
G1 X170.333 Y161.995 E24.90876
G1 X170.72 Y162.087 E24.93364
G1 X171.123 Y162.085 E24.95886
G1 X171.513 Y161.982 E24.98409
G1 X171.863 Y161.793 E25.00898
G1 X172.161 Y161.525 E25.03405
G1 X172.385 Y161.193 E25.05911
G1 X172.524 Y160.816 E25.08425
G1 X172.569 Y160.418 E25.10931
G1 X172.517 Y160.02 E25.13442
G1 X172.37 Y159.646 E25.15956
G1 X172.139 Y159.318 E25.18466
G1 X171.836 Y159.054 E25.2098
G1 X171.48 Y158.873 E25.23478
G1 X171.124 Y158.788 E25.25768
G1 X171.091 Y158.781 E25.25979
G1 X170.688 Y158.783 E25.28501
G1 X170.666 Y158.788 E25.28642
G1 X170.298 Y158.886 E25.31024
M204 S5000
G0 F3600 X159.679 Y164.17
G0 X159.05 Y165.023
G0 X159.369 Y165.137
M204 S500
;TYPE:WALL-OUTER
G1 F900 X159.336 Y165.458 E25.33043
G1 X159.375 Y165.762 E25.34961
G1 X159.483 Y166.049 E25.36879
G1 X159.655 Y166.302 E25.38793
G1 X159.881 Y166.509 E25.4071
G1 X160.148 Y166.658 E25.42623
G1 X160.443 Y166.744 E25.44546
G1 X160.75 Y166.757 E25.46468
G1 X161.052 Y166.699 E25.48392
G1 X161.33 Y166.574 E25.50299
G1 X161.574 Y166.388 E25.52218
G1 X161.768 Y166.151 E25.54135
G1 X161.901 Y165.874 E25.56057
G1 X161.968 Y165.576 E25.57968
G1 X161.965 Y165.269 E25.59889
G1 X161.889 Y164.972 E25.61807
G1 X161.747 Y164.7 E25.63726
G1 X161.548 Y164.468 E25.65638
G1 X161.299 Y164.289 E25.67557
G1 X161.017 Y164.171 E25.69469
G1 X160.714 Y164.122 E25.7139
G1 X160.409 Y164.143 E25.73302
G1 X160.116 Y164.235 E25.75224
G1 X159.852 Y164.392 E25.77145
G1 X159.632 Y164.606 E25.79066
G1 X159.468 Y164.863 E25.80973
G1 X159.369 Y165.137 E25.82796
M204 S5000
G0 F3600 X159.349 Y165.336
G0 X158.867 Y165.286
G0 X158.945 Y160.078
G0 X159.423 Y159.313
G0 X160.16 Y158.895
G0 X160.246 Y159.223
M204 S500
G1 F900 X159.961 Y159.298 E25.84639
G1 X159.703 Y159.437 E25.86473
G1 X159.484 Y159.634 E25.88316
G1 X159.32 Y159.876 E25.90144
G1 X159.219 Y160.143 E25.9193
G1 X159.184 Y160.446 E25.93839
G1 X159.222 Y160.738 E25.95681
G1 X159.331 Y161.012 E25.97526
G1 X159.499 Y161.252 E25.99359
G1 X159.722 Y161.446 E26.01208
G1 X159.985 Y161.579 E26.03052
G1 X160.27 Y161.647 E26.04885
G1 X160.565 Y161.645 E26.0673
G1 X160.85 Y161.57 E26.08574
G1 X161.108 Y161.431 E26.10407
G1 X161.327 Y161.234 E26.1225
G1 X161.491 Y160.991 E26.14084
G1 X161.593 Y160.714 E26.15931
G1 X161.626 Y160.422 E26.1777
G1 X161.588 Y160.131 E26.19606
G1 X161.48 Y159.856 E26.21454
G1 X161.31 Y159.615 E26.23299
G1 X161.088 Y159.422 E26.2514
G1 X160.827 Y159.289 E26.26972
G1 X160.541 Y159.221 E26.28811
G1 X160.246 Y159.223 E26.30657
M204 S5000
G0 F3600 X160.053 Y159.274
G0 X159.798 Y158.886
M204 S500
;TYPE:WALL-INNER
G1 F900 X159.448 Y159.075 E26.33146
G1 X159.15 Y159.343 E26.35653
G1 X158.927 Y159.672 E26.38139
G1 X158.788 Y160.038 E26.40589
G1 X158.741 Y160.449 E26.43177
G1 X158.793 Y160.849 E26.457
G1 X158.941 Y161.222 E26.48211
G1 X159.169 Y161.549 E26.50705
G1 X159.475 Y161.814 E26.53238
G1 X159.833 Y161.995 E26.55747
G1 X160.22 Y162.087 E26.58236
G1 X160.623 Y162.085 E26.60757
G1 X161.013 Y161.982 E26.63281
G1 X161.363 Y161.793 E26.65769
G1 X161.661 Y161.525 E26.68277
G1 X161.885 Y161.193 E26.70782
G1 X162.024 Y160.816 E26.73296
G1 X162.069 Y160.418 E26.75802
G1 X162.017 Y160.02 E26.78313
G1 X161.87 Y159.646 E26.80827
G1 X161.639 Y159.318 E26.83337
G1 X161.336 Y159.054 E26.85851
G1 X160.98 Y158.873 E26.8835
G1 X160.624 Y158.788 E26.9064
G1 X160.591 Y158.781 E26.90851
G1 X160.188 Y158.783 E26.93372
G1 X160.166 Y158.788 E26.93513
G1 X159.798 Y158.886 E26.95896
M204 S5000
G1 F2400 E23.95896
G0 F3600 X141.266 Y158.178
G0 X140.975 Y143.53
M204 S500
G1 F2400 E26.95896
G1 F900 X140.975 Y143.069 E26.9878
G1 X140.975 Y142.85 E27.0015
G1 X141.194 Y142.85 E27.01037
G1 X179.026 Y142.851 E29.37722
G1 X179.026 Y143.53 E29.4197
G1 X140.975 Y143.53 E31.80026
M204 S5000
G0 F3600 X140.974 Y158.35
M204 S500
G1 F900 X160.165 Y158.35 E33.0009
G1 X160.188 Y158.35 E33.00233
G1 X160.591 Y158.35 E33.02714
G1 X160.625 Y158.35 E33.02924
G1 X170.665 Y158.35 E33.65737
G1 X170.688 Y158.35 E33.6588
G1 X171.091 Y158.35 E33.68361
G1 X171.125 Y158.35 E33.68572
G1 X178.807 Y158.35 E34.16632
G1 X179.026 Y158.35 E34.18002
G1 X179.026 Y158.569 E34.18889
G1 X179.025 Y161.017 E34.34204
G1 X178.686 Y161.096 E34.36382
G1 X172.581 Y162.535 E34.75623
G1 X162.425 Y162.535 E35.39161
G1 X162.425 Y164.28 E35.50078
G1 X162.425 Y164.452 E35.51155
G1 X162.425 Y164.814 E35.53419
G1 X162.425 Y165.211 E35.55903
G1 X162.425 Y165.623 E35.58481
G1 X162.425 Y166.019 E35.60958
G1 X162.425 Y166.389 E35.63273
G1 X162.425 Y166.608 E35.64643
G1 X162.424 Y167.15 E35.68034
G1 X161.917 Y167.15 E35.71206
G1 X161.557 Y167.15 E35.73458
G1 X161.186 Y167.15 E35.75779
G1 X161.036 Y167.15 E35.76718
G1 X161.186 Y167.121 E35.76758
G1 X161.557 Y166.955 E35.77528
G1 X161.843 Y166.737 E35.79185
G1 X161.882 Y166.707 E35.79493
G1 X162.004 Y166.558 E35.80698
G1 X162.142 Y166.389 E35.81834
G1 X162.319 Y166.019 E35.83076
G1 X162.408 Y165.623 E35.83469
G1 X162.404 Y165.211 E35.83581
G1 X162.303 Y164.814 E35.84045
G1 X162.114 Y164.452 E35.85413
G1 X162.002 Y164.322 E35.86339
G1 X161.848 Y164.142 E35.87821
G1 X161.515 Y163.902 E35.90389
G1 X161.139 Y163.745 E35.92938
G1 X160.734 Y163.68 E35.95505
G1 X160.327 Y163.708 E35.98057
G1 X159.935 Y163.831 E36.00627
G1 X159.582 Y164.04 E36.03194
G1 X159.289 Y164.326 E36.05755
G1 X159.267 Y164.36 E36.06009
G1 X159.071 Y164.668 E36.08293
G1 X158.937 Y165.038 E36.10755
G1 X158.893 Y165.464 E36.13434
G1 X158.945 Y165.869 E36.15989
G1 X159.09 Y166.253 E36.18557
G1 X159.267 Y166.514 E36.20529
G1 X159.32 Y166.592 E36.21119
G1 X159.473 Y166.732 E36.22417
G1 X159.622 Y166.868 E36.23679
G1 X159.977 Y167.066 E36.26222
G1 X160.265 Y167.15 E36.28099
G1 X159.977 Y167.15 E36.28254
G1 X159.622 Y167.15 E36.29131
G1 X159.42 Y167.15 E36.30184
G1 X158.845 Y167.15 E36.33782
G1 X158.845 Y166.568 E36.37423
G1 X158.845 Y166.253 E36.38977
G1 X158.845 Y165.869 E36.39897
G1 X158.845 Y165.464 E36.40321
G1 X158.845 Y165.038 E36.40744
G1 X158.845 Y164.668 E36.41558
G1 X158.845 Y164.303 E36.4331
G1 X158.845 Y162.535 E36.54371
G1 X140.974 Y162.534 E37.66176
G1 X140.974 Y158.35 E37.92353
M204 S5000
G0 F3600 X141.414 Y158.79
M204 S500
G1 F900 X158.65 Y158.79 E39.00185
G1 X158.816 Y158.79 E39.01223
G1 X159.107 Y158.79 E39.03044
G1 X158.816 Y159.052 E39.04092
G1 X158.723 Y159.189 E39.04942
G1 X158.534 Y159.468 E39.0705
G1 X158.357 Y159.933 E39.10163
G1 X158.298 Y160.452 E39.13431
G1 X158.364 Y160.96 E39.16636
G1 X158.551 Y161.432 E39.19812
G1 X158.736 Y161.698 E39.21839
G1 X158.839 Y161.846 E39.22967
G1 X159.127 Y162.095 E39.25349
G1 X158.839 Y162.095 E39.25746
G1 X158.658 Y162.095 E39.26662
G1 X141.414 Y162.094 E40.34544
G1 X141.414 Y158.79 E40.55215
M204 S5000
G0 F3600 X161.703 Y158.79
M204 S500
G1 F900 X161.968 Y158.79 E40.56873
G1 X162.168 Y158.79 E40.58124
G1 X169.15 Y158.79 E41.01805
G1 X169.316 Y158.79 E41.02843
G1 X169.607 Y158.79 E41.04664
G1 X169.316 Y159.052 E41.05711
G1 X169.223 Y159.189 E41.06562
G1 X169.034 Y159.468 E41.0867
G1 X168.857 Y159.933 E41.11783
G1 X168.798 Y160.452 E41.15051
G1 X168.864 Y160.96 E41.18256
G1 X169.051 Y161.432 E41.21432
G1 X169.236 Y161.698 E41.23459
G1 X169.339 Y161.846 E41.24587
G1 X169.627 Y162.095 E41.26969
G1 X169.339 Y162.095 E41.27366
G1 X169.158 Y162.095 E41.28281
G1 X162.135 Y162.095 E41.72219
G1 X161.985 Y162.095 E41.73157
G1 X161.985 Y162.155 E41.73533
G1 X161.985 Y162.215 E41.73908
G1 X161.985 Y163.377 E41.81178
G1 X161.985 Y163.515 E41.82041
G1 X161.985 Y163.698 E41.83186
G1 X161.731 Y163.515 E41.84155
G1 X161.604 Y163.462 E41.84865
G1 X161.26 Y163.319 E41.87195
G1 X160.754 Y163.238 E41.90401
G1 X160.245 Y163.273 E41.93593
G1 X159.755 Y163.426 E41.96805
G1 X159.623 Y163.504 E41.97764
G1 X159.312 Y163.688 E42.00025
G1 X159.285 Y163.714 E42.00259
G1 X159.285 Y163.688
G1 X159.285 Y163.327 E42.01597
G1 X159.285 Y162.438 E42.07159
G1 X159.285 Y162.411 E42.07328
G1 X159.285 Y162.211 E42.08579
G1 X159.681 Y162.411 E42.10388
G1 X159.707 Y162.417 E42.10549
G1 X160.169 Y162.527 E42.1352
G1 X160.681 Y162.525 E42.16723
G1 X161.176 Y162.394 E42.19926
G1 X161.566 Y162.183 E42.22701
G1 X161.618 Y162.155 E42.2304
G1 X161.85 Y161.946 E42.24601
G1 X161.995 Y161.816 E42.2552
G1 X162.079 Y161.692 E42.26305
G1 X162.279 Y161.395 E42.28545
G1 X162.455 Y160.918 E42.31726
G1 X162.46 Y160.866 E42.32053
G1 X162.505 Y160.469 E42.34553
G1 X162.512 Y160.414 E42.349
G1 X162.446 Y159.909 E42.38086
G1 X162.26 Y159.436 E42.41266
G1 X162.083 Y159.184 E42.43192
G1 X161.968 Y159.021 E42.4416
G1 X161.703 Y158.79 E42.45025
M204 S5000
G0 F3600 X172.203 Y158.79
M204 S500
G1 F900 X172.468 Y158.79 E42.46683
G1 X172.668 Y158.79 E42.47934
G1 X178.586 Y158.79 E42.84959
G1 X178.585 Y160.669 E42.96714
G1 X172.758 Y162.042 E43.34167
G1 X172.56 Y162.088 E43.35439
G1 X172.531 Y162.095 E43.35626
G1 X172.495 Y162.095 E43.35851
G1 X172.185 Y162.095 E43.37791
G1 X172.376 Y161.923 E43.38138
G1 X172.495 Y161.816 E43.386
G1 X172.609 Y161.647 E43.39659
G1 X172.779 Y161.395 E43.41561
G1 X172.955 Y160.918 E43.44742
G1 X172.96 Y160.866 E43.45069
G1 X173.005 Y160.469 E43.47568
G1 X173.012 Y160.414 E43.47915
G1 X172.946 Y159.909 E43.51101
G1 X172.76 Y159.436 E43.54281
