;FLAVOR:Marlin
;TIME:1033
;Filament used: 0.720687m
;Layer height: 0.2
;MINX:130.095
;MINY:131.971
;MINZ:0.3
;MAXX:189.906
;MAXY:178.03
;MAXZ:6.5
;Generated with Cura_SteamEngine 4.8.0
M140 S85
M105
M190 S85
M104 S235
M105
M109 S235
M82 ;absolute extrusion mode
G28 ;Home
G1 Z15.0 F6000 ;Move the platform down 15mm
;Prime the extruder
G92 E0
G1 F200 E3
G92 E0
G92 E0
G92 E0
G1 F2400 E-3
;LAYER_COUNT:32
;LAYER:0
M107
M204 S5000
M205 X5 Y5
G1 F600 Z0.8
G0 F3600 X133.231 Y135.152 Z0.8
M204 S500
;TYPE:SKIRT
G1 F600 Z0.3
G1 F2400 E0
G1 F1200 X133.402 Y134.984 E0.015
G1 X134.074 Y134.379 E0.07157
G1 X134.797 Y133.837 E0.1281
G1 X135.565 Y133.36 E0.18466
G1 X136.372 Y132.953 E0.2412
G1 X137.604 Y132.492 E0.3235
G1 X137.832 Y132.423 E0.3384
G1 X138.708 Y132.2 E0.39496
G1 X139.6 Y132.055 E0.45149
G1 X140.622 Y131.986 E0.51558
G1 X141.524 Y131.971 E0.57202
G1 X178.647 Y131.972 E2.89452
G1 X179.35 Y131.983 E2.93851
G1 X180.252 Y132.037 E2.99504
G1 X181.146 Y132.171 E3.05159
G1 X181.913 Y132.351 E3.10088
G1 X182.159 Y132.419 E3.11685
G1 X183.019 Y132.699 E3.17343
G1 X183.851 Y133.053 E3.23
G1 X184.648 Y133.479 E3.28654
G1 X185.404 Y133.974 E3.34307
G1 X186.114 Y134.534 E3.39965
G1 X186.748 Y135.13 E3.45408
G1 X186.914 Y135.3 E3.46895
G1 X187.516 Y135.974 E3.52549
G1 X187.982 Y136.589 E3.57376
G1 X188.467 Y137.352 E3.63032
G1 X188.883 Y138.155 E3.6869
G1 X189.226 Y138.991 E3.74344
G1 X189.436 Y139.642 E3.78623
G1 X189.498 Y139.859 E3.80035
G1 X189.707 Y140.739 E3.85694
G1 X189.839 Y141.633 E3.91347
G1 X189.89 Y142.499 E3.96775
G1 X189.904 Y143.351 E4.02106
G1 X189.904 Y143.656 E4.04014
G1 X189.895 Y144.325 E4.082
G1 X189.872 Y144.973 E4.12256
G1 X189.865 Y145.132 E4.13252
G1 X189.752 Y147.11 E4.25647
G1 X189.681 Y149.638 E4.41469
G1 X189.681 Y152.171 E4.57316
G1 X189.754 Y154.756 E4.73495
G1 X189.82 Y156.074 E4.81751
G1 X189.879 Y157.101 E4.88186
G1 X189.901 Y157.707 E4.9198
G1 X189.906 Y158.021 E4.93945
G1 X189.904 Y160.611 E5.10149
G1 X189.894 Y161.302 E5.14472
G1 X189.841 Y162.204 E5.20125
G1 X189.708 Y163.099 E5.25786
G1 X189.579 Y163.678 E5.29497
G1 X189.526 Y163.886 E5.3084
G1 X189.264 Y164.751 E5.36494
G1 X188.927 Y165.59 E5.42151
G1 X188.517 Y166.395 E5.47803
G1 X188.037 Y167.162 E5.53463
G1 X187.546 Y167.817 E5.58585
G1 X187.423 Y167.968 E5.59803
G1 X186.821 Y168.642 E5.65457
G1 X186.163 Y169.262 E5.71113
G1 X185.452 Y169.82 E5.76768
G1 X184.695 Y170.314 E5.82423
G1 X184.117 Y170.63 E5.86544
G1 X183.888 Y170.746 E5.8815
G1 X183.065 Y171.118 E5.938
G1 X182.186 Y171.424 E5.99623
G1 X181.686 Y171.572 E6.02886
G1 X179.973 Y172.06 E6.14029
G1 X177.519 Y172.833 E6.30125
G1 X175.142 Y173.657 E6.45865
G1 X172.748 Y174.564 E6.61881
G1 X170.46 Y175.505 E6.77359
G1 X167.831 Y176.694 E6.9541
G1 X166.996 Y177.066 E7.01129
G1 X166.155 Y177.397 E7.06783
G1 X165.577 Y177.577 E7.10571
G1 X165.347 Y177.641 E7.12064
G1 X164.466 Y177.845 E7.17722
G1 X163.571 Y177.969 E7.23375
G1 X162.777 Y178.014 E7.2835
G1 X161.874 Y178.029 E7.34
G1 X159.392 Y178.03 E7.49528
G1 X158.546 Y178.019 E7.54822
G1 X157.644 Y177.966 E7.60474
G1 X156.749 Y177.834 E7.66134
G1 X156.006 Y177.661 E7.70907
G1 X155.738 Y177.588 E7.72645
G1 X154.982 Y177.35 E7.77603
G1 X154.881 Y177.314 E7.78274
G1 X152.489 Y176.5 E7.94082
G1 X150.037 Y175.743 E8.10136
G1 X147.562 Y175.055 E8.26208
G1 X145.093 Y174.442 E8.42123
G1 X142.645 Y173.91 E8.57796
G1 X140.104 Y173.431 E8.73973
G1 X139.217 Y173.282 E8.796
G1 X138.939 Y173.231 E8.81368
G1 X137.921 Y172.99 E8.87913
G1 X137.705 Y172.927 E8.89321
G1 X136.85 Y172.636 E8.94971
G1 X136.023 Y172.27 E9.00629
G1 X135.232 Y171.833 E9.06283
G1 X134.482 Y171.327 E9.11943
G1 X133.781 Y170.757 E9.17596
G1 X133.298 Y170.3 E9.21756
G1 X133.127 Y170.127 E9.23278
G1 X132.521 Y169.457 E9.28929
G1 X131.976 Y168.736 E9.34584
G1 X131.497 Y167.969 E9.40241
G1 X131.088 Y167.163 E9.45896
G1 X130.751 Y166.324 E9.51552
G1 X130.594 Y165.836 E9.5476
G1 X130.527 Y165.609 E9.5624
G1 X130.31 Y164.732 E9.61892
G1 X130.171 Y163.838 E9.67553
G1 X130.11 Y162.884 E9.73533
G1 X130.095 Y161.97 E9.79252
G1 X130.095 Y143.386 E10.95518
G1 X130.106 Y142.539 E11.00818
G1 X130.159 Y141.636 E11.06477
G1 X130.291 Y140.742 E11.1213
G1 X130.486 Y139.919 E11.17422
G1 X130.554 Y139.677 E11.18995
G1 X130.837 Y138.819 E11.24647
G1 X131.194 Y137.988 E11.30305
G1 X131.624 Y137.193 E11.3596
G1 X132.122 Y136.439 E11.41613
G1 X132.685 Y135.731 E11.47272
G1 X133.231 Y135.152 E11.52251
M204 S5000
G1 F2400 E8.52251
G1 F600 Z0.8
G0 F3600 X142.434 Y145.11 Z0.8
M204 S500
;TYPE:SUPPORT
G1 F600 Z0.3
G1 F2400 E11.52251
G1 F900 X157.094 Y145.11 E12.43967
G1 X157.094 Y156.77 E13.16915
G1 X142.434 Y156.77 E14.08632
G1 X142.434 Y145.11 E14.81579
M204 S5000
G1 F2400 E11.81579
G1 F600 Z0.8
G0 F3600 X144 Y145.29 Z0.8
M204 S500
G1 F600 Z0.3
G1 F2400 E14.81579
G1 F900 X144 Y156.59 E15.52275
M204 S5000
G1 F2400 E12.52275
G1 F600 Z0.8
G0 F3600 X142.614 Y156 Z0.8
M204 S500
G1 F600 Z0.3
G1 F2400 E15.52275
G1 F900 X156.914 Y156 E16.41739
M204 S5000
G1 F2400 E13.41739
G1 F600 Z0.8
G0 F3600 X156 Y156.59 Z0.8
M204 S500
G1 F600 Z0.3
G1 F2400 E16.41739
G1 F900 X156 Y145.29 E17.12434
M204 S5000
G1 F2400 E14.12434
G1 F600 Z0.8
G0 F3600 X156.914 Y148 Z0.8
M204 S500
G1 F600 Z0.3
G1 F2400 E17.12434
G1 F900 X142.614 Y148 E18.01898
M204 S5000
G1 F2400 E15.01898
G1 F600 Z0.8
G0 F3600 X142.614 Y152 Z0.8
M204 S500
G1 F600 Z0.3
G1 F2400 E18.01898
G1 F900 X156.914 Y152 E18.91362
M204 S5000
G1 F2400 E15.91362
G1 F600 Z0.8
G0 F3600 X152 Y156.59 Z0.8
M204 S500
G1 F600 Z0.3
G1 F2400 E18.91362
G1 F900 X152 Y145.29 E19.62058
M204 S5000
G1 F2400 E16.62058
G1 F600 Z0.8
G0 F3600 X148 Y145.29 Z0.8
M204 S500
G1 F600 Z0.3
G1 F2400 E19.62058
G1 F900 X148 Y156.59 E20.32753
M204 S5000
G1 F2400 E17.32753
G1 F600 Z0.8
;MESH:9f6e8a40-5b0e-4196-9df4-1ff7b4bf5f52.stl
G0 F3600 X141.294 Y143.97 Z0.8
M204 S500
;TYPE:WALL-OUTER
G1 F600 Z0.3
G1 F2400 E20.32753
G1 F900 X141.294 Y157.91 E21.19965
G1 X179.246 Y157.91 E23.57402
G1 X179.466 Y157.91 E23.58778
G1 X179.466 Y158.13 E23.59668
G1 X179.465 Y161.128 E23.78424
G1 X179.43 Y161.265 E23.79309
G1 X179.35 Y161.363 E23.801
G1 X179.227 Y161.421 E23.80951
G1 X172.631 Y162.975 E24.23347
G1 X162.865 Y162.975 E24.84445
G1 X162.864 Y167.284 E25.11403
G1 X162.818 Y167.449 E25.12475
G1 X162.718 Y167.546 E25.13346
G1 X162.554 Y167.59 E25.14409
G1 X158.715 Y167.59 E25.38426
G1 X158.546 Y167.543 E25.39524
G1 X158.449 Y167.443 E25.40395
G1 X158.405 Y167.279 E25.41458
G1 X158.405 Y162.975 E25.68385
G1 X140.839 Y162.974 E26.78282
G1 X140.675 Y162.928 E26.79347
G1 X140.578 Y162.828 E26.80219
G1 X140.534 Y162.664 E26.81281
G1 X140.535 Y142.715 E28.06087
G1 X140.581 Y142.551 E28.07152
G1 X140.681 Y142.454 E28.08024
G1 X140.845 Y142.41 E28.09086
G1 X179.16 Y142.411 E30.48794
G1 X179.325 Y142.457 E30.49865
G1 X179.422 Y142.557 E30.50737
G1 X179.466 Y142.721 E30.51799
G1 X179.466 Y143.97 E30.59613
G1 X141.294 Y143.97 E32.98426
M204 S5000
G0 F3600 X141.294 Y144.17
G1 F2400 E29.98426
G0 F3600 X141.194 Y144.17
G0 X141.266 Y158.178
G0 X170.66 Y158.895
G0 X170.746 Y159.223
M204 S500
G1 F2400 E32.98426
G1 F900 X170.461 Y159.298 E33.0027
G1 X170.203 Y159.437 E33.02103
G1 X169.984 Y159.634 E33.03946
G1 X169.82 Y159.876 E33.05775
G1 X169.719 Y160.143 E33.07561
G1 X169.684 Y160.446 E33.09469
G1 X169.722 Y160.738 E33.11312
G1 X169.831 Y161.012 E33.13156
G1 X169.999 Y161.252 E33.14989
G1 X170.222 Y161.446 E33.16838
G1 X170.485 Y161.579 E33.18682
G1 X170.77 Y161.647 E33.20515
G1 X171.065 Y161.645 E33.22361
G1 X171.35 Y161.57 E33.24205
G1 X171.608 Y161.431 E33.26038
G1 X171.827 Y161.234 E33.27881
G1 X171.991 Y160.991 E33.29715
G1 X172.093 Y160.714 E33.31562
G1 X172.126 Y160.422 E33.334
G1 X172.088 Y160.131 E33.35236
G1 X171.98 Y159.856 E33.37085
G1 X171.81 Y159.615 E33.3893
G1 X171.588 Y159.422 E33.4077
G1 X171.327 Y159.289 E33.42603
G1 X171.041 Y159.221 E33.44442
G1 X170.746 Y159.223 E33.46288
M204 S5000
G0 F3600 X170.553 Y159.274
G0 X170.298 Y158.886
M204 S500
;TYPE:WALL-INNER
G1 F900 X169.948 Y159.075 E33.48776
G1 X169.65 Y159.343 E33.51284
G1 X169.427 Y159.672 E33.5377
G1 X169.288 Y160.038 E33.56219
G1 X169.241 Y160.449 E33.58808
G1 X169.293 Y160.849 E33.61331
G1 X169.441 Y161.222 E33.63842
G1 X169.669 Y161.549 E33.66336
G1 X169.975 Y161.814 E33.68868
G1 X170.333 Y161.995 E33.71378
G1 X170.72 Y162.087 E33.73866
G1 X171.123 Y162.085 E33.76388
G1 X171.513 Y161.982 E33.78911
G1 X171.863 Y161.793 E33.814
G1 X172.161 Y161.525 E33.83907
G1 X172.385 Y161.193 E33.86413
G1 X172.524 Y160.816 E33.88927
G1 X172.569 Y160.418 E33.91433
G1 X172.517 Y160.02 E33.93944
G1 X172.37 Y159.646 E33.96458
G1 X172.139 Y159.318 E33.98968
G1 X171.836 Y159.054 E34.01482
G1 X171.48 Y158.873 E34.0398
G1 X171.124 Y158.788 E34.0627
G1 X171.091 Y158.781 E34.06481
G1 X170.688 Y158.783 E34.09003
G1 X170.666 Y158.788 E34.09144
G1 X170.298 Y158.886 E34.11526
M204 S5000
G0 F3600 X159.679 Y164.17
G0 X159.05 Y165.023
G0 X159.369 Y165.137
M204 S500
;TYPE:WALL-OUTER
G1 F900 X159.336 Y165.458 E34.13545
G1 X159.375 Y165.762 E34.15463
G1 X159.483 Y166.049 E34.17381
G1 X159.655 Y166.302 E34.19295
G1 X159.881 Y166.509 E34.21212
G1 X160.148 Y166.658 E34.23125
G1 X160.443 Y166.744 E34.25048
G1 X160.75 Y166.757 E34.2697
G1 X161.052 Y166.699 E34.28894
G1 X161.33 Y166.574 E34.30801
G1 X161.574 Y166.388 E34.3272
G1 X161.768 Y166.151 E34.34637
G1 X161.901 Y165.874 E34.36559
G1 X161.968 Y165.576 E34.3847
G1 X161.965 Y165.269 E34.40391
G1 X161.889 Y164.972 E34.42309
G1 X161.747 Y164.7 E34.44228
G1 X161.548 Y164.468 E34.4614
G1 X161.299 Y164.289 E34.48059
G1 X161.017 Y164.171 E34.49971
G1 X160.714 Y164.122 E34.51892
G1 X160.409 Y164.143 E34.53804
G1 X160.116 Y164.235 E34.55726
G1 X159.852 Y164.392 E34.57647
G1 X159.632 Y164.606 E34.59568
G1 X159.468 Y164.863 E34.61475
G1 X159.369 Y165.137 E34.63298
M204 S5000
G0 F3600 X159.349 Y165.336
G0 X158.867 Y165.286
G0 X158.945 Y160.078
G0 X159.423 Y159.313
G0 X160.16 Y158.895
G0 X160.246 Y159.223
M204 S500
G1 F900 X159.961 Y159.298 E34.65141
G1 X159.703 Y159.437 E34.66975
G1 X159.484 Y159.634 E34.68818
G1 X159.32 Y159.876 E34.70647
G1 X159.219 Y160.143 E34.72432
G1 X159.184 Y160.446 E34.74341
G1 X159.222 Y160.738 E34.76183
G1 X159.331 Y161.012 E34.78028
G1 X159.499 Y161.252 E34.79861
G1 X159.722 Y161.446 E34.8171
G1 X159.985 Y161.579 E34.83554
G1 X160.27 Y161.647 E34.85387
G1 X160.565 Y161.645 E34.87232
G1 X160.85 Y161.57 E34.89076
G1 X161.108 Y161.431 E34.90909
G1 X161.327 Y161.234 E34.92752
G1 X161.491 Y160.991 E34.94586
G1 X161.593 Y160.714 E34.96433
G1 X161.626 Y160.422 E34.98272
G1 X161.588 Y160.131 E35.00108
G1 X161.48 Y159.856 E35.01956
G1 X161.31 Y159.615 E35.03801
G1 X161.088 Y159.422 E35.05642
G1 X160.827 Y159.289 E35.07474
G1 X160.541 Y159.221 E35.09313
G1 X160.246 Y159.223 E35.11159
M204 S5000
G0 F3600 X160.053 Y159.274
G0 X159.798 Y158.886
M204 S500
;TYPE:WALL-INNER
G1 F900 X159.448 Y159.075 E35.13648
G1 X159.15 Y159.343 E35.16155
G1 X158.927 Y159.672 E35.18641
G1 X158.788 Y160.038 E35.21091
G1 X158.741 Y160.449 E35.23679
G1 X158.793 Y160.849 E35.26202
G1 X158.941 Y161.222 E35.28713
G1 X159.169 Y161.549 E35.31207
G1 X159.475 Y161.814 E35.3374
G1 X159.833 Y161.995 E35.36249
G1 X160.22 Y162.087 E35.38738
G1 X160.623 Y162.085 E35.41259
G1 X161.013 Y161.982 E35.43783
G1 X161.363 Y161.793 E35.46271
G1 X161.661 Y161.525 E35.48779
G1 X161.885 Y161.193 E35.51284
G1 X162.024 Y160.816 E35.53798
G1 X162.069 Y160.418 E35.56304
G1 X162.017 Y160.02 E35.58815
G1 X161.87 Y159.646 E35.61329
G1 X161.639 Y159.318 E35.63839
G1 X161.336 Y159.054 E35.66353
G1 X160.98 Y158.873 E35.68852
G1 X160.624 Y158.788 E35.71142
G1 X160.591 Y158.781 E35.71353
G1 X160.188 Y158.783 E35.73874
G1 X160.166 Y158.788 E35.74015
G1 X159.798 Y158.886 E35.76398
M204 S5000
G1 F2400 E32.76398
G0 F3600 X141.266 Y158.178
G0 X140.975 Y143.53
M204 S500
G1 F2400 E35.76398
G1 F900 X140.975 Y143.069 E35.79282
G1 X140.975 Y142.85 E35.80652
G1 X141.194 Y142.85 E35.81539
G1 X179.026 Y142.851 E38.18224
G1 X179.026 Y143.53 E38.22472
G1 X140.975 Y143.53 E40.60528
M204 S5000
G0 F3600 X140.974 Y158.35
M204 S500
G1 F900 X160.165 Y158.35 E41.80592
G1 X160.188 Y158.35 E41.80735
G1 X160.591 Y158.35 E41.83216
G1 X160.625 Y158.35 E41.83426
G1 X170.665 Y158.35 E42.46239
G1 X170.688 Y158.35 E42.46382
G1 X171.091 Y158.35 E42.48863
G1 X171.125 Y158.35 E42.49074
G1 X178.807 Y158.35 E42.97134
G1 X179.026 Y158.35 E42.98504
G1 X179.026 Y158.569 E42.99391
G1 X179.025 Y161.017 E43.14706
G1 X178.686 Y161.096 E43.16884
G1 X172.581 Y162.535 E43.56125
G1 X162.425 Y162.535 E44.19663
G1 X162.425 Y164.28 E44.3058
G1 X162.425 Y164.452 E44.31657
G1 X162.425 Y164.814 E44.33921
G1 X162.425 Y165.211 E44.36405
G1 X162.425 Y165.623 E44.38983
G1 X162.425 Y166.019 E44.4146
G1 X162.425 Y166.389 E44.43775
G1 X162.425 Y166.608 E44.45145
G1 X162.424 Y167.15 E44.48536
G1 X161.917 Y167.15 E44.51708
G1 X161.557 Y167.15 E44.5396
G1 X161.186 Y167.15 E44.56281
G1 X161.036 Y167.15 E44.5722
G1 X161.186 Y167.121 E44.5726
G1 X161.557 Y166.955 E44.5803
G1 X161.843 Y166.737 E44.59687
G1 X161.882 Y166.707 E44.59995
G1 X162.004 Y166.558 E44.612
G1 X162.142 Y166.389 E44.62336
G1 X162.319 Y166.019 E44.63578
G1 X162.408 Y165.623 E44.63971
G1 X162.404 Y165.211 E44.64083
G1 X162.303 Y164.814 E44.64547
G1 X162.114 Y164.452 E44.65915
G1 X162.002 Y164.322 E44.66841
G1 X161.848 Y164.142 E44.68323
G1 X161.515 Y163.902 E44.70891
G1 X161.139 Y163.745 E44.7344
G1 X160.734 Y163.68 E44.76007
G1 X160.327 Y163.708 E44.78559
G1 X159.935 Y163.831 E44.81129
G1 X159.582 Y164.04 E44.83696
G1 X159.289 Y164.326 E44.86257
G1 X159.267 Y164.36 E44.86511
G1 X159.071 Y164.668 E44.88795
G1 X158.937 Y165.038 E44.91257
G1 X158.893 Y165.464 E44.93936
G1 X158.945 Y165.869 E44.96491
G1 X159.09 Y166.253 E44.99059
G1 X159.267 Y166.514 E45.01031
G1 X159.32 Y166.592 E45.01621
G1 X159.473 Y166.732 E45.02919
G1 X159.622 Y166.868 E45.04181
G1 X159.977 Y167.066 E45.06724
G1 X160.265 Y167.15 E45.08601
G1 X159.977 Y167.15 E45.08756
G1 X159.622 Y167.15 E45.09633
G1 X159.42 Y167.15 E45.10686
G1 X158.845 Y167.15 E45.14284
G1 X158.845 Y166.568 E45.17925
G1 X158.845 Y166.253 E45.19479
G1 X158.845 Y165.869 E45.20399
G1 X158.845 Y165.464 E45.20823
G1 X158.845 Y165.038 E45.21246
G1 X158.845 Y164.668 E45.2206
G1 X158.845 Y164.303 E45.23812
G1 X158.845 Y162.535 E45.34873
G1 X140.974 Y162.534 E46.46678
G1 X140.974 Y158.35 E46.72855
M204 S5000
G0 F3600 X141.414 Y158.79
M204 S500
G1 F900 X158.65 Y158.79 E47.80687
G1 X158.816 Y158.79 E47.81725
G1 X159.107 Y158.79 E47.83546
G1 X158.816 Y159.052 E47.84594
G1 X158.723 Y159.189 E47.85444
G1 X158.534 Y159.468 E47.87552
G1 X158.357 Y159.933 E47.90665
G1 X158.298 Y160.452 E47.93933
G1 X158.364 Y160.96 E47.97138
G1 X158.551 Y161.432 E48.00314
G1 X158.736 Y161.698 E48.02341
G1 X158.839 Y161.846 E48.03469
G1 X159.127 Y162.095 E48.05851
G1 X158.839 Y162.095 E48.06248
G1 X158.658 Y162.095 E48.07164
G1 X141.414 Y162.094 E49.15046
G1 X141.414 Y158.79 E49.35717
M204 S5000
G0 F3600 X161.703 Y158.79
M204 S500
G1 F900 X161.968 Y158.79 E49.37375
G1 X162.168 Y158.79 E49.38626
G1 X169.15 Y158.79 E49.82307
G1 X169.316 Y158.79 E49.83345
G1 X169.607 Y158.79 E49.85166
G1 X169.316 Y159.052 E49.86213
G1 X169.223 Y159.189 E49.87064
G1 X169.034 Y159.468 E49.89172
G1 X168.857 Y159.933 E49.92285
G1 X168.798 Y160.452 E49.95553
G1 X168.864 Y160.96 E49.98758
G1 X169.051 Y161.432 E50.01934
G1 X169.236 Y161.698 E50.03961
G1 X169.339 Y161.846 E50.05089
G1 X169.627 Y162.095 E50.07471
G1 X169.339 Y162.095 E50.07868
G1 X169.158 Y162.095 E50.08783
G1 X162.135 Y162.095 E50.52721
G1 X161.985 Y162.095 E50.53659
G1 X161.985 Y162.155 E50.54035
G1 X161.985 Y162.215 E50.5441
G1 X161.985 Y163.377 E50.6168
G1 X161.985 Y163.515 E50.62543
G1 X161.985 Y163.698 E50.63688
G1 X161.731 Y163.515 E50.64657
G1 X161.604 Y163.462 E50.65367
G1 X161.26 Y163.319 E50.67697
G1 X160.754 Y163.238 E50.70903
G1 X160.245 Y163.273 E50.74095
G1 X159.755 Y163.426 E50.77307
G1 X159.623 Y163.504 E50.78266
G1 X159.312 Y163.688 E50.80527
G1 X159.285 Y163.714 E50.80761
G1 X159.285 Y163.688
G1 X159.285 Y163.327 E50.82099
G1 X159.285 Y162.438 E50.87661
G1 X159.285 Y162.411 E50.8783
G1 X159.285 Y162.211 E50.89081
