;FLAVOR:Marlin
;TIME:14082
;Filament used: 13.8408m
;Layer height: 0.2
;MINX:86.817
;MINY:98.438
;MINZ:0.3
;MAXX:233.162
;MAXY:211.84
;MAXZ:21.4
;Generated with Cura_SteamEngine 4.9.1
M140 S85
M105
M190 S85
M104 S235
M105
M109 S235
M82 ;absolute extrusion mode
G28 ;Home
G1 Z15.0 F6000 ;Move the platform down 15mm
;Prime the extruder
G92 E0
G1 F200 E3
G92 E0
G92 E0
G92 E0
G1 F2400 E-3
;LAYER_COUNT:104
;LAYER:0
M107
M204 S5000
M205 X5 Y5
G1 F600 Z0.8
G0 F3600 X137.795 Y106.646 Z0.8
M204 S500
;TYPE:SKIRT
G1 F600 Z0.3
G1 F2400 E0
G1 F1200 X137.929 Y106.518 E0.01159
G1 X139.453 Y105.118 E0.14106
G1 X139.731 Y104.884 E0.1638
G1 X141.375 Y103.618 E0.29361
G1 X141.675 Y103.407 E0.31656
G1 X143.424 Y102.29 E0.44639
G1 X143.738 Y102.108 E0.4691
G1 X145.577 Y101.147 E0.59891
G1 X145.91 Y100.992 E0.62189
G1 X147.824 Y100.197 E0.75155
G1 X148.168 Y100.071 E0.77447
G1 X150.147 Y99.446 E0.90431
G1 X150.5 Y99.351 E0.92718
G1 X152.527 Y98.901 E1.05708
G1 X152.885 Y98.838 E1.07982
G1 X154.941 Y98.566 E1.20957
G1 X155.305 Y98.534 E1.23243
G1 X157.373 Y98.443 E1.36194
G1 X157.557 Y98.439 E1.37345
G1 X223.713 Y98.438 E5.51232
G1 X224.124 Y98.458 E5.53807
G1 X225.034 Y98.548 E5.59528
G1 X225.831 Y98.706 E5.64611
G1 X226.712 Y98.972 E5.70368
G1 X227.47 Y99.285 E5.75499
G1 X228.286 Y99.72 E5.81284
G1 X228.962 Y100.17 E5.86365
G1 X229.673 Y100.75 E5.92105
G1 X230.254 Y101.327 E5.97228
G1 X230.842 Y102.039 E6.03005
G1 X231.295 Y102.711 E6.08075
G1 X231.735 Y103.524 E6.13859
G1 X232.053 Y104.281 E6.18996
G1 X232.324 Y105.159 E6.24744
G1 X232.487 Y105.957 E6.2984
G1 X232.582 Y106.865 E6.35552
G1 X232.605 Y107.274 E6.38114
G1 X232.745 Y129.502 E7.77181
G1 X232.747 Y130.048 E7.80597
G1 X232.78 Y135.054 E8.11916
G1 X232.782 Y135.6 E8.15332
G1 X232.815 Y140.606 E8.46651
G1 X232.817 Y141.152 E8.50067
G1 X232.85 Y146.158 E8.81387
G1 X232.886 Y152.256 E9.19538
G1 X232.919 Y157.262 E9.50857
G1 X232.921 Y157.808 E9.54273
G1 X232.954 Y162.813 E9.85586
G1 X232.99 Y168.911 E10.23737
G1 X233.023 Y173.917 E10.55057
G1 X233.025 Y174.463 E10.58473
G1 X233.058 Y179.469 E10.89792
G1 X233.06 Y180.015 E10.93208
G1 X233.093 Y185.021 E11.24527
G1 X233.129 Y191.119 E11.62678
G1 X233.162 Y196.122 E11.93979
G1 X233.139 Y196.592 E11.96923
G1 X233.064 Y197.298 E12.01365
G1 X232.963 Y197.867 E12.0498
G1 X232.864 Y198.202 E12.07166
G1 X232.632 Y198.884 E12.11672
G1 X232.409 Y199.417 E12.15287
G1 X232.227 Y199.742 E12.17618
G1 X231.846 Y200.356 E12.22138
G1 X231.508 Y200.825 E12.25755
G1 X231.279 Y201.078 E12.2789
G1 X230.779 Y201.588 E12.32358
G1 X230.347 Y201.972 E12.35974
G1 X230.043 Y202.186 E12.383
G1 X229.435 Y202.574 E12.42813
G1 X228.927 Y202.85 E12.46429
G1 X228.61 Y202.98 E12.48573
G1 X227.934 Y203.225 E12.53071
G1 X227.379 Y203.384 E12.56683
G1 X226.739 Y203.482 E12.60734
G1 X225.811 Y203.561 E12.66561
G1 X222.814 Y203.566 E12.85311
G1 X219.757 Y203.561 E13.04436
G1 X213.735 Y203.561 E13.42111
G1 X213.756 Y203.781 E13.43494
G1 X213.756 Y207.659 E13.67755
G1 X213.716 Y208.236 E13.71374
G1 X213.597 Y208.801 E13.74986
G1 X213.401 Y209.345 E13.78604
G1 X213.132 Y209.856 E13.82217
G1 X212.795 Y210.326 E13.85835
G1 X212.396 Y210.744 E13.8945
G1 X211.944 Y211.104 E13.93065
G1 X211.446 Y211.397 E13.9668
G1 X210.913 Y211.62 E14.00295
G1 X210.353 Y211.766 E14.03915
G1 X209.576 Y211.839 E14.08798
G1 X199.576 Y211.84 E14.7136
G1 X199 Y211.8 E14.74972
G1 X198.434 Y211.681 E14.78591
G1 X197.891 Y211.485 E14.82202
G1 X197.379 Y211.216 E14.85821
G1 X196.91 Y210.879 E14.89434
G1 X196.491 Y210.481 E14.93049
G1 X196.132 Y210.028 E14.96665
G1 X195.838 Y209.53 E15.00284
G1 X195.616 Y208.997 E15.03896
G1 X195.469 Y208.438 E15.07512
G1 X195.396 Y207.66 E15.12401
G1 X195.396 Y203.781 E15.36669
G1 X195.411 Y203.561 E15.38048
G1 X187.439 Y203.561 E15.87923
G1 X186.891 Y203.525 E15.91359
G1 X186.036 Y203.412 E15.96754
G1 X185.47 Y203.297 E16.00368
G1 X184.987 Y203.131 E16.03563
G1 X184.213 Y202.811 E16.08803
G1 X183.695 Y202.554 E16.1242
G1 X183.275 Y202.272 E16.15585
G1 X182.605 Y201.761 E16.20857
G1 X182.171 Y201.379 E16.24474
G1 X181.778 Y200.92 E16.28255
G1 X181.313 Y200.313 E16.33038
G1 X180.994 Y199.832 E16.36649
G1 X180.765 Y199.363 E16.39914
G1 X180.446 Y198.59 E16.45146
G1 X180.263 Y198.041 E16.48767
G1 X180.167 Y197.55 E16.51897
G1 X180.053 Y196.699 E16.57268
G1 X180.016 Y196.144 E16.60748
G1 X180.016 Y195.991 E16.61705
G1 X174.142 Y195.991 E16.98454
G1 X174.163 Y196.211 E16.99837
G1 X174.163 Y200.089 E17.24099
G1 X174.123 Y200.666 E17.27717
G1 X174.004 Y201.231 E17.3133
G1 X173.808 Y201.775 E17.34947
G1 X173.539 Y202.286 E17.3856
G1 X173.202 Y202.756 E17.42178
G1 X172.803 Y203.174 E17.45793
G1 X172.351 Y203.534 E17.49408
G1 X171.853 Y203.827 E17.53023
G1 X171.32 Y204.05 E17.56638
G1 X170.76 Y204.196 E17.60259
G1 X169.983 Y204.269 E17.65141
G1 X159.983 Y204.27 E18.27703
G1 X159.407 Y204.23 E18.31316
G1 X158.841 Y204.111 E18.34934
G1 X158.298 Y203.915 E18.38546
G1 X157.786 Y203.646 E18.42164
G1 X157.317 Y203.309 E18.45777
G1 X156.898 Y202.911 E18.49393
G1 X156.539 Y202.458 E18.53009
G1 X156.245 Y201.96 E18.56627
G1 X156.023 Y201.427 E18.60239
G1 X155.876 Y200.868 E18.63855
G1 X155.803 Y200.09 E18.68744
G1 X155.803 Y196.211 E18.93012
G1 X155.818 Y195.991 E18.94391
G1 X147.348 Y195.991 E19.47382
G1 X147.212 Y195.989 E19.48233
G1 X143.018 Y195.852 E19.74485
G1 X142.745 Y195.834 E19.76197
G1 X138.978 Y195.464 E19.99878
G1 X138.302 Y195.387 E20.04134
G1 X134.163 Y194.706 E20.30377
G1 X133.891 Y194.651 E20.32113
G1 X129.811 Y193.698 E20.58326
G1 X129.549 Y193.628 E20.60022
G1 X126.185 Y192.608 E20.82014
G1 X126.167 Y192.679 E20.82473
G1 X125.977 Y193.164 E20.85731
G1 X124.248 Y196.87 E21.11316
G1 X123.968 Y197.376 E21.14934
G1 X123.621 Y197.838 E21.18549
G1 X123.214 Y198.248 E21.22163
G1 X122.754 Y198.598 E21.25779
G1 X122.25 Y198.881 E21.29396
G1 X121.711 Y199.091 E21.33015
G1 X121.149 Y199.226 E21.36631
G1 X120.574 Y199.281 E21.40244
G1 X119.997 Y199.257 E21.43857
G1 X119.428 Y199.154 E21.47475
G1 X118.695 Y198.892 E21.52345
G1 X109.634 Y194.67 E22.14884
G1 X109.128 Y194.39 E22.18502
G1 X108.666 Y194.043 E22.22117
G1 X108.255 Y193.636 E22.25736
G1 X107.906 Y193.176 E22.29348
G1 X107.622 Y192.672 E22.32968
G1 X107.411 Y192.134 E22.36583
G1 X107.277 Y191.572 E22.40198
G1 X107.221 Y190.997 E22.43812
G1 X107.245 Y190.42 E22.47425
G1 X107.348 Y189.851 E22.51043
G1 X107.612 Y189.111 E22.55958
G1 X109.391 Y185.306 E22.82236
G1 X109.672 Y184.8 E22.85857
G1 X109.751 Y184.695 E22.8668
G1 X109.311 Y184.411 E22.89956
G1 X105.904 Y181.968 E23.16184
G1 X105.688 Y181.802 E23.17889
G1 X102.447 Y179.142 E23.4412
G1 X102.243 Y178.963 E23.45818
G1 X99.179 Y176.096 E23.7207
G1 X99.078 Y175.998 E23.7295
G1 X95.444 Y172.36 E24.0512
G1 X90.953 Y167.877 E24.4482
G1 X88.912 Y165.831 E24.629
G1 X88.547 Y165.416 E24.66358
G1 X88.083 Y164.812 E24.71123
G1 X87.764 Y164.331 E24.74734
G1 X87.54 Y163.875 E24.77912
G1 X87.243 Y163.163 E24.82739
G1 X87.058 Y162.616 E24.86351
G1 X86.958 Y162.112 E24.89566
G1 X86.854 Y161.34 E24.94439
G1 X86.817 Y160.763 E24.98056
G1 X86.852 Y160.239 E25.01342
G1 X86.953 Y159.468 E25.06207
G1 X87.068 Y158.902 E25.0982
G1 X87.234 Y158.418 E25.13021
G1 X87.528 Y157.705 E25.17846
G1 X87.784 Y157.187 E25.21461
G1 X88.068 Y156.763 E25.24654
G1 X88.531 Y156.156 E25.2943
G1 X88.893 Y155.741 E25.32875
G1 X137.795 Y106.646 E29.66398
M204 S5000
G0 F3600 X138.107 Y106.957
M204 S500
G1 F1200 X138.227 Y106.842 E29.67437
G1 X139.751 Y105.442 E29.80384
G1 X139.999 Y105.233 E29.82413
G1 X141.643 Y103.967 E29.95395
G1 X141.912 Y103.778 E29.97452
G1 X143.661 Y102.661 E30.10435
G1 X143.942 Y102.498 E30.12467
G1 X145.781 Y101.537 E30.25449
G1 X146.078 Y101.398 E30.275
G1 X147.992 Y100.603 E30.40467
G1 X148.301 Y100.491 E30.42523
G1 X150.28 Y99.866 E30.55507
G1 X150.595 Y99.781 E30.57548
G1 X152.622 Y99.331 E30.70538
G1 X152.942 Y99.274 E30.72571
G1 X154.998 Y99.002 E30.85546
G1 X155.325 Y98.974 E30.876
G1 X157.393 Y98.883 E31.0055
G1 X157.557 Y98.879 E31.01576
G1 X223.713 Y98.878 E35.15464
G1 X224.081 Y98.896 E35.17769
G1 X224.991 Y98.986 E35.2349
G1 X225.704 Y99.128 E35.28038
G1 X226.585 Y99.394 E35.33795
G1 X227.263 Y99.674 E35.38385
G1 X228.079 Y100.109 E35.4417
G1 X228.684 Y100.511 E35.48714
G1 X229.395 Y101.091 E35.54455
G1 X229.915 Y101.607 E35.59038
G1 X230.503 Y102.319 E35.64815
G1 X230.908 Y102.921 E35.69354
G1 X231.348 Y103.734 E35.75138
G1 X231.633 Y104.411 E35.79733
G1 X231.904 Y105.289 E35.85482
G1 X232.05 Y106.003 E35.90041
G1 X232.145 Y106.911 E35.95753
G1 X232.165 Y107.276 E35.9804
G1 X232.305 Y129.504 E37.37106
G1 X232.307 Y130.051 E37.40528
G1 X232.34 Y135.056 E37.71841
G1 X232.342 Y135.603 E37.75263
G1 X232.375 Y140.608 E38.06577
G1 X232.377 Y141.155 E38.09999
G1 X232.41 Y146.16 E38.41312
G1 X232.446 Y152.259 E38.79469
G1 X232.479 Y157.264 E39.10782
G1 X232.481 Y157.811 E39.14205
G1 X232.514 Y162.815 E39.45511
G1 X232.55 Y168.914 E39.83669
G1 X232.583 Y173.919 E40.14982
G1 X232.585 Y174.466 E40.18404
G1 X232.618 Y179.471 E40.49717
G1 X232.62 Y180.018 E40.53139
G1 X232.653 Y185.023 E40.84453
G1 X232.689 Y191.122 E41.2261
G1 X232.722 Y196.125 E41.53911
G1 X232.701 Y196.545 E41.56541
G1 X232.626 Y197.251 E41.60983
G1 X232.529 Y197.789 E41.64403
G1 X232.448 Y198.06 E41.66173
G1 X232.216 Y198.742 E41.7068
G1 X232.002 Y199.246 E41.74105
G1 X231.853 Y199.51 E41.76002
G1 X231.472 Y200.124 E41.80523
G1 X231.151 Y200.566 E41.8394
G1 X230.965 Y200.77 E41.85667
G1 X230.465 Y201.28 E41.90136
G1 X230.054 Y201.642 E41.93562
G1 X229.806 Y201.815 E41.95454
G1 X229.198 Y202.203 E41.99966
G1 X228.717 Y202.462 E42.03384
G1 X228.46 Y202.566 E42.05119
G1 X227.784 Y202.811 E42.09617
G1 X227.012 Y203.001 E42.14591
G1 X226.212 Y203.099 E42.19633
G1 X225.81 Y203.121 E42.22152
G1 X222.815 Y203.126 E42.40889
G1 X219.758 Y203.121 E42.60015
G1 X213.247 Y203.121 E43.00749
G1 X213.316 Y203.781 E43.04901
G1 X213.316 Y207.659 E43.29162
G1 X213.276 Y208.204 E43.32581
G1 X213.157 Y208.738 E43.36004
G1 X212.962 Y209.248 E43.3942
G1 X212.694 Y209.725 E43.42843
G1 X212.359 Y210.157 E43.46263
G1 X211.966 Y210.536 E43.49679
G1 X211.521 Y210.854 E43.53101
G1 X211.034 Y211.103 E43.56523
G1 X210.517 Y211.279 E43.59939
G1 X209.979 Y211.377 E43.63361
G1 X209.576 Y211.399 E43.65886
G1 X199.576 Y211.4 E44.28448
G1 X199.031 Y211.36 E44.31867
G1 X198.498 Y211.241 E44.35283
G1 X197.987 Y211.046 E44.38705
G1 X197.511 Y210.778 E44.42123
G1 X197.078 Y210.444 E44.45544
G1 X196.699 Y210.05 E44.48964
G1 X196.381 Y209.605 E44.52386
G1 X196.132 Y209.118 E44.55808
G1 X195.956 Y208.601 E44.59225
G1 X195.858 Y208.063 E44.62646
G1 X195.836 Y207.66 E44.65171
G1 X195.836 Y203.781 E44.89439
G1 X195.876 Y203.236 E44.92858
G1 X195.902 Y203.121 E44.93595
G1 X187.439 Y203.121 E45.46542
G1 X186.949 Y203.089 E45.49614
G1 X186.094 Y202.976 E45.55009
G1 X185.559 Y202.865 E45.58428
G1 X185.155 Y202.724 E45.61105
G1 X184.381 Y202.404 E45.66345
G1 X183.893 Y202.159 E45.69761
G1 X183.542 Y201.922 E45.72411
G1 X182.872 Y201.411 E45.77682
G1 X182.463 Y201.048 E45.81103
G1 X182.132 Y200.659 E45.84299
G1 X181.662 Y200.045 E45.89136
G1 X181.362 Y199.589 E45.92551
G1 X181.172 Y199.195 E45.95288
G1 X180.853 Y198.422 E46.0052
G1 X180.682 Y197.903 E46.03938
G1 X180.603 Y197.492 E46.06557
G1 X180.489 Y196.641 E46.11928
G1 X180.456 Y195.798 E46.17206
G1 X180.416 Y195.581 E46.18587
G1 X180.188 Y195.551 E46.20026
G1 X173.654 Y195.551 E46.60904
G1 X173.723 Y196.211 E46.65055
G1 X173.723 Y200.089 E46.89317
G1 X173.683 Y200.634 E46.92736
G1 X173.564 Y201.168 E46.96159
G1 X173.369 Y201.678 E46.99575
G1 X173.101 Y202.155 E47.02998
G1 X172.766 Y202.587 E47.06418
G1 X172.373 Y202.966 E47.09833
G1 X171.928 Y203.284 E47.13255
G1 X171.441 Y203.533 E47.16677
G1 X170.924 Y203.709 E47.20094
G1 X170.386 Y203.807 E47.23515
G1 X169.983 Y203.829 E47.2604
G1 X159.983 Y203.83 E47.88603
G1 X159.438 Y203.79 E47.92021
G1 X158.905 Y203.671 E47.95438
G1 X158.394 Y203.476 E47.9886
G1 X157.918 Y203.208 E48.02277
G1 X157.485 Y202.874 E48.05699
G1 X157.106 Y202.48 E48.09119
G1 X156.788 Y202.035 E48.12541
G1 X156.539 Y201.548 E48.15963
G1 X156.363 Y201.031 E48.19379
G1 X156.265 Y200.493 E48.22801
G1 X156.243 Y200.09 E48.25326
G1 X156.243 Y196.211 E48.49593
G1 X156.283 Y195.666 E48.53012
G1 X156.309 Y195.551 E48.5375
G1 X147.348 Y195.551 E49.09812
G1 X147.226 Y195.549 E49.10575
G1 X143.032 Y195.412 E49.36828
G1 X142.788 Y195.396 E49.38358
G1 X139.023 Y195.026 E49.62026
G1 X138.374 Y194.952 E49.66113
G1 X134.235 Y194.271 E49.92355
G1 X133.991 Y194.223 E49.93911
G1 X129.911 Y193.27 E50.20124
G1 X129.677 Y193.207 E50.2164
G1 X125.861 Y192.05 E50.46587
G1 X125.81 Y192.332 E50.4838
G1 X125.578 Y192.978 E50.52674
G1 X123.849 Y196.684 E50.78259
G1 X123.583 Y197.161 E50.81675
G1 X123.249 Y197.595 E50.85102
G1 X122.856 Y197.975 E50.88522
G1 X122.412 Y198.293 E50.91938
G1 X121.926 Y198.544 E50.9536
G1 X121.409 Y198.721 E50.98779
G1 X120.872 Y198.82 E51.02195
G1 X120.325 Y198.841 E51.0562
G1 X119.782 Y198.781 E51.09038
G1 X119.253 Y198.643 E51.12458
G1 X118.88 Y198.493 E51.14973
G1 X109.819 Y194.271 E51.77513
G1 X109.342 Y194.005 E51.8093
G1 X108.909 Y193.671 E51.84351
G1 X108.529 Y193.279 E51.87767
G1 X108.21 Y192.835 E51.91187
G1 X107.959 Y192.349 E51.94609
G1 X107.782 Y191.832 E51.98028
G1 X107.682 Y191.294 E52.01451
G1 X107.661 Y190.748 E52.0487
G1 X107.721 Y190.205 E52.08288
G1 X107.859 Y189.676 E52.11708
G1 X108.011 Y189.297 E52.14263
G1 X109.79 Y185.492 E52.40541
G1 X110.057 Y185.015 E52.43961
G1 X110.395 Y184.578 E52.47417
G1 X109.772 Y184.19 E52.52009
G1 X109.568 Y184.053 E52.53546
G1 X106.161 Y181.61 E52.79775
G1 X105.967 Y181.462 E52.81301
G1 X102.726 Y178.802 E53.07532
G1 X102.544 Y178.642 E53.09049
G1 X99.48 Y175.775 E53.35301
G1 X99.389 Y175.687 E53.36093
G1 X95.758 Y172.053 E53.68232
G1 X91.265 Y167.566 E54.07958
G1 X89.223 Y165.52 E54.26042
G1 X88.896 Y165.148 E54.29141
G1 X88.432 Y164.544 E54.33906
G1 X88.132 Y164.088 E54.37321
G1 X87.946 Y163.706 E54.39979
G1 X87.649 Y162.994 E54.44805
G1 X87.476 Y162.475 E54.48228
G1 X87.394 Y162.053 E54.50918
G1 X87.29 Y161.281 E54.55791
G1 X87.257 Y160.736 E54.59207
G1 X87.289 Y160.296 E54.61967
G1 X87.39 Y159.525 E54.66832
G1 X87.5 Y158.99 E54.70249
G1 X87.64 Y158.585 E54.7293
G1 X87.934 Y157.872 E54.77755
G1 X88.179 Y157.384 E54.81171
G1 X88.418 Y157.03 E54.83843
G1 X88.881 Y156.423 E54.88619
G1 X89.205 Y156.052 E54.91701
G1 X138.107 Y106.957 E59.25223
M204 S5000
G0 F3600 X138.419 Y107.267
M204 S500
G1 F1200 X138.525 Y107.166 E59.26139
G1 X140.049 Y105.766 E59.39086
G1 X140.268 Y105.581 E59.4088
G1 X141.912 Y104.315 E59.53861
G1 X142.149 Y104.149 E59.55671
G1 X143.898 Y103.032 E59.68655
G1 X144.146 Y102.888 E59.70449
G1 X145.985 Y101.927 E59.8343
G1 X146.247 Y101.804 E59.85241
G1 X148.161 Y101.009 E59.98207
G1 X148.433 Y100.91 E60.00018
G1 X150.412 Y100.285 E60.13002
G1 X150.691 Y100.21 E60.14809
G1 X152.718 Y99.76 E60.278
G1 X153 Y99.711 E60.2959
G1 X155.056 Y99.439 E60.42565
G1 X155.344 Y99.413 E60.44374
G1 X157.412 Y99.322 E60.57325
G1 X157.557 Y99.319 E60.58232
G1 X223.713 Y99.318 E64.72119
G1 X224.038 Y99.334 E64.74155
G1 X224.948 Y99.424 E64.79876
G1 X225.577 Y99.549 E64.83888
G1 X226.458 Y99.815 E64.89646
G1 X227.056 Y100.062 E64.93693
G1 X227.872 Y100.497 E64.99479
G1 X228.406 Y100.852 E65.0349
G1 X229.117 Y101.432 E65.09231
G1 X229.575 Y101.888 E65.13274
G1 X230.163 Y102.6 E65.19051
G1 X230.521 Y103.13 E65.23053
G1 X230.961 Y103.943 E65.28836
G1 X231.212 Y104.541 E65.32893
G1 X231.483 Y105.419 E65.38642
G1 X231.612 Y106.049 E65.42665
G1 X231.707 Y106.957 E65.48377
G1 X231.725 Y107.279 E65.50395
G1 X231.865 Y129.505 E66.89448
G1 X231.867 Y130.054 E66.92883
G1 X231.9 Y135.057 E67.24184
G1 X231.902 Y135.606 E67.27618
G1 X231.935 Y140.609 E67.58919
G1 X231.937 Y141.158 E67.62354
G1 X231.97 Y146.161 E67.93654
G1 X232.006 Y152.262 E68.31824
G1 X232.039 Y157.265 E68.63125
G1 X232.041 Y157.814 E68.66559
G1 X232.074 Y162.816 E68.97854
G1 X232.11 Y168.917 E69.36024
G1 X232.143 Y173.92 E69.67324
G1 X232.145 Y174.469 E69.70759
G1 X232.178 Y179.472 E70.0206
G1 X232.18 Y180.021 E70.05494
G1 X232.213 Y185.024 E70.36795
