;FLAVOR:Marlin
;TIME:14107
;Filament used: 13.8537m
;Layer height: 0.2
;MINX:86.839
;MINY:98.438
;MINZ:0.3
;MAXX:233.184
;MAXY:211.84
;MAXZ:21.4
;Generated with Cura_SteamEngine 4.9.1
M140 S85
M105
M190 S85
M104 S235
M105
M109 S235
M82 ;absolute extrusion mode
G28 ;Home
G1 Z15.0 F6000 ;Move the platform down 15mm
;Prime the extruder
G92 E0
G1 F200 E3
G92 E0
G92 E0
G92 E0
G1 F2400 E-3
;LAYER_COUNT:104
;LAYER:0
M107
M204 S5000
M205 X5 Y5
G1 F600 Z0.8
G0 F3600 X90.323 Y100.752 Z0.8
M204 S500
;TYPE:SKIRT
G1 F600 Z0.3
G1 F2400 E0
G1 F1200 X91.036 Y100.17 E0.05758
G1 X91.713 Y99.719 E0.10847
G1 X92.529 Y99.284 E0.16633
G1 X93.287 Y98.971 E0.21763
G1 X94.168 Y98.705 E0.27521
G1 X94.97 Y98.547 E0.32635
G1 X95.881 Y98.458 E0.38361
G1 X96.287 Y98.438 E0.40904
G1 X162.443 Y98.439 E4.54791
G1 X162.625 Y98.443 E4.5593
G1 X164.692 Y98.533 E4.68874
G1 X165.058 Y98.565 E4.71173
G1 X167.116 Y98.837 E4.8416
G1 X167.474 Y98.9 E4.86434
G1 X169.501 Y99.35 E4.99424
G1 X169.854 Y99.445 E5.01711
G1 X171.833 Y100.07 E5.14695
G1 X172.178 Y100.196 E5.16993
G1 X174.091 Y100.991 E5.29954
G1 X174.422 Y101.146 E5.3224
G1 X176.26 Y102.106 E5.45213
G1 X176.574 Y102.288 E5.47484
G1 X178.325 Y103.406 E5.60481
G1 X178.627 Y103.618 E5.62789
G1 X180.269 Y104.883 E5.75757
G1 X180.547 Y105.117 E5.7803
G1 X182.072 Y106.519 E5.9099
G1 X182.205 Y106.646 E5.92141
G1 X231.107 Y155.741 E10.25663
G1 X231.462 Y156.147 E10.29037
G1 X231.926 Y156.752 E10.33807
G1 X232.245 Y157.234 E10.37423
G1 X232.499 Y157.776 E10.41168
G1 X232.765 Y158.411 E10.45475
G1 X232.949 Y158.959 E10.49092
G1 X233.049 Y159.477 E10.52392
G1 X233.149 Y160.249 E10.57263
G1 X233.184 Y160.826 E10.60879
G1 X233.133 Y161.434 E10.64696
G1 X233.122 Y161.503 E10.65133
G1 X233.044 Y162.098 E10.68888
G1 X232.93 Y162.665 E10.72506
G1 X232.759 Y163.161 E10.75788
G1 X232.462 Y163.874 E10.80621
G1 X232.203 Y164.391 E10.84238
G1 X231.915 Y164.817 E10.87455
G1 X231.45 Y165.421 E10.92224
G1 X231.097 Y165.824 E10.95576
G1 X229.039 Y167.886 E11.13802
G1 X227.524 Y169.395 E11.2718
G1 X220.92 Y175.999 E11.8561
G1 X220.821 Y176.094 E11.86468
G1 X217.759 Y178.961 E12.12711
G1 X217.554 Y179.141 E12.14418
G1 X214.312 Y181.802 E12.40658
G1 X214.096 Y181.968 E12.42362
G1 X210.689 Y184.411 E12.6859
G1 X210.248 Y184.695 E12.71872
G1 X210.346 Y184.827 E12.72901
G1 X210.609 Y185.305 E12.76314
G1 X212.387 Y189.109 E13.02584
G1 X212.595 Y189.648 E13.06198
G1 X212.726 Y190.211 E13.09815
G1 X212.779 Y190.787 E13.13433
G1 X212.752 Y191.364 E13.17047
G1 X212.645 Y191.932 E13.20663
G1 X212.461 Y192.48 E13.2428
G1 X212.204 Y192.997 E13.27892
G1 X211.877 Y193.474 E13.3151
G1 X211.488 Y193.901 E13.35124
G1 X211.043 Y194.27 E13.3874
G1 X210.366 Y194.668 E13.43654
G1 X201.303 Y198.893 E14.06212
G1 X200.764 Y199.1 E14.09825
G1 X200.201 Y199.231 E14.13441
G1 X199.625 Y199.283 E14.17059
G1 X199.048 Y199.255 E14.20673
G1 X198.48 Y199.148 E14.24289
G1 X197.932 Y198.964 E14.27906
G1 X197.415 Y198.706 E14.31521
G1 X196.939 Y198.378 E14.35137
G1 X196.512 Y197.989 E14.38751
G1 X196.143 Y197.544 E14.42368
G1 X195.749 Y196.87 E14.47252
G1 X194.021 Y193.164 E14.72834
G1 X193.813 Y192.625 E14.76448
G1 X193.809 Y192.61 E14.76546
G1 X190.451 Y193.628 E14.98498
G1 X190.188 Y193.699 E15.00202
G1 X186.108 Y194.651 E15.26414
G1 X185.838 Y194.704 E15.28135
G1 X181.699 Y195.386 E15.54379
G1 X181.431 Y195.422 E15.5607
G1 X177.259 Y195.835 E15.82299
G1 X176.558 Y195.864 E15.86688
G1 X172.792 Y195.99 E16.10263
G1 X172.653 Y195.992 E16.11132
G1 X164.176 Y195.992 E16.64166
G1 X164.197 Y196.212 E16.65549
G1 X164.197 Y200.089 E16.89804
G1 X164.157 Y200.666 E16.93423
G1 X164.038 Y201.231 E16.97035
G1 X163.842 Y201.775 E17.00653
G1 X163.573 Y202.286 E17.04266
G1 X163.236 Y202.756 E17.07884
G1 X162.837 Y203.174 E17.11499
G1 X162.385 Y203.534 E17.15114
G1 X161.887 Y203.827 E17.18729
G1 X161.354 Y204.05 E17.22344
G1 X160.794 Y204.196 E17.25964
G1 X160.017 Y204.269 E17.30847
G1 X150.018 Y204.27 E17.93403
G1 X149.442 Y204.23 E17.97015
G1 X148.876 Y204.111 E18.00633
G1 X148.333 Y203.915 E18.04245
G1 X147.821 Y203.646 E18.07864
G1 X147.352 Y203.309 E18.11477
G1 X146.933 Y202.911 E18.15092
G1 X146.574 Y202.458 E18.18708
G1 X146.28 Y201.96 E18.22326
G1 X146.058 Y201.427 E18.25938
G1 X145.911 Y200.868 E18.29555
G1 X145.838 Y200.091 E18.34437
G1 X145.837 Y196.213 E18.58699
G1 X145.852 Y195.992 E18.60085
G1 X139.983 Y195.992 E18.96802
G1 X139.983 Y196.14 E18.97728
G1 X139.947 Y196.688 E19.01164
G1 X139.834 Y197.543 E19.0656
G1 X139.719 Y198.109 E19.10173
G1 X139.554 Y198.59 E19.13355
G1 X139.235 Y199.363 E19.18586
G1 X138.978 Y199.88 E19.22198
G1 X138.688 Y200.312 E19.25453
G1 X138.175 Y200.981 E19.30728
G1 X137.793 Y201.414 E19.3434
G1 X137.398 Y201.757 E19.37613
G1 X136.73 Y202.268 E19.42875
G1 X136.247 Y202.587 E19.46496
G1 X135.793 Y202.808 E19.49655
G1 X135.02 Y203.129 E19.54892
G1 X134.472 Y203.314 E19.5851
G1 X133.965 Y203.413 E19.61742
G1 X133.11 Y203.526 E19.67138
G1 X132.562 Y203.562 E19.70573
G1 X124.581 Y203.562 E20.20504
G1 X124.602 Y203.78 E20.21874
G1 X124.604 Y207.657 E20.4613
G1 X124.564 Y208.233 E20.49742
G1 X124.446 Y208.799 E20.53359
G1 X124.25 Y209.343 E20.56977
G1 X123.981 Y209.854 E20.6059
G1 X123.644 Y210.324 E20.64208
G1 X123.246 Y210.743 E20.67823
G1 X122.794 Y211.102 E20.71435
G1 X122.296 Y211.396 E20.75053
G1 X121.763 Y211.619 E20.78667
G1 X121.204 Y211.766 E20.82283
G1 X120.424 Y211.839 E20.87185
G1 X110.425 Y211.84 E21.49741
G1 X109.849 Y211.8 E21.53353
G1 X109.283 Y211.681 E21.56971
G1 X108.74 Y211.485 E21.60583
G1 X108.228 Y211.216 E21.64201
G1 X107.759 Y210.879 E21.67815
G1 X107.34 Y210.481 E21.7143
G1 X106.981 Y210.028 E21.75046
G1 X106.687 Y209.53 E21.78664
G1 X106.465 Y208.997 E21.82276
G1 X106.318 Y208.438 E21.85893
G1 X106.245 Y207.661 E21.90775
G1 X106.244 Y203.782 E22.15043
G1 X106.259 Y203.561 E22.16429
G1 X99.692 Y203.561 E22.57513
G1 X97.174 Y203.565 E22.73267
G1 X94.189 Y203.561 E22.91941
G1 X93.365 Y203.495 E22.97113
G1 X92.915 Y203.434 E22.99954
G1 X92.349 Y203.315 E23.03573
G1 X92.07 Y203.225 E23.05407
G1 X91.393 Y202.98 E23.09911
G1 X90.864 Y202.746 E23.1353
G1 X90.566 Y202.573 E23.15686
G1 X89.958 Y202.185 E23.20198
G1 X89.494 Y201.841 E23.23812
G1 X89.219 Y201.584 E23.26166
G1 X88.719 Y201.073 E23.30639
G1 X88.345 Y200.633 E23.34252
G1 X88.156 Y200.356 E23.3635
G1 X87.774 Y199.741 E23.40879
G1 X87.504 Y199.23 E23.44495
G1 X87.365 Y198.874 E23.46886
G1 X87.135 Y198.194 E23.51377
G1 X86.988 Y197.635 E23.54993
G1 X86.939 Y197.305 E23.5708
G1 X86.863 Y196.603 E23.61498
G1 X86.839 Y196.127 E23.6448
G1 X87.395 Y107.276 E29.20363
G1 X87.417 Y106.873 E29.22888
G1 X87.511 Y105.962 E29.28618
G1 X87.676 Y105.156 E29.33765
G1 X87.949 Y104.273 E29.39547
G1 X88.157 Y103.734 E29.43161
G1 X88.335 Y103.395 E29.45557
G1 X88.694 Y102.726 E29.50307
G1 X89.154 Y102.041 E29.55469
G1 X89.743 Y101.328 E29.61255
G1 X90.323 Y100.752 E29.66369
M204 S5000
G0 F3600 X90.601 Y101.093
M204 S500
G1 F1200 X91.314 Y100.511 E29.72127
G1 X91.92 Y100.108 E29.7668
G1 X92.736 Y99.673 E29.82465
G1 X93.414 Y99.393 E29.87054
G1 X94.295 Y99.127 E29.92812
G1 X95.012 Y98.985 E29.97385
G1 X95.923 Y98.896 E30.03111
G1 X96.287 Y98.878 E30.05391
G1 X162.443 Y98.879 E34.19279
G1 X162.606 Y98.883 E34.20299
G1 X164.673 Y98.973 E34.33243
G1 X165 Y99.001 E34.35296
G1 X167.058 Y99.273 E34.48283
G1 X167.379 Y99.33 E34.50323
G1 X169.406 Y99.78 E34.63313
G1 X169.721 Y99.865 E34.65354
G1 X171.7 Y100.49 E34.78338
G1 X172.009 Y100.602 E34.80394
G1 X173.922 Y101.397 E34.93355
G1 X174.218 Y101.536 E34.95401
G1 X176.056 Y102.496 E35.08374
G1 X176.338 Y102.659 E35.10411
G1 X178.089 Y103.777 E35.23409
G1 X178.358 Y103.966 E35.25465
G1 X180 Y105.231 E35.38433
G1 X180.249 Y105.441 E35.40471
G1 X181.774 Y106.843 E35.53431
G1 X181.893 Y106.957 E35.54462
G1 X230.795 Y156.052 E39.87984
G1 X231.113 Y156.415 E39.91003
G1 X231.577 Y157.02 E39.95773
G1 X231.877 Y157.477 E39.99194
G1 X232.107 Y157.973 E40.02614
G1 X232.358 Y158.58 E40.06723
G1 X232.53 Y159.099 E40.10144
G1 X232.613 Y159.534 E40.12915
G1 X232.713 Y160.306 E40.17785
G1 X232.743 Y160.851 E40.212
G1 X232.699 Y161.366 E40.24433
G1 X232.685 Y161.457 E40.25009
G1 X232.608 Y162.041 E40.28695
G1 X232.498 Y162.576 E40.32112
G1 X232.352 Y162.992 E40.3487
G1 X232.055 Y163.705 E40.39702
G1 X231.809 Y164.193 E40.43121
G1 X231.567 Y164.549 E40.45814
G1 X231.102 Y165.153 E40.50583
G1 X230.785 Y165.513 E40.53584
G1 X228.728 Y167.574 E40.71801
G1 X227.219 Y169.078 E40.8513
G1 X220.609 Y175.688 E41.43613
G1 X217.458 Y178.64 E41.70626
G1 X217.275 Y178.801 E41.72151
G1 X214.033 Y181.462 E41.98391
G1 X213.839 Y181.61 E41.99918
G1 X210.432 Y184.053 E42.26146
G1 X210.227 Y184.191 E42.27692
G1 X209.599 Y184.581 E42.32317
G1 X209.85 Y184.88 E42.34759
G1 X210.21 Y185.491 E42.39196
G1 X211.988 Y189.295 E42.65466
G1 X212.183 Y189.806 E42.68888
G1 X212.301 Y190.34 E42.72309
G1 X212.34 Y190.885 E42.75728
G1 X212.299 Y191.43 E42.79147
G1 X212.179 Y191.964 E42.82571
G1 X211.983 Y192.474 E42.85989
G1 X211.714 Y192.95 E42.8941
G1 X211.379 Y193.382 E42.9283
G1 X210.985 Y193.76 E42.96246
G1 X210.539 Y194.077 E42.99669
G1 X210.18 Y194.269 E43.02216
G1 X201.117 Y198.494 E43.64775
G1 X200.606 Y198.688 E43.68195
G1 X200.072 Y198.805 E43.71615
G1 X199.527 Y198.844 E43.75033
G1 X198.982 Y198.803 E43.78452
G1 X198.449 Y198.682 E43.81872
G1 X197.939 Y198.485 E43.85292
G1 X197.463 Y198.216 E43.88713
G1 X197.032 Y197.881 E43.92128
G1 X196.654 Y197.486 E43.95548
G1 X196.337 Y197.04 E43.98972
G1 X196.147 Y196.684 E44.01496
G1 X194.419 Y192.978 E44.27078
G1 X194.225 Y192.468 E44.30492
G1 X194.134 Y192.051 E44.33162
G1 X190.323 Y193.207 E44.58078
G1 X190.088 Y193.27 E44.596
G1 X186.008 Y194.222 E44.85811
G1 X185.766 Y194.27 E44.87354
G1 X181.627 Y194.952 E45.13598
G1 X181.387 Y194.984 E45.15113
G1 X177.215 Y195.397 E45.41341
G1 X176.524 Y195.426 E45.45668
G1 X172.777 Y195.55 E45.69123
G1 X172.653 Y195.552 E45.69899
G1 X163.688 Y195.552 E46.25986
G1 X163.757 Y196.212 E46.30138
G1 X163.757 Y200.089 E46.54393
G1 X163.717 Y200.634 E46.57812
G1 X163.598 Y201.168 E46.61235
G1 X163.403 Y201.678 E46.64651
G1 X163.135 Y202.155 E46.68074
G1 X162.8 Y202.587 E46.71494
G1 X162.407 Y202.966 E46.74909
G1 X161.962 Y203.284 E46.78331
G1 X161.475 Y203.533 E46.81753
G1 X160.958 Y203.709 E46.8517
G1 X160.42 Y203.807 E46.88591
G1 X160.017 Y203.829 E46.91116
G1 X150.018 Y203.83 E47.53672
G1 X149.473 Y203.79 E47.57091
G1 X148.94 Y203.671 E47.60508
G1 X148.429 Y203.476 E47.6393
G1 X147.953 Y203.208 E47.67347
G1 X147.52 Y202.874 E47.70768
G1 X147.141 Y202.48 E47.74189
G1 X146.823 Y202.035 E47.7761
G1 X146.574 Y201.548 E47.81032
G1 X146.398 Y201.031 E47.84449
G1 X146.3 Y200.493 E47.8787
G1 X146.278 Y200.091 E47.90389
G1 X146.277 Y196.213 E48.14651
G1 X146.317 Y195.668 E48.1807
G1 X146.343 Y195.552 E48.18813
G1 X139.798 Y195.552 E48.5976
G1 X139.572 Y195.591 E48.61195
G1 X139.543 Y196.14 E48.64635
G1 X139.511 Y196.63 E48.67707
G1 X139.398 Y197.485 E48.73102
G1 X139.287 Y198.02 E48.76521
G1 X139.147 Y198.422 E48.79184
G1 X138.828 Y199.195 E48.84416
G1 X138.583 Y199.683 E48.87832
G1 X138.339 Y200.044 E48.90558
G1 X137.826 Y200.713 E48.95832
G1 X137.462 Y201.121 E48.99253
G1 X137.13 Y201.408 E49.01998
G1 X136.462 Y201.919 E49.0726
G1 X136.005 Y202.218 E49.10677
G1 X135.624 Y202.402 E49.13324
G1 X134.851 Y202.723 E49.1856
G1 X134.333 Y202.895 E49.21975
G1 X133.907 Y202.977 E49.24689
G1 X133.052 Y203.09 E49.30085
G1 X132.562 Y203.122 E49.33157
G1 X124.093 Y203.122 E49.86141
G1 X124.162 Y203.78 E49.9028
G1 X124.164 Y207.657 E50.14535
G1 X124.124 Y208.202 E50.17954
G1 X124.006 Y208.736 E50.21376
G1 X123.81 Y209.246 E50.24794
G1 X123.543 Y209.723 E50.28214
G1 X123.209 Y210.156 E50.31635
G1 X122.815 Y210.535 E50.35055
G1 X122.37 Y210.853 E50.38477
G1 X121.884 Y211.102 E50.41893
G1 X121.366 Y211.278 E50.45316
G1 X120.829 Y211.377 E50.48732
G1 X120.424 Y211.399 E50.5127
G1 X110.425 Y211.4 E51.13826
G1 X109.88 Y211.36 E51.17245
G1 X109.347 Y211.241 E51.20661
G1 X108.836 Y211.046 E51.24083
G1 X108.36 Y210.778 E51.27501
G1 X107.927 Y210.444 E51.30922
G1 X107.548 Y210.05 E51.34342
G1 X107.23 Y209.605 E51.37764
G1 X106.981 Y209.118 E51.41186
G1 X106.805 Y208.601 E51.44603
G1 X106.707 Y208.063 E51.48024
G1 X106.685 Y207.661 E51.50543
G1 X106.684 Y203.782 E51.74811
G1 X106.724 Y203.237 E51.78229
G1 X106.75 Y203.121 E51.78973
G1 X99.691 Y203.121 E52.23136
G1 X97.175 Y203.125 E52.38876
G1 X94.19 Y203.121 E52.57551
G1 X93.413 Y203.058 E52.62428
G1 X92.976 Y202.998 E52.65188
G1 X92.219 Y202.811 E52.70066
G1 X91.542 Y202.566 E52.74571
G1 X91.043 Y202.343 E52.7799
G1 X90.803 Y202.202 E52.79732
G1 X90.195 Y201.814 E52.84244
G1 X89.757 Y201.487 E52.87664
G1 X89.534 Y201.277 E52.8958
G1 X89.034 Y200.766 E52.94053
G1 X88.53 Y200.123 E52.99164
G1 X88.148 Y199.508 E53.03693
G1 X87.894 Y199.024 E53.07113
G1 X87.782 Y198.733 E53.09064
G1 X87.552 Y198.053 E53.13555
G1 X87.377 Y197.258 E53.18647
G1 X87.301 Y196.556 E53.23065
G1 X87.279 Y196.13 E53.25734
G1 X87.835 Y107.279 E58.81617
G1 X87.855 Y106.918 E58.83879
G1 X87.949 Y106.007 E58.89609
G1 X88.096 Y105.286 E58.94212
G1 X88.369 Y104.403 E58.99994
G1 X88.689 Y103.663 E59.05038
G1 X89.082 Y102.934 E59.1022
G1 X89.494 Y102.321 E59.1484
G1 X90.083 Y101.608 E59.20626
G1 X90.601 Y101.093 E59.25196
M204 S5000
G0 F3600 X90.879 Y101.434
M204 S500
G1 F1200 X91.592 Y100.852 E59.30954
G1 X92.127 Y100.496 E59.34975
G1 X92.943 Y100.061 E59.4076
G1 X93.541 Y99.814 E59.44808
G1 X94.422 Y99.548 E59.50565
G1 X95.055 Y99.423 E59.54602
G1 X95.966 Y99.334 E59.60328
G1 X96.287 Y99.318 E59.62339
G1 X162.443 Y99.319 E63.76226
G1 X162.587 Y99.322 E63.77127
G1 X164.654 Y99.412 E63.90071
G1 X164.942 Y99.437 E63.9188
G1 X167 Y99.709 E64.04867
G1 X167.283 Y99.759 E64.06665
G1 X169.31 Y100.209 E64.19655
G1 X169.589 Y100.284 E64.21463
G1 X171.568 Y100.909 E64.34447
G1 X171.84 Y101.009 E64.3626
G1 X173.753 Y101.804 E64.4922
G1 X174.015 Y101.926 E64.51028
G1 X175.853 Y102.886 E64.64001
G1 X176.101 Y103.03 E64.65795
G1 X177.852 Y104.148 E64.78793
G1 X178.09 Y104.315 E64.80612
G1 X179.732 Y105.58 E64.93579
G1 X179.951 Y105.765 E64.95373
G1 X181.476 Y107.167 E65.08333
G1 X181.581 Y107.267 E65.0924
G1 X230.483 Y156.362 E69.42762
G1 X230.764 Y156.683 E69.45431
G1 X231.228 Y157.288 E69.50201
G1 X231.507 Y157.718 E69.53408
G1 X231.71 Y158.166 E69.56485
G1 X231.952 Y158.749 E69.60434
G1 X232.111 Y159.237 E69.63645
G1 X232.177 Y159.59 E69.65892
G1 X232.277 Y160.362 E69.70762
G1 X232.303 Y160.875 E69.73976
G1 X232.253 Y161.371 E69.77095
G1 X232.172 Y161.984 E69.80963
G1 X232.066 Y162.486 E69.84173
G1 X231.946 Y162.823 E69.86411
G1 X231.649 Y163.536 E69.91243
G1 X231.416 Y163.993 E69.94452
G1 X231.218 Y164.28 E69.96634
G1 X230.753 Y164.884 E70.01403
G1 X230.474 Y165.202 E70.04049
G1 X228.418 Y167.262 E70.22258
G1 X226.903 Y168.77 E70.35631
G1 X220.219 Y175.452 E70.9476
G1 X217.157 Y178.319 E71.21003
G1 X216.996 Y178.461 E71.22346
G1 X213.754 Y181.122 E71.48586
G1 X213.583 Y181.253 E71.49934
G1 X210.176 Y183.696 E71.76162
G1 X209.995 Y183.817 E71.77524
G1 X208.882 Y184.508 E71.8572
G1 X209.015 Y184.609 E71.86765
G1 X209.371 Y184.979 E71.89977
G1 X209.665 Y185.399 E71.93185
G1 X209.812 Y185.678 E71.95158
G1 X211.59 Y189.482 E72.21428
G1 X211.77 Y189.962 E72.24635
G1 X211.874 Y190.465 E72.27848
G1 X211.899 Y190.978 E72.31061
G1 X211.843 Y191.488 E72.34271
G1 X211.709 Y191.984 E72.37486
G1 X211.5 Y192.453 E72.40698
G1 X211.221 Y192.884 E72.4391
G1 X210.878 Y193.266 E72.47122
G1 X210.481 Y193.591 E72.50332
G1 X209.994 Y193.87 E72.53843
G1 X200.931 Y198.095 E73.16402
G1 X200.451 Y198.275 E73.19609
G1 X199.948 Y198.378 E73.22821
G1 X199.435 Y198.402 E73.26034
G1 X198.924 Y198.347 E73.2925
G1 X198.429 Y198.212 E73.3246
G1 X197.96 Y198.003 E73.35672
G1 X197.53 Y197.723 E73.38882
G1 X197.148 Y197.38 E73.42094
G1 X196.823 Y196.982 E73.45309
G1 X196.546 Y196.499 E73.48792
G1 X194.818 Y192.793 E73.74374
G1 X194.638 Y192.312 E73.77587
G1 X194.535 Y191.809 E73.808
G1 X194.519 Y191.46 E73.82985
G1 X194.209 Y191.569 E73.85041
G1 X190.196 Y192.786 E74.11276
G1 X189.988 Y192.842 E74.12624
G1 X185.908 Y193.794 E74.38835
