;FLAVOR:Marlin
;TIME:4997
;Filament used: 3.9759m
;Layer height: 0.2
;MINX:92.028
;MINY:120.566
;MINZ:0.3
;MAXX:203.828
;MAXY:237.428
;MAXZ:1.5
;Generated with Cura_SteamEngine 4.9.1
M140 S85
M105
M190 S85
M104 S235
M105
M109 S235
M82 ;absolute extrusion mode
G28 ;Home
G1 Z15.0 F6000 ;Move the platform down 15mm
;Prime the extruder
G92 E0
G1 F200 E3
G92 E0
G92 E0
G92 E0
G1 F2100 E-1.5
;LAYER_COUNT:7
;LAYER:0
M107
M204 S5000
M205 X5 Y5
G1 F600 Z0.8
G0 F3600 X101.688 Y121.656 Z0.8
M204 S500
;TYPE:SKIRT
G1 F600 Z0.3
G1 F2100 E0
G1 F1500 X102.14 Y121.296 E0.03615
G1 X102.638 Y121.003 E0.0723
G1 X103.171 Y120.78 E0.10845
G1 X103.731 Y120.634 E0.14465
G1 X104.304 Y120.566 E0.18075
G1 X104.882 Y120.578 E0.21692
G1 X105.587 Y120.703 E0.26172
G1 X112.57 Y122.568 E0.7139
G1 X199.648 Y122.568 E6.1617
G1 X200.225 Y122.608 E6.19789
G1 X200.79 Y122.727 E6.23401
G1 X201.334 Y122.923 E6.27019
G1 X201.845 Y123.192 E6.30631
G1 X202.315 Y123.529 E6.3425
G1 X202.733 Y123.928 E6.37865
G1 X203.093 Y124.38 E6.4148
G1 X203.386 Y124.878 E6.45095
G1 X203.609 Y125.411 E6.48709
G1 X203.755 Y125.971 E6.5233
G1 X203.828 Y126.752 E6.57237
G1 X203.728 Y233.252 E13.23526
G1 X203.688 Y233.828 E13.27139
G1 X203.568 Y234.394 E13.30758
G1 X203.371 Y234.937 E13.34372
G1 X203.102 Y235.449 E13.37991
G1 X202.764 Y235.918 E13.41607
G1 X202.365 Y236.336 E13.45223
G1 X201.913 Y236.695 E13.48834
G1 X201.415 Y236.988 E13.52449
G1 X200.881 Y237.21 E13.56067
G1 X200.322 Y237.356 E13.59681
G1 X199.548 Y237.428 E13.64545
G1 X105.17 Y237.428 E19.54995
G1 X104.593 Y237.388 E19.58614
G1 X104.028 Y237.269 E19.62226
G1 X103.484 Y237.073 E19.65843
G1 X102.973 Y236.804 E19.69456
G1 X102.503 Y236.467 E19.73075
G1 X102.085 Y236.068 E19.7669
G1 X101.725 Y235.616 E19.80305
G1 X101.432 Y235.118 E19.8392
G1 X101.209 Y234.585 E19.87534
G1 X101.063 Y234.025 E19.91155
G1 X100.99 Y233.248 E19.96038
G1 X100.99 Y231.255 E20.08506
G1 X100.774 Y231.286 E20.09871
G1 X100.196 Y231.288 E20.13487
G1 X99.624 Y231.21 E20.17099
G1 X99.067 Y231.054 E20.20718
G1 X98.538 Y230.822 E20.24332
G1 X98.045 Y230.52 E20.27949
G1 X97.599 Y230.153 E20.31562
G1 X97.207 Y229.728 E20.3518
G1 X96.879 Y229.252 E20.38796
G1 X96.618 Y228.736 E20.42414
G1 X96.432 Y228.189 E20.46028
G1 X96.323 Y227.622 E20.49641
G1 X96.292 Y227.117 E20.52806
G1 X96.292 Y216.545 E21.18947
G1 X96.332 Y215.968 E21.22565
G1 X96.451 Y215.403 E21.26178
G1 X96.647 Y214.859 E21.29795
G1 X96.916 Y214.348 E21.33408
G1 X97.253 Y213.878 E21.37026
G1 X97.44 Y213.682 E21.38721
G1 X97.123 Y213.38 E21.4146
G1 X96.763 Y212.928 E21.45075
G1 X96.47 Y212.43 E21.4869
G1 X96.247 Y211.897 E21.52305
G1 X96.101 Y211.337 E21.55925
G1 X96.028 Y210.56 E21.60808
G1 X96.028 Y188.142 E23.0106
G1 X96.068 Y187.565 E23.04679
G1 X96.17 Y187.062 E23.0789
G1 X98.756 Y177.392 E23.70513
G1 X95.12 Y176.42 E23.9406
G1 X94.573 Y176.233 E23.97676
G1 X94.058 Y175.972 E24.01288
G1 X93.583 Y175.642 E24.04907
G1 X93.158 Y175.25 E24.08524
G1 X92.792 Y174.803 E24.12138
G1 X92.49 Y174.31 E24.15755
G1 X92.26 Y173.78 E24.1937
G1 X92.105 Y173.224 E24.22981
G1 X92.028 Y172.651 E24.26598
G1 X92.03 Y172.073 E24.30214
G1 X92.176 Y171.247 E24.35462
G1 X98.16 Y150.043 E25.73301
G1 X98.355 Y149.499 E25.76916
G1 X98.623 Y148.987 E25.80532
G1 X98.96 Y148.517 E25.8415
G1 X99.363 Y148.094 E25.87805
G1 X99.268 Y148.007 E25.88611
G1 X98.87 Y147.588 E25.92226
G1 X98.534 Y147.118 E25.95841
G1 X98.265 Y146.606 E25.99459
G1 X98.07 Y146.063 E26.03069
G1 X97.951 Y145.497 E26.06687
G1 X97.912 Y144.92 E26.10305
G1 X97.953 Y144.344 E26.13918
G1 X98.055 Y143.843 E26.17117
G1 X100.328 Y135.363 E26.72042
G1 X100.328 Y124.741 E27.38496
G1 X100.368 Y124.164 E27.42114
G1 X100.487 Y123.599 E27.45727
G1 X100.683 Y123.055 E27.49344
G1 X100.952 Y122.544 E27.52957
G1 X101.289 Y122.074 E27.56575
G1 X101.688 Y121.656 E27.60191
M204 S5000
G0 F3600 X102.118 Y121.864
M204 S500
G1 F1500 X102.563 Y121.546 E27.63612
G1 X103.05 Y121.297 E27.67034
G1 X103.567 Y121.121 E27.70451
G1 X104.105 Y121.023 E27.73872
G1 X104.651 Y121.004 E27.7729
G1 X105.195 Y121.065 E27.80715
G1 X105.473 Y121.128 E27.82498
G1 X112.512 Y123.008 E28.2808
G1 X199.648 Y123.008 E33.73223
G1 X200.193 Y123.048 E33.76641
G1 X200.727 Y123.167 E33.80064
G1 X201.237 Y123.362 E33.8348
G1 X201.714 Y123.63 E33.86903
G1 X202.146 Y123.965 E33.90323
G1 X202.525 Y124.358 E33.93739
G1 X202.843 Y124.803 E33.97161
G1 X203.092 Y125.29 E34.00583
G1 X203.268 Y125.807 E34.03999
G1 X203.366 Y126.345 E34.07421
G1 X203.388 Y126.752 E34.09971
G1 X203.288 Y233.252 E40.7626
G1 X203.248 Y233.797 E40.79678
G1 X203.128 Y234.33 E40.83096
G1 X202.932 Y234.84 E40.86515
G1 X202.664 Y235.317 E40.89938
G1 X202.329 Y235.749 E40.93358
G1 X201.935 Y236.127 E40.96774
G1 X201.49 Y236.445 E41.00195
G1 X201.003 Y236.693 E41.03615
G1 X200.485 Y236.869 E41.07037
G1 X199.947 Y236.967 E41.10458
G1 X199.548 Y236.988 E41.12958
G1 X105.17 Y236.988 E47.03409
G1 X104.625 Y236.948 E47.06828
G1 X104.091 Y236.829 E47.1025
G1 X103.581 Y236.634 E47.13666
G1 X103.104 Y236.366 E47.17089
G1 X102.672 Y236.031 E47.20509
G1 X102.293 Y235.638 E47.23925
G1 X101.975 Y235.193 E47.27347
G1 X101.726 Y234.706 E47.30769
G1 X101.55 Y234.189 E47.34186
G1 X101.452 Y233.651 E47.37607
G1 X101.43 Y233.248 E47.40132
G1 X101.43 Y230.722 E47.55935
G1 X101.225 Y230.78 E47.57268
G1 X100.683 Y230.851 E47.60688
G1 X100.137 Y230.842 E47.64104
G1 X99.597 Y230.753 E47.67528
G1 X99.077 Y230.587 E47.70943
G1 X98.586 Y230.346 E47.74365
G1 X98.135 Y230.037 E47.77785
G1 X97.734 Y229.665 E47.81207
G1 X97.392 Y229.239 E47.84625
G1 X97.116 Y228.767 E47.88046
G1 X96.911 Y228.26 E47.91467
G1 X96.782 Y227.729 E47.94886
G1 X96.732 Y227.117 E47.98728
G1 X96.732 Y216.545 E48.64868
G1 X96.772 Y216 E48.68287
G1 X96.891 Y215.466 E48.7171
G1 X97.086 Y214.956 E48.75126
G1 X97.354 Y214.479 E48.78549
G1 X97.689 Y214.047 E48.81969
G1 X98.082 Y213.668 E48.85385
G1 X98.107 Y213.65 E48.85578
G1 X97.71 Y213.343 E48.88717
G1 X97.331 Y212.95 E48.92133
G1 X97.013 Y212.505 E48.95555
G1 X96.764 Y212.018 E48.98977
G1 X96.588 Y211.501 E49.02393
G1 X96.49 Y210.963 E49.05815
G1 X96.468 Y210.56 E49.0834
G1 X96.468 Y188.142 E50.48592
G1 X96.508 Y187.597 E50.52011
G1 X96.595 Y187.176 E50.547
G1 X99.295 Y177.08 E51.20083
G1 X95.233 Y175.995 E51.46387
G1 X94.717 Y175.816 E51.49804
G1 X94.232 Y175.563 E51.53226
G1 X93.79 Y175.243 E51.5664
G1 X93.398 Y174.861 E51.60064
G1 X93.067 Y174.426 E51.63484
G1 X92.803 Y173.948 E51.669
G1 X92.611 Y173.436 E51.70321
G1 X92.495 Y172.902 E51.7374
G1 X92.459 Y172.356 E51.77163
G1 X92.503 Y171.811 E51.80584
G1 X92.6 Y171.366 E51.83433
G1 X98.584 Y150.162 E53.21272
G1 X98.77 Y149.648 E53.24692
G1 X99.03 Y149.167 E53.28112
G1 X99.356 Y148.729 E53.31528
G1 X99.743 Y148.343 E53.34948
G1 X100.08 Y148.094 E53.37569
G1 X99.565 Y147.683 E53.41692
G1 X99.191 Y147.285 E53.45108
G1 X98.878 Y146.837 E53.48528
G1 X98.633 Y146.348 E53.51949
G1 X98.463 Y145.828 E53.55372
G1 X98.37 Y145.29 E53.58788
G1 X98.356 Y144.743 E53.62211
G1 X98.48 Y143.957 E53.67189
G1 X100.768 Y135.422 E54.22472
G1 X100.768 Y124.741 E54.89294
G1 X100.808 Y124.196 E54.92713
G1 X100.927 Y123.662 E54.96136
G1 X101.122 Y123.152 E54.99552
G1 X101.39 Y122.675 E55.02975
G1 X101.725 Y122.243 E55.06395
G1 X102.118 Y121.864 E55.09811
M204 S5000
G0 F3600 X102.159 Y122.423
M204 S500
G1 F1500 X102.547 Y122.087 E55.13022
G1 X102.982 Y121.815 E55.16232
G1 X103.455 Y121.614 E55.19447
G1 X103.952 Y121.488 E55.22655
G1 X104.464 Y121.441 E55.25871
G1 X104.976 Y121.474 E55.29081
G1 X105.359 Y121.553 E55.31528
G1 X112.455 Y123.448 E55.77478
G1 X199.648 Y123.448 E61.22977
G1 X200.16 Y123.488 E61.2619
G1 X200.659 Y123.607 E61.294
G1 X201.134 Y123.802 E61.32612
G1 X201.573 Y124.068 E61.35823
G1 X201.966 Y124.399 E61.39038
G1 X202.302 Y124.787 E61.42249
G1 X202.574 Y125.222 E61.45459
G1 X202.775 Y125.695 E61.48674
G1 X202.901 Y126.192 E61.51882
G1 X202.948 Y126.751 E61.55391
G1 X202.848 Y233.251 E68.2168
G1 X202.808 Y233.763 E68.24893
G1 X202.688 Y234.262 E68.28104
G1 X202.493 Y234.737 E68.31316
G1 X202.226 Y235.176 E68.34531
G1 X201.895 Y235.568 E68.37741
G1 X201.507 Y235.904 E68.40952
G1 X201.071 Y236.176 E68.44167
G1 X200.598 Y236.376 E68.4738
G1 X200.1 Y236.501 E68.50592
G1 X199.548 Y236.548 E68.54058
G1 X105.17 Y236.548 E74.44508
G1 X104.658 Y236.508 E74.47721
G1 X104.159 Y236.389 E74.50931
G1 X103.684 Y236.194 E74.54143
G1 X103.245 Y235.928 E74.57354
G1 X102.852 Y235.597 E74.60569
G1 X102.516 Y235.209 E74.6378
G1 X102.244 Y234.774 E74.6699
G1 X102.043 Y234.301 E74.70205
G1 X101.917 Y233.804 E74.73413
G1 X101.87 Y233.248 E74.76904
G1 X101.87 Y230.12 E74.96473
G1 X101.601 Y230.218 E74.98264
G1 X101.106 Y230.356 E75.01479
G1 X100.596 Y230.415 E75.04691
G1 X100.083 Y230.394 E75.07903
G1 X99.579 Y230.294 E75.11118
G1 X99.097 Y230.117 E75.1433
G1 X98.649 Y229.868 E75.17537
G1 X98.244 Y229.552 E75.20751
G1 X97.894 Y229.176 E75.23965
G1 X97.605 Y228.752 E75.27175
G1 X97.386 Y228.287 E75.3039
G1 X97.242 Y227.794 E75.33604
G1 X97.172 Y227.117 E75.37862
G1 X97.172 Y216.545 E76.04003
G1 X97.212 Y216.033 E76.07215
G1 X97.331 Y215.534 E76.10425
G1 X97.526 Y215.059 E76.13637
G1 X97.792 Y214.62 E76.16849
G1 X98.123 Y214.227 E76.20063
G1 X98.511 Y213.891 E76.23274
G1 X98.946 Y213.619 E76.26484
G1 X98.722 Y213.506 E76.28054
G1 X98.283 Y213.24 E76.31265
G1 X97.89 Y212.909 E76.34479
G1 X97.554 Y212.521 E76.37691
G1 X97.282 Y212.086 E76.409
G1 X97.081 Y211.613 E76.44116
G1 X96.955 Y211.116 E76.47323
G1 X96.908 Y210.56 E76.50814
G1 X96.908 Y188.142 E77.91066
G1 X96.948 Y187.63 E77.94279
G1 X97.02 Y187.289 E77.9646
G1 X99.833 Y176.769 E78.64588
G1 X95.347 Y175.57 E78.93638
G1 X94.863 Y175.399 E78.9685
G1 X94.411 Y175.156 E79.0006
G1 X94.002 Y174.845 E79.03275
G1 X93.647 Y174.474 E79.06487
G1 X93.353 Y174.053 E79.097
G1 X93.129 Y173.591 E79.12912
G1 X92.978 Y173.101 E79.1612
G1 X92.906 Y172.592 E79.19336
G1 X92.913 Y172.079 E79.22546
G1 X93.023 Y171.486 E79.26319
G1 X99.007 Y150.282 E80.64157
G1 X99.185 Y149.8 E80.67372
G1 X99.435 Y149.352 E80.70582
G1 X99.751 Y148.947 E80.73795
G1 X100.127 Y148.597 E80.77009
G1 X100.552 Y148.309 E80.80221
G1 X100.966 Y148.115 E80.83081
G1 X100.896 Y148.089 E80.83549
G1 X100.447 Y147.839 E80.86764
G1 X100.042 Y147.522 E80.89981
G1 X99.863 Y147.358 E80.915
G1 X99.512 Y146.983 E80.94714
G1 X99.224 Y146.558 E80.97925
G1 X99.006 Y146.093 E81.01138
G1 X98.862 Y145.6 E81.04352
G1 X98.796 Y145.091 E81.07563
G1 X98.81 Y144.578 E81.10773
G1 X98.905 Y144.071 E81.14
G1 X101.208 Y135.48 E81.69645
G1 X101.208 Y124.741 E82.36831
G1 X101.248 Y124.229 E82.40044
G1 X101.367 Y123.73 E82.43253
G1 X101.562 Y123.255 E82.46466
G1 X101.828 Y122.816 E82.49677
G1 X102.159 Y122.423 E82.52892
M204 S5000
G0 F3600 X102.592 Y122.618
M204 S500
G1 F1500 X102.972 Y122.329 E82.55879
G1 X103.395 Y122.106 E82.5887
G1 X103.849 Y121.958 E82.61858
G1 X104.322 Y121.887 E82.6485
G1 X104.8 Y121.896 E82.67841
G1 X105.246 Y121.978 E82.70678
G1 X112.398 Y123.888 E83.16991
G1 X199.648 Y123.888 E88.62847
G1 X200.124 Y123.928 E88.65835
G1 X200.587 Y124.047 E88.68826
G1 X201.024 Y124.241 E88.71817
G1 X201.422 Y124.505 E88.74805
G1 X201.771 Y124.832 E88.77797
G1 X202.06 Y125.212 E88.80784
G1 X202.283 Y125.635 E88.83776
G1 X202.431 Y126.089 E88.86763
G1 X202.508 Y126.751 E88.90933
G1 X202.408 Y233.251 E95.57222
G1 X202.368 Y233.727 E95.6021
G1 X202.249 Y234.19 E95.63201
G1 X202.054 Y234.626 E95.66189
G1 X201.79 Y235.024 E95.69177
G1 X201.462 Y235.373 E95.72173
G1 X201.082 Y235.662 E95.7516
G1 X200.659 Y235.884 E95.78149
G1 X200.204 Y236.032 E95.81142
G1 X199.548 Y236.108 E95.85274
G1 X105.17 Y236.108 E101.75724
G1 X104.694 Y236.068 E101.78713
G1 X104.231 Y235.949 E101.81704
G1 X103.794 Y235.755 E101.84695
G1 X103.396 Y235.491 E101.87683
G1 X103.047 Y235.164 E101.90675
G1 X102.758 Y234.784 E101.93662
G1 X102.535 Y234.361 E101.96653
G1 X102.387 Y233.907 E101.99641
G1 X102.31 Y233.248 E102.03792
G1 X102.31 Y229.492 E102.2729
G1 X101.45 Y229.805 E102.33016
G1 X100.989 Y229.93 E102.36004
G1 X100.513 Y229.977 E102.38997
G1 X100.037 Y229.944 E102.41982
G1 X99.572 Y229.832 E102.44974
G1 X99.133 Y229.644 E102.47962
G1 X98.73 Y229.386 E102.50955
G1 X98.377 Y229.064 E102.53945
G1 X98.082 Y228.688 E102.56935
G1 X97.854 Y228.268 E102.59924
G1 X97.699 Y227.816 E102.62914
G1 X97.612 Y227.117 E102.67321
G1 X97.612 Y216.545 E103.33462
G1 X97.652 Y216.069 E103.3645
G1 X97.771 Y215.606 E103.39441
G1 X97.965 Y215.169 E103.42432
G1 X98.229 Y214.771 E103.4542
G1 X98.556 Y214.422 E103.48412
G1 X98.936 Y214.133 E103.51399
G1 X99.359 Y213.91 E103.54391
G1 X99.813 Y213.762 E103.57378
G1 X100.286 Y213.691 E103.6037
G1 X100.764 Y213.7 E103.63361
G1 X101.45 Y213.857 E103.67764
G1 X102.31 Y214.17 E103.7349
G1 X102.31 Y213.42 E103.78182
G1 X100.208 Y213.42 E103.91332
G1 X99.732 Y213.38 E103.94321
G1 X99.269 Y213.261 E103.97312
G1 X98.832 Y213.067 E104.00303
G1 X98.434 Y212.803 E104.03291
G1 X98.085 Y212.476 E104.06283
G1 X97.796 Y212.096 E104.0927
G1 X97.573 Y211.673 E104.12261
G1 X97.425 Y211.219 E104.15249
G1 X97.348 Y210.56 E104.194
G1 X97.348 Y188.142 E105.59652
G1 X97.445 Y187.403 E105.64315
G1 X100.372 Y176.457 E106.35202
G1 X95.461 Y175.145 E106.67004
G1 X95.011 Y174.984 E106.69994
G1 X94.594 Y174.749 E106.72988
G1 X94.222 Y174.449 E106.75978
G1 X93.906 Y174.091 E106.78966
G1 X93.653 Y173.685 E106.81958
G1 X93.472 Y173.243 E106.84947
G1 X93.366 Y172.777 E106.87936
G1 X93.34 Y172.3 E106.90925
G1 X93.447 Y171.605 E106.95324
G1 X99.431 Y150.401 E108.33163
G1 X99.598 Y149.954 E108.36148
G1 X99.838 Y149.54 E108.39142
G1 X100.144 Y149.173 E108.42132
G1 X100.506 Y148.861 E108.45121
G1 X100.915 Y148.614 E108.48111
G1 X101.36 Y148.439 E108.51102
G1 X101.827 Y148.34 E108.54089
G1 X102.305 Y148.321 E108.57082
G1 X102.779 Y148.381 E108.60071
G1 X103.161 Y148.49 E108.62556
G1 X103.955 Y148.779 E108.67842
G1 X103.955 Y147.52 E108.75719
G1 X103.249 Y147.777 E108.80419
G1 X102.788 Y147.902 E108.83408
G1 X102.312 Y147.949 E108.864
G1 X101.835 Y147.916 E108.89391
G1 X101.371 Y147.804 E108.92378
G1 X100.931 Y147.616 E108.95371
G1 X100.339 Y147.198 E108.99905
G1 X99.836 Y146.683 E109.04409
G1 X99.575 Y146.282 E109.07402
G1 X99.384 Y145.844 E109.10392
G1 X99.268 Y145.38 E109.13384
G1 X99.232 Y144.904 E109.1637
G1 X99.33 Y144.184 E109.20916
G1 X101.648 Y135.537 E109.76924
G1 X101.648 Y124.741 E110.44466
G1 X101.688 Y124.265 E110.47455
G1 X101.807 Y123.802 E110.50445
G1 X102.001 Y123.365 E110.53437
G1 X102.265 Y122.967 E110.56425
G1 X102.592 Y122.618 E110.59417
M204 S5000
G0 F3600 X103.022 Y122.831
M204 S500
G1 F1500 X103.392 Y122.594 E110.62166
G1 X103.798 Y122.427 E110.64912
G1 X104.229 Y122.337 E110.67667
G1 X104.668 Y122.326 E110.70414
G1 X105.132 Y122.403 E110.73357
G1 X112.34 Y124.328 E111.20032
G1 X199.648 Y124.328 E116.66251
G1 X200.086 Y124.368 E116.69003
G1 X200.509 Y124.486 E116.7175
G1 X200.904 Y124.679 E116.74501
G1 X201.257 Y124.941 E116.77251
G1 X201.558 Y125.262 E116.80004
G1 X201.795 Y125.632 E116.82753
G1 X201.962 Y126.038 E116.855
G1 X202.052 Y126.469 E116.88254
G1 X202.068 Y126.75 E116.90015
G1 X201.968 Y233.25 E123.56304
G1 X201.928 Y233.688 E123.59056
G1 X201.809 Y234.111 E123.61805
G1 X201.615 Y234.506 E123.64558
G1 X201.354 Y234.859 E123.67304
G1 X201.033 Y235.159 E123.70053
G1 X200.662 Y235.396 E123.72807
G1 X200.256 Y235.562 E123.75552
G1 X199.825 Y235.652 E123.78306
G1 X199.548 Y235.668 E123.80042
G1 X105.17 Y235.668 E129.70493
G1 X104.732 Y235.628 E129.73244
G1 X104.309 Y235.51 E129.75992
G1 X103.914 Y235.317 E129.78742
G1 X103.561 Y235.055 E129.81492
G1 X103.26 Y234.734 E129.84245
G1 X103.023 Y234.364 E129.86994
G1 X102.856 Y233.958 E129.89741
G1 X102.766 Y233.527 E129.92495
G1 X102.75 Y233.248 E129.94244
G1 X102.75 Y228.863 E130.21677
G1 X101.3 Y229.391 E130.31332
G1 X100.875 Y229.503 E130.34081
G1 X100.436 Y229.537 E130.36836
G1 X99.999 Y229.49 E130.39586
G1 X99.578 Y229.366 E130.42332
G1 X99.186 Y229.167 E130.45082
G1 X98.836 Y228.9 E130.47836
G1 X98.541 Y228.575 E130.50582
G1 X98.309 Y228.202 E130.5333
G1 X98.148 Y227.793 E130.5608
G1 X98.052 Y227.117 E130.60352
G1 X98.052 Y216.545 E131.26493
G1 X98.092 Y216.107 E131.29244
