;FLAVOR:Marlin
;TIME:12308
;Filament used: 9.08041m
;Layer height: 0.2
;MINX:55.015
;MINY:88.32
;MINZ:0.3
;MAXX:264.985
;MAXY:221.68
;MAXZ:2
;Generated with Cura_SteamEngine 4.9.1
M140 S85
M105
M190 S85
M104 S235
M105
M109 S235
M82 ;absolute extrusion mode
G28 ;Home
G1 Z15.0 F6000 ;Move the platform down 15mm
;Prime the extruder
G92 E0
G1 F200 E3
G92 E0
G92 E0
G92 E0
G1 F2100 E-1.5
;LAYER_COUNT:7
;LAYER:0
M107
M204 S5000
M205 X5 Y5
G1 F600 Z0.8
G0 F1500 X62.133 Y106.947 Z0.8
M204 S500
;TYPE:SKIRT
G1 F600 Z0.3
G1 F2100 E0
G1 F1500 X62.893 Y106.655 E0.05094
G1 X128.906 Y88.47 E4.3347
G1 X129.472 Y88.356 E4.37082
G1 X130.016 Y88.32 E4.40493
G1 X196.559 Y88.32 E8.56801
G1 X197.136 Y88.36 E8.6042
G1 X197.638 Y88.462 E8.63625
G1 X259.577 Y105.007 E12.64716
G1 X260.123 Y105.194 E12.68327
G1 X260.639 Y105.455 E12.71944
G1 X261.114 Y105.785 E12.75563
G1 X261.538 Y106.177 E12.79175
G1 X261.905 Y106.623 E12.82789
G1 X262.207 Y107.116 E12.86406
G1 X262.437 Y107.646 E12.9002
G1 X262.592 Y108.203 E12.93638
G1 X262.678 Y109.045 E12.98933
G1 X262.678 Y120.19 E13.68658
G1 X262.638 Y120.767 E13.72277
G1 X262.535 Y121.272 E13.75501
G1 X261.966 Y123.397 E13.89264
G1 X262.21 Y123.465 E13.90849
G1 X262.739 Y123.696 E13.9446
G1 X263.232 Y123.999 E13.98081
G1 X263.678 Y124.366 E14.01694
G1 X264.069 Y124.791 E14.05307
G1 X264.398 Y125.266 E14.08922
G1 X264.658 Y125.782 E14.12537
G1 X264.845 Y126.329 E14.16153
G1 X264.954 Y126.897 E14.19772
G1 X264.985 Y127.402 E14.22937
G1 X264.985 Y137.402 E14.85499
G1 X264.945 Y137.979 E14.89118
G1 X264.826 Y138.544 E14.9273
G1 X264.63 Y139.088 E14.96348
G1 X264.361 Y139.599 E14.99961
G1 X264.024 Y140.069 E15.03579
G1 X263.625 Y140.487 E15.07194
G1 X263.173 Y140.847 E15.10809
G1 X262.675 Y141.14 E15.14424
G1 X262.142 Y141.363 E15.18039
G1 X261.582 Y141.509 E15.21659
G1 X261.009 Y141.577 E15.25269
G1 X260.431 Y141.565 E15.28886
G1 X259.86 Y141.474 E15.32504
G1 X259.375 Y141.33 E15.35669
G1 X258.906 Y141.159 E15.38792
G1 X255.41 Y153.549 E16.19333
G1 X258.988 Y154.505 E16.42503
G1 X259.535 Y154.692 E16.4612
G1 X260.05 Y154.953 E16.49732
G1 X260.525 Y155.283 E16.5335
G1 X260.95 Y155.675 E16.56968
G1 X261.316 Y156.122 E16.60582
G1 X261.618 Y156.615 E16.64199
G1 X261.848 Y157.145 E16.67814
G1 X262.003 Y157.701 E16.71425
G1 X262.08 Y158.274 E16.75042
G1 X262.078 Y158.852 E16.78658
G1 X261.947 Y159.623 E16.83551
G1 X258.378 Y172.969 E17.6998
G1 X258.378 Y190.432 E18.79233
G1 X259.16 Y190.432 E18.84125
G1 X259.737 Y190.472 E18.87744
G1 X260.302 Y190.591 E18.91356
G1 X260.846 Y190.787 E18.94974
G1 X261.357 Y191.056 E18.98586
G1 X261.827 Y191.393 E19.02205
G1 X262.245 Y191.792 E19.0582
G1 X262.605 Y192.244 E19.09435
G1 X262.898 Y192.742 E19.1305
G1 X263.121 Y193.275 E19.16664
G1 X263.267 Y193.835 E19.20285
G1 X263.34 Y194.612 E19.25168
G1 X263.34 Y202.793 E19.7635
G1 X263.3 Y203.37 E19.79968
G1 X263.181 Y203.935 E19.83581
G1 X262.985 Y204.479 E19.87198
G1 X262.716 Y204.99 E19.90811
G1 X262.379 Y205.46 E19.94429
G1 X261.98 Y205.878 E19.98044
G1 X261.724 Y206.082 E20.00092
G1 X262.033 Y206.336 E20.02595
G1 X262.424 Y206.761 E20.06208
G1 X262.753 Y207.236 E20.09823
G1 X263.013 Y207.752 E20.13438
G1 X263.2 Y208.299 E20.17054
G1 X263.309 Y208.866 E20.20666
G1 X263.34 Y209.372 E20.23838
G1 X263.34 Y217.5 E20.74689
G1 X263.3 Y218.077 E20.78307
G1 X263.181 Y218.642 E20.8192
G1 X262.985 Y219.186 E20.85537
G1 X262.716 Y219.697 E20.8915
G1 X262.379 Y220.167 E20.92768
G1 X261.98 Y220.585 E20.96383
G1 X261.528 Y220.945 E20.99998
G1 X261.03 Y221.238 E21.03613
G1 X260.497 Y221.461 E21.07228
G1 X259.937 Y221.607 E21.10849
G1 X259.16 Y221.68 E21.15731
G1 X59.195 Y221.68 E33.66758
G1 X58.618 Y221.64 E33.70377
G1 X58.053 Y221.521 E33.73989
G1 X57.509 Y221.325 E33.77607
G1 X56.998 Y221.056 E33.8122
G1 X56.528 Y220.719 E33.84838
G1 X56.11 Y220.32 E33.88453
G1 X55.75 Y219.868 E33.92068
G1 X55.457 Y219.37 E33.95683
G1 X55.234 Y218.837 E33.99298
G1 X55.088 Y218.277 E34.02918
G1 X55.015 Y217.5 E34.07801
G1 X55.015 Y192.69 E35.63018
G1 X55.055 Y192.113 E35.66636
G1 X55.174 Y191.548 E35.70249
G1 X55.37 Y191.004 E35.73866
G1 X55.639 Y190.493 E35.77479
G1 X55.976 Y190.023 E35.81097
G1 X56.375 Y189.605 E35.84713
G1 X56.827 Y189.245 E35.88328
G1 X57.325 Y188.952 E35.91943
G1 X57.858 Y188.729 E35.95557
G1 X58.418 Y188.583 E35.99178
G1 X59.195 Y188.51 E36.0406
G1 X60.374 Y188.51 E36.11436
G1 X60.408 Y188.348 E36.12472
G1 X60.604 Y187.804 E36.1609
G1 X60.873 Y187.293 E36.19702
G1 X61.21 Y186.823 E36.23321
G1 X61.609 Y186.405 E36.26936
G1 X61.865 Y186.201 E36.28984
G1 X61.556 Y185.947 E36.31486
G1 X61.164 Y185.521 E36.35108
G1 X60.835 Y185.046 E36.38723
G1 X60.575 Y184.53 E36.42338
G1 X60.389 Y183.983 E36.45952
G1 X60.28 Y183.416 E36.49565
G1 X60.249 Y182.911 E36.5273
G1 X60.249 Y156.233 E38.19634
G1 X60.289 Y155.656 E38.23252
G1 X60.408 Y155.091 E38.26865
G1 X60.604 Y154.547 E38.30482
G1 X60.873 Y154.036 E38.34095
G1 X61.21 Y153.566 E38.37713
G1 X61.609 Y153.148 E38.41328
G1 X62.061 Y152.788 E38.44943
G1 X62.559 Y152.495 E38.48558
G1 X63.092 Y152.272 E38.52173
G1 X63.652 Y152.126 E38.55794
G1 X64.429 Y152.053 E38.60676
G1 X65.504 Y152.053 E38.67402
G1 X65.504 Y138.185 E39.54163
G1 X64.003 Y138.185 E39.63554
G1 X63.426 Y138.145 E39.67172
G1 X62.861 Y138.026 E39.70784
G1 X62.317 Y137.83 E39.74402
G1 X62.269 Y137.805 E39.74741
G1 X60.735 Y138.363 E39.84953
G1 X60.179 Y138.523 E39.88572
G1 X59.607 Y138.604 E39.92187
G1 X59.029 Y138.606 E39.95803
G1 X58.457 Y138.528 E39.99415
G1 X57.9 Y138.372 E40.03033
G1 X57.371 Y138.14 E40.06647
G1 X56.878 Y137.838 E40.10264
G1 X56.432 Y137.471 E40.13878
G1 X56.04 Y137.046 E40.17495
G1 X55.712 Y136.57 E40.21111
G1 X55.451 Y136.054 E40.24729
G1 X55.265 Y135.507 E40.28344
G1 X55.156 Y134.94 E40.31956
G1 X55.125 Y134.435 E40.35121
G1 X55.125 Y124.434 E40.9769
G1 X55.165 Y123.857 E41.01308
G1 X55.284 Y123.292 E41.04921
G1 X55.48 Y122.748 E41.08538
G1 X55.749 Y122.237 E41.12151
G1 X56.086 Y121.767 E41.15769
G1 X56.485 Y121.349 E41.19384
G1 X56.937 Y120.989 E41.23
G1 X57.435 Y120.696 E41.26614
G1 X57.968 Y120.473 E41.30229
G1 X58.528 Y120.327 E41.3385
G1 X59.101 Y120.259 E41.3746
G1 X59.679 Y120.271 E41.41077
G1 X59.823 Y120.294 E41.41989
G1 X59.823 Y110.685 E42.02105
G1 X59.863 Y110.108 E42.05724
G1 X59.982 Y109.543 E42.09336
G1 X60.178 Y108.999 E42.12953
G1 X60.447 Y108.488 E42.16566
G1 X60.784 Y108.018 E42.20184
G1 X61.183 Y107.6 E42.238
G1 X61.635 Y107.24 E42.27415
G1 X62.133 Y106.947 E42.3103
M204 S5000
G0 X62.545 Y107.241
M204 S500
G1 X63.01 Y107.079 E42.3411
G1 X129.023 Y88.894 E46.62487
G1 X129.559 Y88.788 E46.65905
G1 X130.016 Y88.76 E46.6877
G1 X196.559 Y88.76 E50.85078
G1 X197.104 Y88.8 E50.88497
G1 X197.524 Y88.887 E50.9118
G1 X259.463 Y105.432 E54.92271
G1 X259.98 Y105.611 E54.95694
G1 X260.464 Y105.864 E54.99111
G1 X260.907 Y106.184 E55.0253
G1 X261.298 Y106.566 E55.0595
G1 X261.63 Y107.001 E55.09373
G1 X261.894 Y107.479 E55.12789
G1 X262.086 Y107.991 E55.1621
G1 X262.202 Y108.525 E55.19629
G1 X262.238 Y109.045 E55.2289
G1 X262.238 Y120.19 E55.92616
G1 X262.198 Y120.735 E55.96035
G1 X262.11 Y121.158 E55.98738
G1 X261.422 Y123.724 E56.15358
G1 X261.679 Y123.766 E56.16988
G1 X262.2 Y123.932 E56.20408
G1 X262.691 Y124.172 E56.23828
G1 X263.142 Y124.482 E56.27251
G1 X263.542 Y124.854 E56.30669
G1 X263.885 Y125.28 E56.34091
G1 X264.161 Y125.751 E56.37506
G1 X264.366 Y126.258 E56.40927
G1 X264.495 Y126.79 E56.44352
G1 X264.545 Y127.402 E56.48194
G1 X264.545 Y137.402 E57.10756
G1 X264.505 Y137.947 E57.14175
G1 X264.386 Y138.481 E57.17598
G1 X264.191 Y138.991 E57.21013
G1 X263.923 Y139.468 E57.24436
G1 X263.588 Y139.9 E57.27857
G1 X263.195 Y140.279 E57.31272
G1 X262.75 Y140.597 E57.34694
G1 X262.263 Y140.846 E57.38116
G1 X261.746 Y141.022 E57.41533
G1 X261.208 Y141.12 E57.44954
G1 X260.662 Y141.139 E57.48372
G1 X260.118 Y141.078 E57.51797
G1 X259.525 Y140.916 E57.55643
G1 X258.611 Y140.583 E57.61729
G1 X254.865 Y153.859 E58.48029
G1 X258.874 Y154.93 E58.7399
G1 X259.391 Y155.109 E58.77413
G1 X259.875 Y155.362 E58.8083
G1 X260.318 Y155.682 E58.84249
G1 X260.709 Y156.064 E58.87669
G1 X261.041 Y156.499 E58.91092
G1 X261.305 Y156.977 E58.94508
G1 X261.497 Y157.489 E58.97929
G1 X261.613 Y158.023 E59.01348
G1 X261.649 Y158.569 E59.04771
G1 X261.605 Y159.114 E59.08192
G1 X261.522 Y159.509 E59.10717
G1 X257.938 Y172.911 E59.9751
G1 X257.938 Y190.872 E61.09878
G1 X259.16 Y190.872 E61.17523
G1 X259.705 Y190.912 E61.20942
G1 X260.239 Y191.031 E61.24365
G1 X260.749 Y191.226 E61.27781
G1 X261.226 Y191.494 E61.31203
G1 X261.658 Y191.829 E61.34624
G1 X262.037 Y192.222 E61.38039
G1 X262.355 Y192.667 E61.41461
G1 X262.604 Y193.154 E61.44883
G1 X262.78 Y193.671 E61.483
G1 X262.878 Y194.209 E61.51721
G1 X262.9 Y194.612 E61.54246
G1 X262.9 Y202.793 E62.05428
G1 X262.86 Y203.338 E62.08847
G1 X262.741 Y203.872 E62.1227
G1 X262.546 Y204.382 E62.15686
G1 X262.278 Y204.859 E62.19109
G1 X261.943 Y205.291 E62.22529
G1 X261.55 Y205.67 E62.25945
G1 X261.105 Y205.988 E62.29367
G1 X260.922 Y206.081 E62.30651
G1 X261.046 Y206.142 E62.31515
G1 X261.496 Y206.452 E62.34934
G1 X261.897 Y206.823 E62.38352
G1 X262.239 Y207.25 E62.41774
G1 X262.516 Y207.721 E62.45193
G1 X262.721 Y208.228 E62.48614
G1 X262.849 Y208.759 E62.52032
G1 X262.9 Y209.372 E62.5588
G1 X262.9 Y217.5 E63.0673
G1 X262.86 Y218.045 E63.10149
G1 X262.741 Y218.579 E63.13572
G1 X262.546 Y219.089 E63.16988
G1 X262.278 Y219.566 E63.20411
G1 X261.943 Y219.998 E63.23831
G1 X261.55 Y220.377 E63.27247
G1 X261.105 Y220.695 E63.30669
G1 X260.618 Y220.944 E63.34091
G1 X260.101 Y221.12 E63.37507
G1 X259.563 Y221.218 E63.40929
G1 X259.16 Y221.24 E63.43454
G1 X59.195 Y221.24 E75.94481
G1 X58.65 Y221.2 E75.979
G1 X58.116 Y221.081 E76.01323
G1 X57.606 Y220.886 E76.04738
G1 X57.129 Y220.618 E76.08161
G1 X56.697 Y220.283 E76.11582
G1 X56.318 Y219.89 E76.14997
G1 X56 Y219.445 E76.18419
G1 X55.751 Y218.958 E76.21841
G1 X55.575 Y218.441 E76.25258
G1 X55.477 Y217.903 E76.28679
G1 X55.455 Y217.5 E76.31204
G1 X55.455 Y192.69 E77.86421
G1 X55.495 Y192.145 E77.8984
G1 X55.614 Y191.611 E77.93263
G1 X55.809 Y191.101 E77.96679
G1 X56.077 Y190.624 E78.00102
G1 X56.412 Y190.192 E78.03522
G1 X56.805 Y189.813 E78.06938
G1 X57.25 Y189.495 E78.10359
G1 X57.737 Y189.246 E78.13781
G1 X58.254 Y189.07 E78.17198
G1 X58.792 Y188.972 E78.20619
G1 X59.195 Y188.95 E78.23144
G1 X60.729 Y188.95 E78.32741
G1 X60.848 Y188.411 E78.36195
G1 X61.043 Y187.901 E78.39611
G1 X61.311 Y187.424 E78.43034
G1 X61.646 Y186.992 E78.46454
G1 X62.039 Y186.613 E78.49869
G1 X62.484 Y186.295 E78.53291
G1 X62.667 Y186.201 E78.54578
G1 X62.542 Y186.14 E78.55449
G1 X62.092 Y185.831 E78.58864
G1 X61.691 Y185.459 E78.62286
G1 X61.349 Y185.033 E78.65703
G1 X61.073 Y184.561 E78.69124
G1 X60.868 Y184.054 E78.72546
G1 X60.739 Y183.523 E78.75964
G1 X60.689 Y182.911 E78.79806
G1 X60.689 Y156.233 E80.4671
G1 X60.729 Y155.688 E80.50128
G1 X60.848 Y155.154 E80.53551
G1 X61.043 Y154.644 E80.56967
G1 X61.311 Y154.167 E80.6039
G1 X61.646 Y153.735 E80.6381
G1 X62.039 Y153.356 E80.67226
G1 X62.484 Y153.038 E80.70648
G1 X62.971 Y152.789 E80.7407
G1 X63.488 Y152.613 E80.77487
G1 X64.026 Y152.515 E80.80908
G1 X64.429 Y152.493 E80.83433
G1 X65.944 Y152.493 E80.92911
G1 X65.944 Y137.745 E81.85178
G1 X64.003 Y137.745 E81.97321
G1 X63.458 Y137.705 E82.0074
G1 X62.924 Y137.586 E82.04163
G1 X62.414 Y137.391 E82.07579
G1 X62.297 Y137.325 E82.08419
G1 X60.584 Y137.949 E82.19825
G1 X60.058 Y138.098 E82.23245
G1 X59.516 Y138.169 E82.26665
G1 X58.97 Y138.16 E82.30081
G1 X58.43 Y138.071 E82.33505
G1 X57.91 Y137.905 E82.3692
G1 X57.419 Y137.664 E82.40342
G1 X56.968 Y137.355 E82.43763
G1 X56.567 Y136.983 E82.47185
G1 X56.225 Y136.557 E82.50602
G1 X55.949 Y136.085 E82.54023
G1 X55.744 Y135.578 E82.57444
G1 X55.615 Y135.047 E82.60863
G1 X55.565 Y134.435 E82.64705
G1 X55.565 Y124.434 E83.27273
G1 X55.605 Y123.889 E83.30692
G1 X55.724 Y123.355 E83.34115
G1 X55.919 Y122.845 E83.37531
G1 X56.187 Y122.368 E83.40954
G1 X56.522 Y121.936 E83.44374
G1 X56.915 Y121.557 E83.4779
G1 X57.36 Y121.239 E83.51211
G1 X57.847 Y120.99 E83.54633
G1 X58.364 Y120.814 E83.5805
G1 X58.902 Y120.716 E83.61471
G1 X59.448 Y120.697 E83.64889
G1 X59.992 Y120.758 E83.68314
G1 X60.263 Y120.832 E83.70072
G1 X60.263 Y110.685 E84.33554
G1 X60.303 Y110.14 E84.36972
G1 X60.422 Y109.606 E84.40395
G1 X60.617 Y109.096 E84.43811
G1 X60.885 Y108.619 E84.47234
G1 X61.22 Y108.187 E84.50654
G1 X61.613 Y107.808 E84.5407
G1 X62.058 Y107.49 E84.57492
G1 X62.545 Y107.241 E84.60914
M204 S5000
G0 X62.477 Y107.759
M204 S500
G1 X63.127 Y107.504 E84.65282
G1 X129.14 Y89.319 E88.93658
G1 X129.644 Y89.221 E88.96871
G1 X130.016 Y89.2 E88.99202
G1 X196.559 Y89.2 E93.1551
G1 X197.071 Y89.24 E93.18723
G1 X197.411 Y89.312 E93.20897
G1 X259.35 Y105.857 E97.21988
G1 X259.834 Y106.027 E97.25198
G1 X260.286 Y106.271 E97.28411
G1 X260.694 Y106.582 E97.31621
G1 X261.05 Y106.953 E97.34838
G1 X261.343 Y107.374 E97.38047
G1 X261.568 Y107.835 E97.41256
G1 X261.719 Y108.326 E97.4447
G1 X261.798 Y109.045 E97.48995
G1 X261.798 Y120.19 E98.18721
G1 X261.758 Y120.702 E98.21934
G1 X261.685 Y121.044 E98.24122
G1 X260.863 Y124.111 E98.43987
G1 X261.194 Y124.125 E98.46059
G1 X261.697 Y124.225 E98.49268
G1 X262.179 Y124.402 E98.5248
G1 X262.628 Y124.651 E98.55692
G1 X263.033 Y124.967 E98.58906
G1 X263.383 Y125.342 E98.62115
G1 X263.672 Y125.767 E98.65331
G1 X263.89 Y126.232 E98.68544
G1 X264.035 Y126.724 E98.71753
G1 X264.105 Y127.402 E98.76017
G1 X264.105 Y137.402 E99.38579
G1 X264.065 Y137.914 E99.41792
G1 X263.946 Y138.413 E99.45001
G1 X263.751 Y138.888 E99.48214
G1 X263.485 Y139.327 E99.51425
G1 X263.154 Y139.72 E99.5464
G1 X262.766 Y140.056 E99.57851
G1 X262.331 Y140.328 E99.61061
G1 X261.858 Y140.529 E99.64276
G1 X261.361 Y140.655 E99.67484
G1 X260.849 Y140.702 E99.707
G1 X260.337 Y140.669 E99.7391
G1 X259.676 Y140.503 E99.78174
G1 X258.317 Y140.008 E99.87222
G1 X254.321 Y154.169 E100.79277
G1 X258.761 Y155.355 E101.08028
G1 X259.245 Y155.526 E101.1124
G1 X259.697 Y155.769 E101.1445
G1 X260.105 Y156.08 E101.1766
G1 X260.461 Y156.451 E101.20877
G1 X260.755 Y156.872 E101.24089
G1 X260.979 Y157.333 E101.27296
G1 X261.13 Y157.824 E101.3051
G1 X261.202 Y158.333 E101.33726
G1 X261.195 Y158.846 E101.36935
G1 X261.097 Y159.396 E101.40431
G1 X257.498 Y172.854 E102.27586
G1 X257.498 Y191.312 E103.43063
G1 X259.16 Y191.312 E103.53461
G1 X259.672 Y191.352 E103.56674
G1 X260.171 Y191.471 E103.59883
G1 X260.646 Y191.666 E103.63096
G1 X261.085 Y191.932 E103.66307
G1 X261.478 Y192.263 E103.69522
G1 X261.814 Y192.651 E103.72733
G1 X262.086 Y193.086 E103.75942
G1 X262.287 Y193.559 E103.79158
G1 X262.413 Y194.056 E103.82365
G1 X262.46 Y194.612 E103.85856
G1 X262.46 Y202.793 E104.37039
G1 X262.42 Y203.305 E104.40251
G1 X262.301 Y203.804 E104.43461
G1 X262.106 Y204.279 E104.46673
G1 X261.84 Y204.718 E104.49885
G1 X261.509 Y205.111 E104.53099
G1 X261.121 Y205.447 E104.5631
G1 X260.686 Y205.719 E104.5952
G1 X260.213 Y205.92 E104.62735
G1 X259.716 Y206.046 E104.65943
G1 X259.295 Y206.085 E104.68588
G1 X259.548 Y206.095 E104.70172
G1 X260.052 Y206.195 E104.73387
G1 X260.534 Y206.372 E104.76599
G1 X260.983 Y206.621 E104.79811
G1 X261.387 Y206.937 E104.8302
G1 X261.738 Y207.312 E104.86234
G1 X262.026 Y207.737 E104.89445
G1 X262.245 Y208.201 E104.92655
G1 X262.39 Y208.694 E104.9587
G1 X262.46 Y209.372 E105.00135
G1 X262.46 Y217.5 E105.50985
G1 X262.42 Y218.012 E105.54198
G1 X262.301 Y218.511 E105.57408
G1 X262.106 Y218.986 E105.6062
G1 X261.84 Y219.425 E105.63831
G1 X261.509 Y219.818 E105.67046
G1 X261.121 Y220.154 E105.70257
G1 X260.686 Y220.426 E105.73467
G1 X260.213 Y220.627 E105.76682
G1 X259.716 Y220.753 E105.7989
G1 X259.16 Y220.8 E105.83381
G1 X59.195 Y220.8 E118.34408
G1 X58.683 Y220.76 E118.37621
G1 X58.184 Y220.641 E118.4083
G1 X57.709 Y220.446 E118.44043
G1 X57.27 Y220.18 E118.47254
G1 X56.877 Y219.849 E118.50469
G1 X56.541 Y219.461 E118.5368
G1 X56.269 Y219.026 E118.56889
G1 X56.068 Y218.553 E118.60105
G1 X55.942 Y218.056 E118.63312
G1 X55.895 Y217.5 E118.66803
G1 X55.895 Y192.69 E120.2202
G1 X55.935 Y192.178 E120.25233
G1 X56.054 Y191.679 E120.28443
