;FLAVOR:Marlin
;TIME:3430
;Filament used: 2.99748m
;Layer height: 0.2
;MINX:121.947
;MINY:97.355
;MINZ:0.3
;MAXX:198.053
;MAXY:212.584
;MAXZ:1.5
;Generated with Cura_SteamEngine 4.9.1
M140 S85
M105
M190 S85
M104 S235
M105
M109 S235
M82 ;absolute extrusion mode
G28 ;Home
G1 Z15.0 F6000 ;Move the platform down 15mm
;Prime the extruder
G92 E0
G1 F200 E3
G92 E0
G92 E0
G92 E0
G1 F2100 E-1.5
;LAYER_COUNT:7
;LAYER:0
M107
M204 S5000
M205 X5 Y5
G1 F600 Z0.8
G0 F3600 X122.908 Y98.987 Z0.8
M204 S500
;TYPE:SKIRT
G1 F600 Z0.3
G1 F2100 E0
G1 F1500 X123.307 Y98.569 E0.03615
G1 X123.759 Y98.209 E0.0723
G1 X124.257 Y97.916 E0.10845
G1 X124.79 Y97.693 E0.1446
G1 X125.35 Y97.547 E0.1808
G1 X126.127 Y97.474 E0.22963
G1 X187.233 Y97.474 E4.05256
G1 X187.668 Y97.388 E4.0803
G1 X188.245 Y97.355 E4.11646
G1 X188.821 Y97.403 E4.15262
G1 X189.385 Y97.529 E4.18878
G1 X189.926 Y97.732 E4.22493
G1 X190.434 Y98.007 E4.26107
G1 X190.899 Y98.35 E4.29722
G1 X191.312 Y98.754 E4.33336
G1 X191.666 Y99.211 E4.36953
G1 X191.954 Y99.712 E4.40568
G1 X192.169 Y100.248 E4.44181
G1 X192.309 Y100.809 E4.47799
G1 X192.372 Y101.535 E4.52358
G1 X192.372 Y117.335 E5.51206
G1 X192.332 Y117.912 E5.54825
G1 X192.213 Y118.477 E5.58437
G1 X192.017 Y119.021 E5.62054
G1 X191.748 Y119.532 E5.65667
G1 X191.411 Y120.002 E5.69285
G1 X191.092 Y120.336 E5.72175
G1 X191.27 Y120.529 E5.73818
G1 X193.873 Y120.529 E5.90103
G1 X194.45 Y120.569 E5.93721
G1 X195.015 Y120.688 E5.97333
G1 X195.559 Y120.884 E6.00951
G1 X196.07 Y121.153 E6.04564
G1 X196.54 Y121.49 E6.08182
G1 X196.958 Y121.889 E6.11797
G1 X197.318 Y122.341 E6.15412
G1 X197.611 Y122.839 E6.19027
G1 X197.834 Y123.372 E6.22642
G1 X197.98 Y123.932 E6.26262
G1 X198.053 Y124.709 E6.31145
G1 X198.053 Y147.337 E7.72711
G1 X198.013 Y147.914 E7.76329
G1 X197.894 Y148.479 E7.79942
G1 X197.698 Y149.023 E7.83559
G1 X197.429 Y149.534 E7.87172
G1 X197.092 Y150.004 E7.9079
G1 X196.693 Y150.422 E7.94406
G1 X196.241 Y150.782 E7.98021
G1 X195.743 Y151.075 E8.01636
G1 X195.21 Y151.298 E8.0525
G1 X194.65 Y151.444 E8.08871
G1 X193.873 Y151.517 E8.13753
G1 X192.798 Y151.517 E8.20479
G1 X192.798 Y167.681 E9.21604
G1 X193.015 Y167.65 E9.22976
G1 X193.593 Y167.648 E9.26592
G1 X194.166 Y167.726 E9.3021
G1 X194.722 Y167.882 E9.33823
G1 X195.252 Y168.114 E9.37442
G1 X195.744 Y168.416 E9.41054
G1 X196.19 Y168.783 E9.44667
G1 X196.582 Y169.209 E9.48289
G1 X196.911 Y169.684 E9.51904
G1 X197.171 Y170.2 E9.55519
G1 X197.357 Y170.747 E9.59134
G1 X197.466 Y171.314 E9.62746
G1 X197.497 Y171.819 E9.65911
G1 X197.497 Y182.391 E10.32052
G1 X197.457 Y182.968 E10.35671
G1 X197.338 Y183.533 E10.39283
G1 X197.142 Y184.077 E10.429
G1 X196.873 Y184.588 E10.46513
G1 X196.536 Y185.058 E10.50131
G1 X196.137 Y185.476 E10.53747
G1 X195.685 Y185.836 E10.57362
G1 X195.187 Y186.129 E10.60977
G1 X194.654 Y186.352 E10.64591
G1 X194.094 Y186.498 E10.68212
G1 X193.521 Y186.566 E10.71822
G1 X192.943 Y186.554 E10.75439
G1 X192.372 Y186.463 E10.79056
G1 X191.93 Y186.332 E10.8194
G1 X191.837 Y186.461 E10.82935
G1 X191.438 Y186.879 E10.86551
G1 X190.986 Y187.239 E10.90166
G1 X190.488 Y187.532 E10.93781
G1 X189.955 Y187.755 E10.97395
G1 X189.395 Y187.901 E11.01016
G1 X188.618 Y187.974 E11.05898
G1 X187.564 Y187.974 E11.12492
G1 X187.564 Y208.404 E12.40307
G1 X187.524 Y208.981 E12.43926
G1 X187.405 Y209.546 E12.47538
G1 X187.209 Y210.09 E12.51156
G1 X186.94 Y210.601 E12.54768
G1 X186.603 Y211.071 E12.58387
G1 X186.204 Y211.489 E12.62002
G1 X185.752 Y211.849 E12.65617
G1 X185.254 Y212.142 E12.69232
G1 X184.721 Y212.365 E12.72846
G1 X184.161 Y212.511 E12.76467
G1 X183.384 Y212.584 E12.8135
G1 X126.127 Y212.584 E16.39563
G1 X125.55 Y212.544 E16.43181
G1 X124.985 Y212.425 E16.46793
G1 X124.441 Y212.229 E16.50411
G1 X123.93 Y211.96 E16.54024
G1 X123.46 Y211.623 E16.57642
G1 X123.042 Y211.224 E16.61257
G1 X122.682 Y210.772 E16.64872
G1 X122.389 Y210.274 E16.68487
G1 X122.166 Y209.741 E16.72102
G1 X122.02 Y209.181 E16.75722
G1 X121.947 Y208.404 E16.80605
G1 X121.947 Y101.654 E23.48458
G1 X121.987 Y101.077 E23.52076
G1 X122.106 Y100.512 E23.55689
G1 X122.302 Y99.968 E23.59306
G1 X122.571 Y99.457 E23.62919
G1 X122.908 Y98.987 E23.66537
M204 S5000
G0 F3600 X123.344 Y99.156
M204 S500
G1 F1500 X123.737 Y98.777 E23.69953
G1 X124.182 Y98.459 E23.73375
G1 X124.669 Y98.21 E23.76797
G1 X125.186 Y98.034 E23.80213
G1 X125.724 Y97.936 E23.83635
G1 X126.127 Y97.914 E23.8616
G1 X187.273 Y97.914 E27.68703
G1 X187.752 Y97.821 E27.71756
G1 X188.298 Y97.797 E27.75175
G1 X188.842 Y97.852 E27.78596
G1 X189.372 Y97.986 E27.82016
G1 X189.877 Y98.196 E27.85438
G1 X190.346 Y98.477 E27.88858
G1 X190.768 Y98.824 E27.92276
G1 X191.136 Y99.228 E27.95695
G1 X191.441 Y99.682 E27.99117
G1 X191.676 Y100.175 E28.02534
G1 X191.837 Y100.698 E28.05957
G1 X191.92 Y101.238 E28.09375
G1 X191.932 Y101.535 E28.11235
G1 X191.932 Y117.335 E29.10083
G1 X191.892 Y117.88 E29.13502
G1 X191.773 Y118.414 E29.16925
G1 X191.578 Y118.924 E29.20341
G1 X191.31 Y119.401 E29.23764
G1 X190.975 Y119.833 E29.27184
G1 X190.582 Y120.212 E29.306
G1 X190.406 Y120.338 E29.31954
G1 X190.528 Y120.422 E29.32881
G1 X190.929 Y120.793 E29.36298
G1 X191.07 Y120.969 E29.37709
G1 X193.873 Y120.969 E29.55245
G1 X194.418 Y121.009 E29.58664
G1 X194.952 Y121.128 E29.62087
G1 X195.462 Y121.323 E29.65503
G1 X195.939 Y121.591 E29.68926
G1 X196.371 Y121.926 E29.72346
G1 X196.75 Y122.319 E29.75762
G1 X197.068 Y122.764 E29.79184
G1 X197.317 Y123.251 E29.82606
G1 X197.493 Y123.768 E29.86022
G1 X197.591 Y124.306 E29.89444
G1 X197.613 Y124.709 E29.91969
G1 X197.613 Y147.337 E31.33535
G1 X197.573 Y147.882 E31.36953
G1 X197.454 Y148.416 E31.40376
G1 X197.259 Y148.926 E31.43792
G1 X196.991 Y149.403 E31.47215
G1 X196.656 Y149.835 E31.50635
G1 X196.263 Y150.214 E31.54051
G1 X195.818 Y150.532 E31.57473
G1 X195.331 Y150.781 E31.60895
G1 X194.814 Y150.957 E31.64311
G1 X194.276 Y151.055 E31.67733
G1 X193.873 Y151.077 E31.70258
G1 X192.358 Y151.077 E31.79736
G1 X192.358 Y168.214 E32.86949
G1 X192.564 Y168.156 E32.88288
G1 X193.106 Y168.085 E32.91708
G1 X193.653 Y168.094 E32.9513
G1 X194.192 Y168.183 E32.98548
G1 X194.713 Y168.349 E33.01969
G1 X195.204 Y168.59 E33.05391
G1 X195.654 Y168.899 E33.08806
G1 X196.055 Y169.271 E33.12228
G1 X196.397 Y169.697 E33.15646
G1 X196.673 Y170.169 E33.19067
G1 X196.878 Y170.676 E33.22488
G1 X197.007 Y171.207 E33.25907
G1 X197.057 Y171.819 E33.29748
G1 X197.057 Y182.391 E33.95889
G1 X197.017 Y182.936 E33.99308
G1 X196.898 Y183.47 E34.02731
G1 X196.703 Y183.98 E34.06147
G1 X196.435 Y184.457 E34.0957
G1 X196.1 Y184.889 E34.1299
G1 X195.707 Y185.268 E34.16405
G1 X195.262 Y185.586 E34.19827
G1 X194.775 Y185.835 E34.23249
G1 X194.258 Y186.011 E34.26666
G1 X193.72 Y186.109 E34.30087
G1 X193.174 Y186.128 E34.33505
G1 X192.63 Y186.067 E34.3693
G1 X192.037 Y185.905 E34.40776
G1 X191.766 Y185.806 E34.42581
G1 X191.736 Y185.86 E34.42967
G1 X191.401 Y186.292 E34.46387
G1 X191.008 Y186.671 E34.49803
G1 X190.563 Y186.989 E34.53225
G1 X190.076 Y187.238 E34.56647
G1 X189.559 Y187.414 E34.60064
G1 X189.021 Y187.512 E34.63485
G1 X188.618 Y187.534 E34.6601
G1 X187.124 Y187.534 E34.75357
G1 X187.124 Y208.404 E36.05924
G1 X187.084 Y208.949 E36.09343
G1 X186.965 Y209.483 E36.12766
G1 X186.77 Y209.993 E36.16182
G1 X186.502 Y210.47 E36.19605
G1 X186.167 Y210.902 E36.23025
G1 X185.774 Y211.281 E36.26441
G1 X185.329 Y211.599 E36.29862
G1 X184.842 Y211.848 E36.33284
G1 X184.325 Y212.024 E36.36701
G1 X183.787 Y212.122 E36.40122
G1 X183.384 Y212.144 E36.42647
G1 X126.127 Y212.144 E40.0086
G1 X125.582 Y212.104 E40.04279
G1 X125.048 Y211.985 E40.07702
G1 X124.538 Y211.79 E40.11118
G1 X124.061 Y211.522 E40.14541
G1 X123.629 Y211.187 E40.17961
G1 X123.25 Y210.794 E40.21377
G1 X122.932 Y210.349 E40.24799
G1 X122.683 Y209.862 E40.28221
G1 X122.507 Y209.345 E40.31637
G1 X122.409 Y208.807 E40.35059
G1 X122.387 Y208.404 E40.37584
G1 X122.387 Y101.654 E47.05436
G1 X122.427 Y101.109 E47.08855
G1 X122.546 Y100.575 E47.12278
G1 X122.741 Y100.065 E47.15694
G1 X123.009 Y99.588 E47.19117
G1 X123.344 Y99.156 E47.22537
M204 S5000
G0 F3600 X123.447 Y99.729
M204 S500
G1 F1500 X123.778 Y99.336 E47.25751
G1 X124.166 Y99 E47.28963
G1 X124.601 Y98.728 E47.32172
G1 X125.074 Y98.527 E47.35388
G1 X125.571 Y98.401 E47.38595
G1 X126.127 Y98.354 E47.42086
G1 X187.312 Y98.354 E51.24874
G1 X187.33 Y98.349 E51.24991
G1 X187.835 Y98.254 E51.28205
G1 X188.348 Y98.239 E51.31416
G1 X188.858 Y98.303 E51.34632
G1 X189.351 Y98.445 E51.37842
G1 X189.816 Y98.662 E51.41052
G1 X190.242 Y98.949 E51.44265
G1 X190.618 Y99.298 E51.47475
G1 X190.936 Y99.702 E51.50692
G1 X191.187 Y100.149 E51.53899
G1 X191.366 Y100.631 E51.57116
G1 X191.468 Y101.134 E51.60326
G1 X191.492 Y101.535 E51.6284
G1 X191.492 Y117.335 E52.61688
G1 X191.452 Y117.847 E52.64901
G1 X191.333 Y118.346 E52.68111
G1 X191.138 Y118.821 E52.71323
G1 X190.872 Y119.26 E52.74534
G1 X190.541 Y119.653 E52.77749
G1 X190.153 Y119.989 E52.8096
G1 X189.718 Y120.261 E52.8417
G1 X189.566 Y120.342 E52.85247
G1 X190.015 Y120.591 E52.88459
G1 X190.419 Y120.907 E52.91668
G1 X190.77 Y121.282 E52.94882
G1 X190.856 Y121.409 E52.95841
G1 X193.873 Y121.409 E53.14716
G1 X194.385 Y121.449 E53.17929
G1 X194.884 Y121.568 E53.21138
G1 X195.359 Y121.763 E53.24351
G1 X195.798 Y122.029 E53.27562
G1 X196.191 Y122.36 E53.30777
G1 X196.527 Y122.748 E53.33988
G1 X196.799 Y123.183 E53.37198
G1 X197 Y123.656 E53.40413
G1 X197.126 Y124.153 E53.43621
G1 X197.173 Y124.709 E53.47111
G1 X197.173 Y147.337 E54.88677
G1 X197.133 Y147.849 E54.9189
G1 X197.014 Y148.348 E54.951
G1 X196.819 Y148.823 E54.98312
G1 X196.553 Y149.262 E55.01523
G1 X196.222 Y149.655 E55.04738
G1 X195.834 Y149.991 E55.07949
G1 X195.399 Y150.263 E55.11159
G1 X194.926 Y150.464 E55.14374
G1 X194.429 Y150.59 E55.17582
G1 X193.873 Y150.637 E55.21073
G1 X191.918 Y150.637 E55.33304
G1 X191.918 Y168.817 E56.47042
G1 X192.189 Y168.718 E56.48847
G1 X192.683 Y168.58 E56.52056
G1 X193.193 Y168.521 E56.55268
G1 X193.706 Y168.542 E56.5848
G1 X194.21 Y168.642 E56.61695
G1 X194.692 Y168.819 E56.64907
G1 X195.14 Y169.069 E56.68117
G1 X195.545 Y169.385 E56.7133
G1 X195.896 Y169.76 E56.74544
G1 X196.184 Y170.185 E56.77756
G1 X196.403 Y170.649 E56.80966
G1 X196.547 Y171.142 E56.84179
G1 X196.617 Y171.819 E56.88437
G1 X196.617 Y182.391 E57.54578
G1 X196.577 Y182.903 E57.57791
G1 X196.458 Y183.402 E57.61
G1 X196.263 Y183.877 E57.64213
G1 X195.997 Y184.316 E57.67424
G1 X195.666 Y184.709 E57.70639
G1 X195.278 Y185.045 E57.7385
G1 X194.843 Y185.317 E57.77059
G1 X194.37 Y185.518 E57.80275
G1 X193.873 Y185.644 E57.83482
G1 X193.361 Y185.691 E57.86699
G1 X192.849 Y185.658 E57.89909
G1 X192.188 Y185.492 E57.94173
G1 X191.569 Y185.267 E57.98293
G1 X191.564 Y185.28 E57.9838
G1 X191.298 Y185.719 E58.01592
G1 X190.967 Y186.112 E58.04806
G1 X190.579 Y186.448 E58.08017
G1 X190.144 Y186.72 E58.11227
G1 X189.671 Y186.921 E58.14442
G1 X189.174 Y187.047 E58.1765
G1 X188.618 Y187.094 E58.21141
G1 X186.684 Y187.094 E58.3324
G1 X186.684 Y208.404 E59.66561
G1 X186.644 Y208.916 E59.69774
G1 X186.525 Y209.415 E59.72983
G1 X186.33 Y209.89 E59.76195
G1 X186.064 Y210.329 E59.79407
G1 X185.733 Y210.722 E59.82621
G1 X185.345 Y211.058 E59.85832
G1 X184.91 Y211.33 E59.89042
G1 X184.437 Y211.531 E59.92257
G1 X183.94 Y211.657 E59.95465
G1 X183.384 Y211.704 E59.98956
G1 X126.127 Y211.704 E63.57169
G1 X125.615 Y211.664 E63.60382
G1 X125.116 Y211.545 E63.63591
G1 X124.641 Y211.35 E63.66804
G1 X124.202 Y211.084 E63.70015
G1 X123.809 Y210.753 E63.7323
G1 X123.473 Y210.365 E63.76441
G1 X123.201 Y209.93 E63.7965
G1 X123 Y209.457 E63.82866
G1 X122.874 Y208.96 E63.86073
G1 X122.827 Y208.404 E63.89564
G1 X122.827 Y101.654 E70.57417
G1 X122.867 Y101.142 E70.6063
G1 X122.986 Y100.643 E70.63839
G1 X123.181 Y100.168 E70.67052
G1 X123.447 Y99.729 E70.70263
M204 S5000
G0 F3600 X123.884 Y99.88
M204 S500
G1 F1500 X124.211 Y99.531 E70.73255
G1 X124.591 Y99.242 E70.76242
G1 X125.014 Y99.019 E70.79234
G1 X125.468 Y98.871 E70.82221
G1 X126.127 Y98.794 E70.86372
G1 X187.371 Y98.794 E74.69529
G1 X187.915 Y98.688 E74.72996
G1 X188.393 Y98.682 E74.75987
G1 X188.866 Y98.755 E74.78981
G1 X189.319 Y98.906 E74.81968
G1 X189.741 Y99.131 E74.8496
G1 X190.12 Y99.422 E74.8795
G1 X190.445 Y99.773 E74.90942
G1 X190.707 Y100.172 E74.93929
G1 X190.898 Y100.61 E74.96918
G1 X191.015 Y101.074 E74.99912
G1 X191.052 Y101.535 E75.02805
G1 X191.052 Y117.335 E76.01654
G1 X191.012 Y117.811 E76.04642
G1 X190.893 Y118.274 E76.07633
G1 X190.699 Y118.711 E76.10624
G1 X190.435 Y119.109 E76.13612
G1 X190.108 Y119.458 E76.16604
G1 X189.728 Y119.747 E76.19591
G1 X189.305 Y119.97 E76.22583
G1 X188.851 Y120.118 E76.2557
G1 X188.378 Y120.189 E76.28562
G1 X187.9 Y120.18 E76.31553
G1 X187.214 Y120.023 E76.35956
G1 X186.354 Y119.71 E76.41682
G1 X186.354 Y120.968 E76.49552
G1 X187.213 Y120.655 E76.55272
G1 X187.674 Y120.529 E76.58262
G1 X188.15 Y120.482 E76.61254
G1 X188.627 Y120.515 E76.64246
G1 X189.091 Y120.627 E76.67232
G1 X189.531 Y120.815 E76.70225
G1 X189.933 Y121.073 E76.73214
G1 X190.287 Y121.395 E76.76208
G1 X190.624 Y121.849 E76.79745
G1 X193.873 Y121.849 E77.00071
G1 X194.349 Y121.889 E77.0306
G1 X194.812 Y122.008 E77.06051
G1 X195.249 Y122.202 E77.09042
G1 X195.647 Y122.466 E77.1203
G1 X195.996 Y122.793 E77.15022
G1 X196.285 Y123.173 E77.18009
G1 X196.508 Y123.596 E77.21
G1 X196.656 Y124.05 E77.23988
G1 X196.733 Y124.709 E77.28139
G1 X196.733 Y147.337 E78.69705
G1 X196.693 Y147.813 E78.72693
G1 X196.574 Y148.276 E78.75684
G1 X196.38 Y148.713 E78.78675
G1 X196.116 Y149.111 E78.81663
G1 X195.789 Y149.46 E78.84655
G1 X195.409 Y149.749 E78.87642
G1 X194.986 Y149.972 E78.90634
G1 X194.532 Y150.12 E78.93621
G1 X193.873 Y150.197 E78.97772
G1 X191.478 Y150.197 E79.12756
G1 X191.478 Y169.444 E80.33169
G1 X192.339 Y169.131 E80.38901
G1 X192.8 Y169.006 E80.41889
G1 X193.276 Y168.959 E80.44882
G1 X193.753 Y168.992 E80.47873
G1 X194.217 Y169.104 E80.50859
G1 X194.657 Y169.292 E80.53853
G1 X195.059 Y169.55 E80.56841
G1 X195.412 Y169.872 E80.5983
G1 X195.707 Y170.248 E80.6282
G1 X195.935 Y170.668 E80.6581
G1 X196.09 Y171.12 E80.688
G1 X196.177 Y171.819 E80.73206
G1 X196.177 Y182.391 E81.39347
G1 X196.137 Y182.867 E81.42336
G1 X196.018 Y183.33 E81.45327
G1 X195.824 Y183.767 E81.48318
G1 X195.56 Y184.165 E81.51306
G1 X195.233 Y184.514 E81.54298
G1 X194.853 Y184.803 E81.57285
G1 X194.43 Y185.026 E81.60276
G1 X193.976 Y185.174 E81.63264
G1 X193.503 Y185.245 E81.66256
G1 X193.025 Y185.236 E81.69247
G1 X192.338 Y185.078 E81.73657
G1 X191.325 Y184.709 E81.80402
G1 X191.125 Y185.17 E81.83546
G1 X190.861 Y185.568 E81.86534
G1 X190.534 Y185.917 E81.89526
G1 X190.154 Y186.206 E81.92513
G1 X189.731 Y186.429 E81.95505
G1 X189.277 Y186.577 E81.98492
G1 X188.618 Y186.654 E82.02643
G1 X186.244 Y186.654 E82.17495
G1 X186.244 Y208.404 E83.53568
G1 X186.204 Y208.88 E83.56557
G1 X186.085 Y209.343 E83.59548
G1 X185.891 Y209.78 E83.62539
G1 X185.627 Y210.178 E83.65527
G1 X185.3 Y210.527 E83.68519
G1 X184.92 Y210.816 E83.71506
G1 X184.497 Y211.039 E83.74497
G1 X184.043 Y211.187 E83.77485
G1 X183.384 Y211.264 E83.81636
G1 X126.127 Y211.264 E87.39849
G1 X125.651 Y211.224 E87.42837
G1 X125.188 Y211.105 E87.45828
G1 X124.751 Y210.911 E87.48819
G1 X124.353 Y210.647 E87.51807
G1 X124.004 Y210.32 E87.54799
G1 X123.715 Y209.94 E87.57786
G1 X123.492 Y209.517 E87.60778
G1 X123.344 Y209.063 E87.63765
G1 X123.267 Y208.404 E87.67916
G1 X123.267 Y101.654 E94.35769
G1 X123.307 Y101.178 E94.38757
G1 X123.426 Y100.715 E94.41748
G1 X123.62 Y100.278 E94.44739
G1 X123.884 Y99.88 E94.47727
M204 S5000
G0 F3600 X124.32 Y100.045
M204 S500
G1 F1500 X124.641 Y99.744 E94.5048
G1 X125.011 Y99.507 E94.53229
G1 X125.417 Y99.34 E94.55976
G1 X125.848 Y99.25 E94.5873
G1 X126.127 Y99.234 E94.60479
G1 X187.431 Y99.234 E98.44011
G1 X187.993 Y99.123 E98.47595
G1 X188.433 Y99.127 E98.50347
G1 X188.864 Y99.21 E98.53093
G1 X189.274 Y99.37 E98.55847
G1 X189.647 Y99.602 E98.58595
G1 X189.973 Y99.897 E98.61346
G1 X190.24 Y100.246 E98.64095
G1 X190.439 Y100.638 E98.66845
G1 X190.565 Y101.059 E98.69594
G1 X190.612 Y101.535 E98.72587
G1 X190.612 Y117.335 E99.71435
