;FLAVOR:Marlin
;TIME:2978
;Filament used: 4.27046m
;Layer height: 0.2
;MINX:10.379
;MINY:5.656
;MINZ:0.3
;MAXX:301.821
;MAXY:297.098
;MAXZ:1.1
;Generated with Cura_SteamEngine 4.8.0
M140 S85
M105
M190 S85
M104 S240
M105
M109 S240
M82 ;absolute extrusion mode
G28 ;Home
G1 Z15.0 F6000 ;Move the platform down 15mm
;Prime the extruder
G92 E0
G1 F200 E3
G92 E0
G92 E0
G92 E0
G1 F2400 E-3
;LAYER_COUNT:5
;LAYER:0
M107
M204 S5000
M205 X5 Y5
G1 F600 Z0.8
G0 F3000 X17.006 Y205.307 Z0.8
M204 S500
;TYPE:SKIRT
G1 F600 Z0.3
G1 F2400 E0
G1 X210.359 Y11.956 E18.00748
G1 X210.711 Y11.613 E18.03984
G1 X211.2 Y11.166 E18.08347
G1 X212.133 Y10.368 E18.16432
G1 X212.554 Y10.021 E18.20025
G1 X213.124 Y9.567 E18.24824
G1 X214.233 Y8.797 E18.33715
G1 X214.596 Y8.588 E18.36474
G1 X215.259 Y8.223 E18.41458
G1 X215.902 Y7.881 E18.46254
G1 X216.538 Y7.553 E18.50967
G1 X217.359 Y7.174 E18.56922
G1 X218.106 Y6.903 E18.62155
G1 X218.882 Y6.655 E18.6752
G1 X219.454 Y6.481 E18.71457
G1 X220.298 Y6.239 E18.77239
G1 X221.178 Y6.029 E18.83197
G1 X221.965 Y5.91 E18.88439
G1 X222.767 Y5.821 E18.93753
G1 X223.5 Y5.749 E18.98603
G1 X224.196 Y5.691 E19.03203
G1 X225.1 Y5.656 E19.09161
G1 X225.901 Y5.692 E19.14441
G1 X226.76 Y5.765 E19.20118
G1 X227.406 Y5.831 E19.24395
G1 X228.161 Y5.917 E19.29399
G1 X229.053 Y6.059 E19.35347
G1 X229.845 Y6.254 E19.40719
G1 X230.63 Y6.482 E19.46102
G1 X231.274 Y6.677 E19.50533
G1 X231.947 Y6.89 E19.55182
G1 X232.796 Y7.201 E19.61136
G1 X233.544 Y7.549 E19.66569
G1 X234.231 Y7.904 E19.71662
G1 X234.763 Y8.188 E19.75633
G1 X235.565 Y8.632 E19.8167
G1 X236.335 Y9.105 E19.87621
G1 X236.981 Y9.58 E19.92902
G1 X237.585 Y10.063 E19.97995
G1 X238.125 Y10.508 E20.02603
G1 X238.579 Y10.892 E20.06519
G1 X239.053 Y11.319 E20.1072
G1 X240.062 Y12.289 E20.19937
G1 X295.475 Y67.702 E25.36016
G1 X295.865 Y68.102 E25.39695
G1 X296.313 Y68.593 E25.44072
G1 X297.124 Y69.541 E25.52288
G1 X297.332 Y69.792 E25.54435
G1 X297.89 Y70.488 E25.6031
G1 X298.423 Y71.218 E25.66262
G1 X298.739 Y71.723 E25.70185
G1 X298.905 Y72.013 E25.72386
G1 X299.241 Y72.625 E25.76984
G1 X299.599 Y73.297 E25.81998
G1 X299.927 Y73.934 E25.86716
G1 X300.367 Y74.912 E25.93779
G1 X300.591 Y75.543 E25.98188
G1 X300.822 Y76.273 E26.03231
G1 X301.04 Y76.994 E26.08191
G1 X301.231 Y77.658 E26.12741
G1 X301.442 Y78.537 E26.18694
G1 X301.564 Y79.333 E26.23997
G1 X301.656 Y80.158 E26.29464
G1 X301.727 Y80.888 E26.34294
G1 X301.785 Y81.581 E26.38874
G1 X301.821 Y82.484 E26.44825
G1 X301.786 Y83.282 E26.50086
G1 X301.714 Y84.13 E26.5569
G1 X301.662 Y84.652 E26.59145
G1 X301.558 Y85.562 E26.65177
G1 X301.416 Y86.455 E26.71132
G1 X301.225 Y87.228 E26.76375
G1 X300.994 Y88.025 E26.8184
G1 X300.795 Y88.679 E26.86342
G1 X300.584 Y89.344 E26.90936
G1 X300.273 Y90.193 E26.96891
G1 X299.931 Y90.928 E27.02229
G1 X299.569 Y91.63 E27.07431
G1 X299.202 Y92.313 E27.12537
G1 X298.844 Y92.958 E27.17395
G1 X298.371 Y93.728 E27.23346
G1 X297.896 Y94.373 E27.28621
G1 X297.408 Y94.982 E27.33761
G1 X296.959 Y95.528 E27.38416
G1 X296.588 Y95.967 E27.42201
G1 X296.159 Y96.443 E27.46421
G1 X295.344 Y97.293 E27.54176
G1 X295.194 Y97.447 E27.55592
G1 X101.841 Y290.798 E45.5634
G1 X101.489 Y291.141 E45.59576
G1 X101 Y291.588 E45.63939
G1 X100.067 Y292.386 E45.72025
G1 X99.646 Y292.733 E45.75617
G1 X99.076 Y293.187 E45.80416
G1 X97.967 Y293.957 E45.89307
G1 X97.608 Y294.164 E45.92036
G1 X96.956 Y294.523 E45.96938
G1 X96.298 Y294.873 E46.01846
G1 X95.662 Y295.201 E46.06559
G1 X94.841 Y295.58 E46.12514
G1 X94.094 Y295.851 E46.17747
G1 X93.314 Y296.1 E46.23139
G1 X92.592 Y296.318 E46.28106
G1 X91.907 Y296.514 E46.32798
G1 X91.028 Y296.724 E46.38749
G1 X90.235 Y296.844 E46.44031
G1 X89.433 Y296.933 E46.49345
G1 X88.699 Y297.005 E46.54202
G1 X88.002 Y297.063 E46.58808
G1 X87.098 Y297.098 E46.64766
G1 X86.303 Y297.062 E46.70007
G1 X85.511 Y296.995 E46.75241
G1 X84.764 Y296.921 E46.80184
G1 X84.059 Y296.841 E46.84857
G1 X83.166 Y296.699 E46.90812
G1 X82.405 Y296.513 E46.95971
G1 X81.589 Y296.279 E47.01561
G1 X80.913 Y296.072 E47.06217
G1 X80.248 Y295.861 E47.10812
G1 X79.399 Y295.55 E47.16766
G1 X78.664 Y295.208 E47.22105
G1 X77.962 Y294.846 E47.27306
G1 X77.293 Y294.487 E47.32306
G1 X76.651 Y294.132 E47.37137
G1 X75.881 Y293.66 E47.43085
G1 X75.224 Y293.178 E47.48451
G1 X74.613 Y292.689 E47.53605
G1 X73.987 Y292.174 E47.58943
G1 X73.627 Y291.869 E47.62051
G1 X73.159 Y291.447 E47.66201
G1 X72.149 Y290.476 E47.75427
G1 X16.678 Y235.003 E52.92055
G1 X16.342 Y234.658 E52.95227
G1 X15.894 Y234.167 E52.99604
G1 X14.981 Y233.097 E53.08867
G1 X14.716 Y232.774 E53.11618
G1 X14.275 Y232.218 E53.16292
G1 X13.592 Y231.246 E53.24115
G1 X13.303 Y230.754 E53.27873
G1 X12.962 Y230.133 E53.32538
G1 X12.598 Y229.45 E53.37635
G1 X12.272 Y228.817 E53.42324
G1 X11.894 Y227.996 E53.48277
G1 X11.624 Y227.252 E53.53489
G1 X11.379 Y226.483 E53.58804
G1 X11.146 Y225.711 E53.64114
G1 X10.962 Y225.067 E53.68525
G1 X10.753 Y224.187 E53.74482
G1 X10.632 Y223.396 E53.79751
G1 X10.544 Y222.595 E53.85058
G1 X10.467 Y221.802 E53.90305
G1 X10.414 Y221.165 E53.94514
G1 X10.379 Y220.262 E54.00466
G1 X10.415 Y219.461 E54.05746
G1 X10.488 Y218.604 E54.1141
G1 X10.553 Y217.967 E54.15627
G1 X10.638 Y217.215 E54.20611
G1 X10.779 Y216.322 E54.26564
G1 X10.975 Y215.524 E54.31976
G1 X11.206 Y214.73 E54.37422
G1 X11.405 Y214.075 E54.4193
G1 X11.618 Y213.404 E54.46566
G1 X11.929 Y212.555 E54.5252
G1 X12.274 Y211.816 E54.57891
G1 X12.639 Y211.11 E54.63125
G1 X13 Y210.438 E54.68149
G1 X13.36 Y209.79 E54.7303
G1 X13.834 Y209.02 E54.78985
G1 X14.309 Y208.375 E54.8426
G1 X14.792 Y207.772 E54.89348
G1 X15.241 Y207.226 E54.94004
G1 X15.612 Y206.787 E54.97789
G1 X16.041 Y206.311 E55.02009
G1 X16.856 Y205.461 E55.09764
G1 X17.006 Y205.307 E55.11179
M204 S5000
G1 F2400 E52.11179
;MESH:ba6ac7d4-d49e-43bd-9568-9d9a8d952137.stl
G0 F3000 X23.763 Y212.064
G0 X24.714 Y213.015
G0 X226.844 Y16.807
G0 X226.949 Y16.275
M204 S500
;TYPE:WALL-OUTER
G1 F2400 E55.11179
G1 X228.787 Y16.832 E55.23827
G1 X230.476 Y17.735 E55.3644
G1 X231.963 Y18.956 E55.49111
G1 X288.522 Y75.514 E60.75858
G1 X289.742 Y77.001 E60.88525
G1 X290.645 Y78.69 E61.01137
G1 X291.202 Y80.528 E61.13785
G1 X291.39 Y82.434 E61.26398
G1 X291.202 Y84.34 E61.39011
G1 X290.645 Y86.178 E61.51659
G1 X289.742 Y87.867 E61.64272
G1 X288.521 Y89.354 E61.76942
G1 X94.077 Y283.798 E79.8786
G1 X92.59 Y285.019 E80.00531
G1 X90.901 Y285.922 E80.13144
G1 X89.063 Y286.479 E80.25792
G1 X87.157 Y286.667 E80.38405
G1 X85.252 Y286.479 E80.51011
G1 X83.414 Y285.922 E80.63659
G1 X81.725 Y285.019 E80.76272
G1 X80.237 Y283.798 E80.88948
G1 X23.679 Y227.24 E86.1569
G1 X22.458 Y225.752 E86.28366
G1 X21.555 Y224.063 E86.40979
G1 X20.998 Y222.226 E86.5362
G1 X20.81 Y220.32 E86.66233
G1 X20.998 Y218.414 E86.78846
G1 X21.555 Y216.576 E86.91494
G1 X22.458 Y214.887 E87.04107
G1 X23.679 Y213.4 E87.16777
G1 X218.123 Y18.956 E105.27695
G1 X219.61 Y17.735 E105.40366
G1 X221.299 Y16.832 E105.52979
G1 X223.137 Y16.275 E105.65627
G1 X225.043 Y16.087 E105.7824
G1 X226.949 Y16.275 E105.90853
M204 S5000
G0 F3000 X227.14 Y16.333
G0 X227 Y16.795
G1 F2400 E102.90853
G0 F3000 X226.983 Y16.849
G0 X150.531 Y99.405
G0 X177.226 Y138.295
G0 X68.274 Y252.372
G0 X87.506 Y271.704
G0 X87.887 Y271.324
M204 S500
G1 F2400 E105.90853
G1 X88.042 Y271.169 E105.92296
G1 X275.814 Y83.397 E123.41075
G1 X257.018 Y64.6 E125.16133
G1 X256.863 Y64.445 E125.17577
G1 X256.708 Y64.6 E125.18509
G1 X68.936 Y252.372 E142.67289
G1 X87.732 Y271.169 E144.42347
G1 X87.887 Y271.324 E144.43279
M204 S5000
G0 F3000 X88.028 Y271.183
G0 X88.041 Y271.792
M204 S500
;TYPE:WALL-INNER
G1 F2400 X276.436 Y83.397 E161.97861
G1 X257.017 Y63.977 E163.78721
G1 X256.863 Y63.823 E163.80155
G1 X256.709 Y63.977 E163.8108
G1 X68.314 Y252.372 E181.35662
G1 X87.733 Y271.792 E183.16522
G1 X87.887 Y271.946 E183.17956
G1 X88.041 Y271.792 E183.18881
M204 S5000
G0 F3000 X88.041 Y272.414
M204 S500
G1 F2400 X277.058 Y83.397 E200.79256
G1 X257.017 Y63.355 E202.65909
G1 X256.863 Y63.201 E202.67343
G1 X256.709 Y63.355 E202.68268
G1 X67.692 Y252.372 E220.28643
G1 X87.733 Y272.414 E222.15295
G1 X87.887 Y272.568 E222.1673
G1 X88.041 Y272.414 E222.17655
M204 S5000
G1 F2400 E219.17655
G0 F3000 X62.409 Y253.112
G0 X29.897 Y220.7
G0 X30.278 Y220.32
M204 S500
;TYPE:WALL-OUTER
G1 F2400 E222.17655
G1 X30.433 Y220.475 E222.19099
G1 X62.409 Y252.45 E225.16896
G1 X95.799 Y219.06 E228.27868
G1 X95.954 Y218.905 E228.29311
G1 X95.799 Y218.75 E228.30244
G1 X63.823 Y186.775 E231.28042
G1 X30.433 Y220.165 E234.39014
G1 X30.278 Y220.32 E234.39946
M204 S5000
G0 F3000 X30.419 Y220.461
G0 X29.81 Y220.474
M204 S500
;TYPE:WALL-INNER
G1 F2400 X62.409 Y253.072 E237.43546
G1 X96.422 Y219.059 E240.6032
G1 X96.576 Y218.905 E240.61754
G1 X96.422 Y218.751 E240.6268
G1 X63.823 Y186.153 E243.6628
G1 X29.81 Y220.166 E246.83053
G1 X29.656 Y220.32 E246.84488
G1 X29.81 Y220.474 E246.85413
M204 S5000
G0 F3000 X29.188 Y220.474
M204 S500
G1 F2400 X62.409 Y253.694 E249.94806
G1 X97.044 Y219.059 E253.17372
G1 X97.198 Y218.905 E253.18807
G1 X97.044 Y218.751 E253.19732
G1 X63.823 Y185.531 E256.29125
G1 X29.188 Y220.166 E259.51691
G1 X29.034 Y220.32 E259.53126
G1 X29.188 Y220.474 E259.54051
M204 S5000
G1 F2400 E256.54051
G0 F3000 X63.823 Y186.113
G0 X70.202 Y180.395
G0 X70.583 Y180.015
M204 S500
;TYPE:WALL-OUTER
G1 F2400 E259.54051
G1 X70.738 Y180.17 E259.55495
G1 X102.714 Y212.145 E262.53292
G1 X136.104 Y178.755 E265.64264
G1 X136.259 Y178.6 E265.65708
G1 X136.104 Y178.445 E265.6664
G1 X104.128 Y146.47 E268.64438
G1 X70.738 Y179.86 E271.7541
G1 X70.583 Y180.015 E271.76342
M204 S5000
G0 F3000 X70.724 Y180.156
G0 X70.115 Y180.169
M204 S500
;TYPE:WALL-INNER
G1 F2400 X102.714 Y212.767 E274.79942
G1 X136.727 Y178.754 E277.96716
G1 X136.881 Y178.6 E277.9815
G1 X136.727 Y178.446 E277.99076
G1 X104.128 Y145.848 E281.02676
G1 X70.115 Y179.861 E284.19449
G1 X69.961 Y180.015 E284.20884
G1 X70.115 Y180.169 E284.21809
M204 S5000
G0 F3000 X69.493 Y180.169
M204 S500
G1 F2400 X102.714 Y213.389 E287.31202
G1 X137.349 Y178.754 E290.53768
G1 X137.503 Y178.6 E290.55203
G1 X137.349 Y178.446 E290.56128
G1 X104.128 Y145.226 E293.65521
G1 X69.493 Y179.861 E296.88088
G1 X69.339 Y180.015 E296.89522
G1 X69.493 Y180.169 E296.90447
M204 S5000
G1 F2400 E293.90447
G0 F3000 X104.128 Y145.808
G0 X110.507 Y140.09
G0 X110.888 Y139.71
M204 S500
;TYPE:WALL-OUTER
G1 F2400 E296.90447
G1 X111.043 Y139.865 E296.91891
G1 X143.019 Y171.84 E299.89688
G1 X176.409 Y138.45 E303.0066
G1 X176.564 Y138.295 E303.02104
G1 X176.409 Y138.14 E303.03036
G1 X144.433 Y106.165 E306.00834
G1 X111.043 Y139.555 E309.11806
G1 X110.888 Y139.71 E309.12738
M204 S5000
G0 F3000 X111.029 Y139.851
G0 X110.42 Y139.864
M204 S500
;TYPE:WALL-INNER
G1 F2400 X143.019 Y172.462 E312.16338
G1 X177.032 Y138.449 E315.33112
G1 X177.186 Y138.295 E315.34546
G1 X177.032 Y138.141 E315.35472
G1 X144.433 Y105.543 E318.39072
G1 X110.42 Y139.556 E321.55845
G1 X110.266 Y139.71 E321.5728
G1 X110.42 Y139.864 E321.58205
M204 S5000
G0 F3000 X109.798 Y139.864
M204 S500
G1 F2400 X143.019 Y173.084 E324.67598
G1 X177.654 Y138.449 E327.90165
G1 X177.808 Y138.295 E327.91599
G1 X177.654 Y138.141 E327.92524
G1 X144.433 Y104.921 E331.01917
G1 X109.798 Y139.556 E334.24484
G1 X109.644 Y139.71 E334.25918
G1 X109.798 Y139.864 E334.26843
M204 S5000
G1 F2400 E331.26843
G0 F3000 X144.433 Y105.503
G0 X150.812 Y99.785
G0 X151.193 Y99.405
M204 S500
;TYPE:WALL-OUTER
G1 F2400 E334.26843
G1 X151.348 Y99.56 E334.28287
G1 X183.324 Y131.535 E337.26085
G1 X216.714 Y98.145 E340.37056
G1 X216.869 Y97.99 E340.385
G1 X216.714 Y97.835 E340.39432
G1 X184.738 Y65.86 E343.3723
G1 X151.348 Y99.25 E346.48202
G1 X151.193 Y99.405 E346.49134
M204 S5000
G0 F3000 X151.334 Y99.546
G0 X150.725 Y99.559
M204 S500
;TYPE:WALL-INNER
G1 F2400 X183.324 Y132.157 E349.52734
G1 X217.337 Y98.144 E352.69508
G1 X217.491 Y97.99 E352.70942
G1 X217.337 Y97.836 E352.71868
G1 X184.738 Y65.238 E355.75468
G1 X150.725 Y99.251 E358.92241
G1 X150.571 Y99.405 E358.93676
G1 X150.725 Y99.559 E358.94601
M204 S5000
G0 F3000 X150.103 Y99.559
M204 S500
G1 F2400 X183.324 Y132.779 E362.03994
G1 X217.959 Y98.144 E365.26561
G1 X218.113 Y97.99 E365.27995
G1 X217.959 Y97.836 E365.2892
G1 X184.738 Y64.616 E368.38313
G1 X150.103 Y99.251 E371.6088
G1 X149.949 Y99.405 E371.62314
G1 X150.103 Y99.559 E371.63239
M204 S5000
G1 F2400 E368.63239
G0 F3000 X184.738 Y65.198
G0 X191.117 Y59.48
G0 X191.498 Y59.1
M204 S500
;TYPE:WALL-OUTER
G1 F2400 E371.63239
G1 X191.653 Y59.255 E371.64683
G1 X223.629 Y91.23 E374.62481
G1 X257.019 Y57.84 E377.73452
G1 X257.174 Y57.685 E377.74896
G1 X257.019 Y57.53 E377.75828
G1 X225.043 Y25.555 E380.73626
G1 X191.653 Y58.945 E383.84598
G1 X191.498 Y59.1 E383.8553
M204 S5000
G0 F3000 X191.639 Y59.241
G0 X191.03 Y59.254
M204 S500
;TYPE:WALL-INNER
G1 F2400 X223.629 Y91.852 E386.89131
G1 X257.642 Y57.839 E390.05904
G1 X257.796 Y57.685 E390.07338
G1 X257.642 Y57.531 E390.08264
G1 X225.043 Y24.933 E393.11864
G1 X191.03 Y58.946 E396.28638
G1 X190.876 Y59.1 E396.30072
G1 X191.03 Y59.254 E396.30997
M204 S5000
G0 F3000 X190.408 Y59.254
M204 S500
G1 F2400 X223.629 Y92.474 E399.4039
G1 X258.264 Y57.839 E402.62957
G1 X258.418 Y57.685 E402.64391
G1 X258.264 Y57.531 E402.65316
G1 X225.043 Y24.311 E405.74709
G1 X190.408 Y58.946 E408.97276
G1 X190.254 Y59.1 E408.9871
G1 X190.408 Y59.254 E408.99635
M204 S5000
G1 F2400 E405.99635
G0 F3000 X226.844 Y16.807
G0 X226.863 Y16.709
M204 S500
G1 F2400 E408.99635
G1 X228.619 Y17.241 E409.11718
G1 X230.23 Y18.102 E409.23748
G1 X231.667 Y19.282 E409.35993
G1 X288.196 Y75.81 E414.62461
G1 X289.375 Y77.247 E414.74702
G1 X290.236 Y78.858 E414.86731
G1 X290.768 Y80.614 E414.98814
G1 X290.948 Y82.434 E415.10858
G1 X290.768 Y84.254 E415.22902
G1 X290.236 Y86.01 E415.34986
G1 X289.375 Y87.621 E415.47015
G1 X288.195 Y89.058 E415.5926
G1 X93.781 Y283.472 E433.69898
G1 X92.344 Y284.652 E433.82144
G1 X90.733 Y285.513 E433.94173
G1 X88.977 Y286.045 E434.06256
G1 X87.157 Y286.225 E434.183
G1 X85.338 Y286.045 E434.30338
G1 X83.582 Y285.513 E434.42421
G1 X81.971 Y284.652 E434.5445
G1 X80.533 Y283.472 E434.66701
G1 X24.005 Y226.944 E439.93164
G1 X22.825 Y225.506 E440.05414
G1 X21.964 Y223.895 E440.17443
G1 X21.432 Y222.14 E440.2952
G1 X21.252 Y220.32 E440.41564
G1 X21.432 Y218.5 E440.53608
G1 X21.964 Y216.744 E440.65691
G1 X22.825 Y215.133 E440.77721
G1 X24.005 Y213.696 E440.89966
G1 X218.419 Y19.282 E459.00604
G1 X219.856 Y18.102 E459.12849
G1 X221.467 Y17.241 E459.24879
G1 X223.223 Y16.709 E459.36962
G1 X225.043 Y16.529 E459.49006
G1 X226.863 Y16.709 E459.6105
M204 S5000
G0 F3000 X226.777 Y17.143
M204 S500
G1 F2400 X228.451 Y17.65 E459.72569
G1 X229.984 Y18.469 E459.84015
G1 X231.371 Y19.608 E459.95834
G1 X287.87 Y76.106 E465.22022
G1 X289.008 Y77.493 E465.33838
G1 X289.827 Y79.026 E465.45284
G1 X290.334 Y80.7 E465.56802
G1 X290.506 Y82.434 E465.68277
G1 X290.334 Y84.168 E465.79753
G1 X289.827 Y85.842 E465.91271
G1 X289.008 Y87.375 E466.02717
G1 X287.869 Y88.762 E466.14537
G1 X93.485 Y283.146 E484.24896
G1 X92.098 Y284.285 E484.36715
G1 X90.565 Y285.104 E484.48161
G1 X88.891 Y285.611 E484.5968
G1 X87.157 Y285.783 E484.71155
G1 X85.424 Y285.611 E484.82624
G1 X83.75 Y285.104 E484.94142
G1 X82.217 Y284.285 E485.05588
G1 X80.829 Y283.146 E485.17413
G1 X24.331 Y226.648 E490.43596
G1 X23.192 Y225.26 E490.55421
G1 X22.373 Y223.727 E490.66867
G1 X21.866 Y222.054 E490.78379
G1 X21.694 Y220.32 E490.89854
G1 X21.866 Y218.586 E491.0133
G1 X22.373 Y216.912 E491.12848
G1 X23.192 Y215.379 E491.24294
G1 X24.331 Y213.992 E491.36114
G1 X218.715 Y19.608 E509.46473
G1 X220.102 Y18.469 E509.58292
G1 X221.635 Y17.65 E509.69738
G1 X223.309 Y17.143 E509.81257
G1 X225.043 Y16.971 E509.92732
G1 X226.777 Y17.143 E510.04207
M204 S5000
G0 F3000 X226.691 Y17.567
M204 S500
;TYPE:SKIN
G1 F2400 X228.288 Y18.05 E510.15195
G1 X229.745 Y18.829 E510.26075
G1 X231.081 Y19.926 E510.37459
G1 X287.552 Y76.396 E515.63387
G1 X288.648 Y77.732 E515.74767
G1 X289.427 Y79.189 E515.85647
G1 X289.91 Y80.786 E515.96635
G1 X290.074 Y82.434 E516.07541
G1 X289.91 Y84.082 E516.18448
G1 X289.427 Y85.679 E516.29435
G1 X288.648 Y87.136 E516.40316
